; generated by PrusaSlicer 2.4.2+win64 on 2023-07-18 at 06:47:37 UTC

; 

; external perimeters extrusion width = 0.60mm
; perimeters extrusion width = 0.43mm
; infill extrusion width = 0.45mm
; solid infill extrusion width = 0.70mm
; top infill extrusion width = 0.45mm
; first layer extrusion width = 0.42mm

M73 P0 R169
M201 X9000 Y9000 Z500 E10000 ; sets maximum accelerations, mm/sec^2
M203 X500 Y500 Z12 E120 ; sets maximum feedrates, mm / sec
M204 P2000 R1500 T2000 ; sets acceleration (P, T) and retract acceleration (R), mm/sec^2
M205 X10.00 Y10.00 Z0.20 E2.50 ; sets the jerk limits, mm/sec
M205 S0 T0 ; sets the minimum extruding and travel feed rate, mm/sec
M107
;TYPE:Custom
M862.3 P "MK2S" ; printer model check
M862.1 P0.4 ; nozzle diameter check
M115 U3.2.3 ; tell printer latest fw version
G90 ; use absolute coordinates
M83 ; extruder relative mode
M204 S2000 T1500 ; MK2 firmware only supports the old M204 format
M104 S215 ; set extruder temp
M140 S60 ; set bed temp
M190 S60 ; wait for bed temp
M109 S215 ; wait for extruder temp
G28 W ; home all without mesh bed level
G80 ; mesh bed leveling
G1 Z0.2 F720
G1 Y-2 F1000 ; go outside print area
G92 E0
G1 X60 E9 F1000 ; intro line
G1 X100 E12.5 F1000 ; intro line
G92 E0
G21 ; set units to millimeters
G90 ; use absolute coordinates
M83 ; use relative distances for extrusion
M900 K0.05 ; Filament gcode LA 1.5
M900 K30 ; Filament gcode LA 1.0
M107
;LAYER_CHANGE
;Z:0.2
;HEIGHT:0.2
;BEFORE_LAYER_CHANGE
G92 E0.0
;0.2


G1 E-.8 F2100
G1 Z.4 F720
;AFTER_LAYER_CHANGE
;0.2
G1 X85.386 Y52.891 F10800
G1 Z.2 F720
G1 E.8 F2100
M204 S800
;TYPE:Skirt/Brim
;WIDTH:0.42
G1 F1200
G1 X86.433 Y52.016 E.04278
G1 X87.37 Y51.823 E.03
G1 X158.942 Y51.823 E2.24409
G1 X160.249 Y52.215 E.04278
G1 X161.283 Y53.787 E.05901
G1 X166.135 Y81.303 E.87604
G1 X166.171 Y92.3 E.34481
G1 X165.741 Y93.663 E.04482
G1 X121.278 Y157.163 E2.43056
G1 X120.207 Y158.009 E.04278
G1 X119.33 Y158.177 E.02799
G1 X87.37 Y158.177 E1.0021
G1 X86.063 Y157.785 E.04278
G1 X85.187 Y156.74 E.04278
G1 X84.993 Y155.803 E.03
G1 X84.993 Y54.197 E3.18576
G1 X85.369 Y52.948 E.0409
M204 S1000
; printing object Vacuum mk3.stl id:0 copy 0
;WIPE_START
G1 F8640
G1 X86.433 Y52.016 E-.32671
G1 X87.37 Y51.823 E-.22095
G1 X88.29 Y51.823 E-.21234
;WIPE_END
G1 E-.04 F2100
G1 Z.6 F720
G1 X89.389 Y54.987 F10800
G1 Z.2 F720
G1 E.8 F2100
M204 S800
;TYPE:Perimeter
G1 F1200
G1 X158.281 Y54.987 E2.16009
G1 X163.007 Y81.784 E.85317
G1 X163.007 Y92.052 E.32193
G1 X118.921 Y155.013 E2.40993
G1 X89.389 Y155.013 E.92596
G1 X89.408 Y146.565 E.26489
G1 X89.408 Y63.435 E2.60646
G1 X89.389 Y55.047 E.26301
M204 S1000
G1 X89.011 Y54.61 F10800
M204 S800
;TYPE:External perimeter
G1 F1200
G1 X158.598 Y54.61 E2.18186
G1 X163.384 Y81.751 E.86413
G1 X163.384 Y92.171 E.32669
G1 X119.117 Y155.39 E2.41981
G1 X89.011 Y155.39 E.94396
G1 X89.031 Y146.564 E.27673
G1 X89.031 Y63.436 E2.60643
G1 X89.011 Y54.67 E.27485
M204 S1000
G1 X89.357 Y54.81 F10800
;WIPE_START
G1 F8640
G1 X92.302 Y54.667 E-.76
;WIPE_END
G1 E-.04 F2100
G1 Z.6 F720
G1 X158.35 Y56.03 F10800
G1 Z.2 F720
G1 E.8 F2100
M204 S800
;TYPE:Solid infill
;WIDTH:0.420095
G1 F1200
G1 X157.591 Y55.27 E.03369
G1 X157.057 Y55.27 E.01673
G1 X158.255 Y56.468 E.05314
G1 X158.37 Y57.116 E.02062
G1 X156.524 Y55.27 E.08186
G1 X155.991 Y55.27 E.01673
G1 X158.484 Y57.763 E.11058
G1 X158.598 Y58.411 E.02062
G1 X155.457 Y55.27 E.13931
G1 X154.924 Y55.27 E.01673
G1 X158.712 Y59.058 E.16803
G1 X158.826 Y59.706 E.02062
G1 X154.39 Y55.27 E.19675
G1 X153.857 Y55.27 E.01673
G1 X158.941 Y60.354 E.22548
G1 X159.055 Y61.001 E.02062
G1 X153.324 Y55.27 E.2542
G1 X152.79 Y55.27 E.01673
G1 X159.169 Y61.649 E.28292
G1 X159.283 Y62.296 E.02062
M73 P0 R168
G1 X152.257 Y55.27 E.31164
G1 X151.723 Y55.27 E.01673
G1 X159.397 Y62.944 E.34037
G1 X159.512 Y63.592 E.02062
G1 X151.19 Y55.27 E.36909
G1 X150.656 Y55.27 E.01673
G1 X159.626 Y64.239 E.39781
G1 X159.74 Y64.887 E.02062
G1 X150.123 Y55.27 E.42653
G1 X149.59 Y55.27 E.01673
G1 X159.854 Y65.534 E.45526
G1 X159.968 Y66.182 E.02062
G1 X149.056 Y55.27 E.48398
G1 X148.523 Y55.27 E.01673
G1 X160.082 Y66.829 E.5127
G1 X160.197 Y67.477 E.02062
G1 X147.989 Y55.27 E.54142
G1 X147.456 Y55.27 E.01673
G1 X160.311 Y68.125 E.57015
G1 X160.425 Y68.772 E.02062
G1 X146.923 Y55.27 E.59887
G1 X146.389 Y55.27 E.01673
G1 X160.539 Y69.42 E.62759
G1 X160.653 Y70.067 E.02062
G1 X145.856 Y55.27 E.65632
G1 X145.322 Y55.27 E.01673
G1 X160.768 Y70.715 E.68504
G1 X160.882 Y71.363 E.02062
G1 X144.789 Y55.27 E.71376
G1 X144.256 Y55.27 E.01673
G1 X160.996 Y72.01 E.74248
G1 X161.11 Y72.658 E.02062
G1 X143.722 Y55.27 E.77121
G1 X143.189 Y55.27 E.01673
G1 X161.224 Y73.305 E.79993
G1 X161.339 Y73.953 E.02062
G1 X142.655 Y55.27 E.82865
G1 X142.122 Y55.27 E.01673
G1 X161.453 Y74.601 E.85737
G1 X161.567 Y75.248 E.02062
G1 X141.589 Y55.27 E.8861
G1 X141.055 Y55.27 E.01673
G1 X161.681 Y75.896 E.91482
G1 X161.795 Y76.543 E.02062
G1 X140.522 Y55.27 E.94354
G1 X139.988 Y55.27 E.01673
G1 X161.909 Y77.191 E.97227
G1 X162.024 Y77.839 E.02062
G1 X139.455 Y55.27 E1.00099
G1 X138.922 Y55.27 E.01673
G1 X162.138 Y78.486 E1.02971
G1 X162.252 Y79.134 E.02062
G1 X138.388 Y55.27 E1.05843
G1 X137.855 Y55.27 E.01673
G1 X162.366 Y79.781 E1.08716
G1 X162.48 Y80.429 E.02062
G1 X137.321 Y55.27 E1.11588
G1 X136.788 Y55.27 E.01673
G1 X162.595 Y81.077 E1.1446
G1 X162.709 Y81.724 E.02062
G1 X136.255 Y55.27 E1.17332
G1 X135.721 Y55.27 E.01673
G1 X162.724 Y82.273 E1.19765
G1 X162.724 Y82.806 E.01673
G1 X135.188 Y55.27 E1.2213
G1 X134.654 Y55.27 E.01673
G1 X162.724 Y83.339 E1.24496
G1 X162.724 Y83.873 E.01673
M73 P1 R168
G1 X134.121 Y55.27 E1.26862
G1 X133.587 Y55.27 E.01673
G1 X162.724 Y84.406 E1.29228
G1 X162.724 Y84.94 E.01673
G1 X133.054 Y55.27 E1.31594
G1 X132.521 Y55.27 E.01673
G1 X162.724 Y85.473 E1.3396
G1 X162.724 Y86.006 E.01673
G1 X131.987 Y55.27 E1.36325
G1 X131.454 Y55.27 E.01673
G1 X162.724 Y86.54 E1.38691
G1 X162.724 Y87.073 E.01673
G1 X130.92 Y55.27 E1.41057
G1 X130.387 Y55.27 E.01673
G1 X162.724 Y87.607 E1.43423
G1 X162.724 Y88.14 E.01673
M73 P1 R167
G1 X129.854 Y55.27 E1.45789
G1 X129.32 Y55.27 E.01673
G1 X162.724 Y88.673 E1.48154
G1 X162.724 Y89.207 E.01673
G1 X128.787 Y55.27 E1.5052
G1 X128.253 Y55.27 E.01673
G1 X162.724 Y89.74 E1.52886
G1 X162.724 Y90.274 E.01673
G1 X127.72 Y55.27 E1.55252
G1 X127.187 Y55.27 E.01673
G1 X162.724 Y90.807 E1.57618
G1 X162.724 Y91.34 E.01673
G1 X126.653 Y55.27 E1.59983
G1 X126.12 Y55.27 E.01673
G1 X162.724 Y91.874 E1.62349
G1 X162.724 Y91.963 E.00279
G1 X162.541 Y92.224 E.01001
G1 X125.586 Y55.27 E1.63903
G1 X125.053 Y55.27 E.01673
G1 X162.321 Y92.538 E1.65294
G1 X162.101 Y92.852 E.01201
G1 X124.52 Y55.27 E1.66686
G1 X123.986 Y55.27 E.01673
G1 X161.882 Y93.165 E1.68077
G1 X161.662 Y93.479 E.01201
G1 X123.453 Y55.27 E1.69469
G1 X122.919 Y55.27 E.01673
G1 X161.442 Y93.793 E1.7086
G1 X161.223 Y94.107 E.01201
G1 X122.386 Y55.27 E1.72252
G1 X121.853 Y55.27 E.01673
G1 X161.003 Y94.42 E1.73643
G1 X160.783 Y94.734 E.01201
G1 X121.319 Y55.27 E1.75035
G1 X120.786 Y55.27 E.01673
G1 X160.564 Y95.048 E1.76426
G1 X160.344 Y95.361 E.01201
G1 X120.252 Y55.27 E1.77818
G1 X119.719 Y55.27 E.01673
G1 X160.124 Y95.675 E1.79209
G1 X159.905 Y95.989 E.01201
G1 X119.186 Y55.27 E1.80601
G1 X118.652 Y55.27 E.01673
G1 X159.685 Y96.303 E1.81992
G1 X159.465 Y96.616 E.01201
M73 P1 R166
G1 X118.119 Y55.27 E1.83384
G1 X117.585 Y55.27 E.01673
G1 X159.246 Y96.93 E1.84775
G1 X159.026 Y97.244 E.01201
G1 X117.052 Y55.27 E1.86167
G1 X116.518 Y55.27 E.01673
G1 X158.806 Y97.558 E1.87558
G1 X158.587 Y97.871 E.01201
G1 X115.985 Y55.27 E1.8895
G1 X115.452 Y55.27 E.01673
G1 X158.367 Y98.185 E1.90341
G1 X158.147 Y98.499 E.01201
G1 X114.918 Y55.27 E1.91733
G1 X114.385 Y55.27 E.01673
G1 X157.927 Y98.812 E1.93124
G1 X157.708 Y99.126 E.01201
G1 X113.851 Y55.27 E1.94516
G1 X113.318 Y55.27 E.01673
M73 P2 R166
G1 X157.488 Y99.44 E1.95907
G1 X157.268 Y99.754 E.01201
G1 X112.785 Y55.27 E1.97299
G1 X112.251 Y55.27 E.01673
G1 X157.049 Y100.067 E1.9869
G1 X156.829 Y100.381 E.01201
G1 X111.718 Y55.27 E2.00082
G1 X111.184 Y55.27 E.01673
G1 X156.609 Y100.695 E2.01473
G1 X156.39 Y101.009 E.01201
G1 X110.651 Y55.27 E2.02864
G1 X110.118 Y55.27 E.01673
G1 X156.17 Y101.322 E2.04256
G1 X155.95 Y101.636 E.01201
G1 X109.584 Y55.27 E2.05647
G1 X109.051 Y55.27 E.01673
G1 X155.731 Y101.95 E2.07039
G1 X155.511 Y102.264 E.01201
G1 X108.517 Y55.27 E2.0843
G1 X107.984 Y55.27 E.01673
M73 P2 R165
G1 X155.291 Y102.577 E2.09822
G1 X155.072 Y102.891 E.01201
G1 X107.451 Y55.27 E2.11213
G1 X106.917 Y55.27 E.01673
G1 X154.852 Y103.205 E2.12605
G1 X154.632 Y103.518 E.01201
G1 X106.384 Y55.27 E2.13996
G1 X105.85 Y55.27 E.01673
G1 X154.413 Y103.832 E2.15388
G1 X154.193 Y104.146 E.01201
G1 X105.317 Y55.27 E2.16779
G1 X104.784 Y55.27 E.01673
G1 X153.973 Y104.46 E2.18171
G1 X153.754 Y104.773 E.01201
G1 X104.25 Y55.27 E2.19562
G1 X103.717 Y55.27 E.01673
G1 X153.534 Y105.087 E2.20954
G1 X153.314 Y105.401 E.01201
G1 X103.183 Y55.27 E2.22345
G1 X102.65 Y55.27 E.01673
G1 X153.095 Y105.715 E2.23737
G1 X152.875 Y106.028 E.01201
G1 X102.117 Y55.27 E2.25128
G1 X101.583 Y55.27 E.01673
G1 X152.655 Y106.342 E2.2652
G1 X152.436 Y106.656 E.01201
G1 X101.05 Y55.27 E2.27911
G1 X100.516 Y55.27 E.01673
G1 X152.216 Y106.969 E2.29303
G1 X151.996 Y107.283 E.01201
G1 X99.983 Y55.27 E2.30694
G1 X99.45 Y55.27 E.01673
G1 X151.777 Y107.597 E2.32086
G1 X151.557 Y107.911 E.01201
M73 P2 R164
G1 X98.916 Y55.27 E2.33477
G1 X98.383 Y55.27 E.01673
G1 X151.337 Y108.224 E2.34869
G1 X151.118 Y108.538 E.01201
M73 P3 R164
G1 X97.849 Y55.27 E2.3626
G1 X97.316 Y55.27 E.01673
G1 X150.898 Y108.852 E2.37652
G1 X150.678 Y109.166 E.01201
G1 X96.782 Y55.27 E2.39043
G1 X96.249 Y55.27 E.01673
G1 X150.458 Y109.479 E2.40435
G1 X150.239 Y109.793 E.01201
G1 X95.716 Y55.27 E2.41826
G1 X95.182 Y55.27 E.01673
G1 X150.019 Y110.107 E2.43217
G1 X149.799 Y110.421 E.01201
G1 X94.649 Y55.27 E2.44609
G1 X94.115 Y55.27 E.01673
G1 X149.58 Y110.734 E2.46
G1 X149.36 Y111.048 E.01201
G1 X93.582 Y55.27 E2.47392
G1 X93.049 Y55.27 E.01673
G1 X149.14 Y111.362 E2.48783
G1 X148.921 Y111.675 E.01201
G1 X92.515 Y55.27 E2.50175
G1 X91.982 Y55.27 E.01673
G1 X148.701 Y111.989 E2.51566
G1 X148.481 Y112.303 E.01201
G1 X91.448 Y55.27 E2.52958
G1 X90.915 Y55.27 E.01673
G1 X148.262 Y112.617 E2.54349
G1 X148.042 Y112.93 E.01201
M73 P3 R163
G1 X90.382 Y55.27 E2.55741
G1 X89.848 Y55.27 E.01673
G1 X147.822 Y113.244 E2.57132
G1 X147.603 Y113.558 E.01201
G1 X89.673 Y55.628 E2.56935
G1 X89.674 Y56.163 E.01677
G1 X147.383 Y113.872 E2.55956
G1 X147.163 Y114.185 E.01201
G1 X89.675 Y56.697 E2.54976
G1 X89.677 Y57.232 E.01677
G1 X146.944 Y114.499 E2.53996
G1 X146.724 Y114.813 E.01201
G1 X89.678 Y57.767 E2.53016
G1 X89.679 Y58.301 E.01677
G1 X146.504 Y115.126 E2.52037
G1 X146.285 Y115.44 E.01201
G1 X89.68 Y58.836 E2.51057
G1 X89.681 Y59.37 E.01677
G1 X146.065 Y115.754 E2.50077
G1 X145.845 Y116.068 E.01201
G1 X89.683 Y59.905 E2.49097
G1 X89.684 Y60.44 E.01677
G1 X145.626 Y116.381 E2.48118
G1 X145.406 Y116.695 E.01201
M73 P4 R163
G1 X89.685 Y60.974 E2.47138
G1 X89.686 Y61.509 E.01677
G1 X145.186 Y117.009 E2.46158
G1 X144.967 Y117.323 E.01201
M73 P4 R162
G1 X89.688 Y62.044 E2.45179
G1 X89.689 Y62.578 E.01677
G1 X144.747 Y117.636 E2.44199
G1 X144.527 Y117.95 E.01201
G1 X89.69 Y63.113 E2.43219
G1 X89.691 Y63.647 E.01675
G1 X144.308 Y118.264 E2.42242
G1 X144.088 Y118.577 E.01201
G1 X89.691 Y64.18 E2.41267
G1 X89.691 Y64.714 E.01673
G1 X143.868 Y118.891 E2.40293
G1 X143.649 Y119.205 E.01201
G1 X89.691 Y65.247 E2.39319
G1 X89.691 Y65.781 E.01673
G1 X143.429 Y119.519 E2.38344
G1 X143.209 Y119.832 E.01201
G1 X89.691 Y66.314 E2.3737
G1 X89.691 Y66.847 E.01673
G1 X142.99 Y120.146 E2.36396
G1 X142.77 Y120.46 E.01201
G1 X89.691 Y67.381 E2.35421
G1 X89.691 Y67.914 E.01673
G1 X142.55 Y120.774 E2.34447
G1 X142.33 Y121.087 E.01201
G1 X89.691 Y68.448 E2.33473
G1 X89.691 Y68.981 E.01673
G1 X142.111 Y121.401 E2.32498
G1 X141.891 Y121.715 E.01201
G1 X89.691 Y69.514 E2.31524
G1 X89.691 Y70.048 E.01673
G1 X141.671 Y122.029 E2.3055
G1 X141.452 Y122.342 E.01201
M73 P4 R161
G1 X89.691 Y70.581 E2.29575
G1 X89.691 Y71.115 E.01673
G1 X141.232 Y122.656 E2.28601
G1 X141.012 Y122.97 E.01201
G1 X89.691 Y71.648 E2.27627
G1 X89.691 Y72.181 E.01673
G1 X140.793 Y123.283 E2.26652
G1 X140.573 Y123.597 E.01201
G1 X89.691 Y72.715 E2.25678
G1 X89.691 Y73.248 E.01673
G1 X140.353 Y123.911 E2.24704
G1 X140.134 Y124.225 E.01201
G1 X89.691 Y73.782 E2.23729
G1 X89.691 Y74.315 E.01673
G1 X139.914 Y124.538 E2.22755
G1 X139.694 Y124.852 E.01201
G1 X89.691 Y74.848 E2.21781
G1 X89.691 Y75.382 E.01673
M73 P5 R161
G1 X139.475 Y125.166 E2.20806
G1 X139.255 Y125.48 E.01201
G1 X89.691 Y75.915 E2.19832
G1 X89.691 Y76.449 E.01673
G1 X139.035 Y125.793 E2.18858
G1 X138.816 Y126.107 E.01201
G1 X89.691 Y76.982 E2.17883
G1 X89.691 Y77.515 E.01673
G1 X138.596 Y126.421 E2.16909
G1 X138.376 Y126.734 E.01201
G1 X89.691 Y78.049 E2.15935
G1 X89.691 Y78.582 E.01673
G1 X138.157 Y127.048 E2.1496
G1 X137.937 Y127.362 E.01201
G1 X89.691 Y79.116 E2.13986
G1 X89.691 Y79.649 E.01673
M73 P5 R160
G1 X137.717 Y127.676 E2.13012
G1 X137.498 Y127.989 E.01201
G1 X89.691 Y80.182 E2.12037
G1 X89.691 Y80.716 E.01673
G1 X137.278 Y128.303 E2.11063
G1 X137.058 Y128.617 E.01201
G1 X89.691 Y81.249 E2.10089
G1 X89.691 Y81.783 E.01673
G1 X136.839 Y128.931 E2.09114
G1 X136.619 Y129.244 E.01201
G1 X89.691 Y82.316 E2.0814
G1 X89.691 Y82.85 E.01673
G1 X136.399 Y129.558 E2.07166
G1 X136.18 Y129.872 E.01201
G1 X89.691 Y83.383 E2.06191
G1 X89.691 Y83.916 E.01673
G1 X135.96 Y130.185 E2.05217
G1 X135.74 Y130.499 E.01201
G1 X89.691 Y84.45 E2.04243
G1 X89.691 Y84.983 E.01673
G1 X135.521 Y130.813 E2.03268
G1 X135.301 Y131.127 E.01201
G1 X89.691 Y85.517 E2.02294
G1 X89.691 Y86.05 E.01673
G1 X135.081 Y131.44 E2.0132
G1 X134.861 Y131.754 E.01201
G1 X89.691 Y86.583 E2.00346
G1 X89.691 Y87.117 E.01673
G1 X134.642 Y132.068 E1.99371
G1 X134.422 Y132.382 E.01201
G1 X89.691 Y87.65 E1.98397
G1 X89.691 Y88.184 E.01673
G1 X134.202 Y132.695 E1.97423
G1 X133.983 Y133.009 E.01201
G1 X89.691 Y88.717 E1.96448
G1 X89.691 Y89.25 E.01673
M73 P5 R159
G1 X133.763 Y133.323 E1.95474
G1 X133.543 Y133.637 E.01201
G1 X89.691 Y89.784 E1.945
G1 X89.691 Y90.317 E.01673
G1 X133.324 Y133.95 E1.93525
G1 X133.104 Y134.264 E.01201
G1 X89.691 Y90.851 E1.92551
G1 X89.691 Y91.384 E.01673
M73 P6 R159
G1 X132.884 Y134.578 E1.91577
G1 X132.665 Y134.891 E.01201
G1 X89.691 Y91.917 E1.90602
G1 X89.691 Y92.451 E.01673
G1 X132.445 Y135.205 E1.89628
G1 X132.225 Y135.519 E.01201
G1 X89.691 Y92.984 E1.88654
G1 X89.691 Y93.518 E.01673
G1 X132.006 Y135.833 E1.87679
G1 X131.786 Y136.146 E.01201
G1 X89.691 Y94.051 E1.86705
G1 X89.691 Y94.584 E.01673
G1 X131.566 Y136.46 E1.85731
G1 X131.347 Y136.774 E.01201
G1 X89.691 Y95.118 E1.84756
G1 X89.691 Y95.651 E.01673
G1 X131.127 Y137.088 E1.83782
G1 X130.907 Y137.401 E.01201
G1 X89.691 Y96.185 E1.82808
G1 X89.691 Y96.718 E.01673
G1 X130.688 Y137.715 E1.81833
G1 X130.468 Y138.029 E.01201
G1 X89.691 Y97.251 E1.80859
G1 X89.691 Y97.785 E.01673
G1 X130.248 Y138.342 E1.79885
G1 X130.029 Y138.656 E.01201
G1 X89.691 Y98.318 E1.7891
G1 X89.691 Y98.852 E.01673
G1 X129.809 Y138.97 E1.77936
G1 X129.589 Y139.284 E.01201
G1 X89.691 Y99.385 E1.76962
G1 X89.691 Y99.918 E.01673
M73 P6 R158
G1 X129.37 Y139.597 E1.75987
G1 X129.15 Y139.911 E.01201
G1 X89.691 Y100.452 E1.75013
G1 X89.691 Y100.985 E.01673
G1 X128.93 Y140.225 E1.74039
G1 X128.711 Y140.539 E.01201
G1 X89.691 Y101.519 E1.73064
G1 X89.691 Y102.052 E.01673
G1 X128.491 Y140.852 E1.7209
G1 X128.271 Y141.166 E.01201
G1 X89.691 Y102.586 E1.71116
G1 X89.691 Y103.119 E.01673
G1 X128.052 Y141.48 E1.70141
G1 X127.832 Y141.793 E.01201
G1 X89.691 Y103.652 E1.69167
G1 X89.691 Y104.186 E.01673
G1 X127.612 Y142.107 E1.68193
G1 X127.393 Y142.421 E.01201
G1 X89.691 Y104.719 E1.67218
G1 X89.691 Y105.253 E.01673
G1 X127.173 Y142.735 E1.66244
G1 X126.953 Y143.048 E.01201
G1 X89.691 Y105.786 E1.6527
G1 X89.691 Y106.319 E.01673
G1 X126.733 Y143.362 E1.64295
G1 X126.514 Y143.676 E.01201
G1 X89.691 Y106.853 E1.63321
G1 X89.691 Y107.386 E.01673
