; generated by PrusaSlicer 2.4.2+win64 on 2023-07-18 at 03:54:53 UTC

; 

; external perimeters extrusion width = 0.60mm
; perimeters extrusion width = 0.43mm
; infill extrusion width = 0.45mm
; solid infill extrusion width = 0.70mm
; top infill extrusion width = 0.45mm
; first layer extrusion width = 0.42mm

M73 P0 R168
M201 X9000 Y9000 Z500 E10000 ; sets maximum accelerations, mm/sec^2
M203 X500 Y500 Z12 E120 ; sets maximum feedrates, mm / sec
M204 P2000 R1500 T2000 ; sets acceleration (P, T) and retract acceleration (R), mm/sec^2
M205 X10.00 Y10.00 Z0.20 E2.50 ; sets the jerk limits, mm/sec
M205 S0 T0 ; sets the minimum extruding and travel feed rate, mm/sec
M107
;TYPE:Custom
M862.3 P "MK2S" ; printer model check
M862.1 P0.4 ; nozzle diameter check
M115 U3.2.3 ; tell printer latest fw version
G90 ; use absolute coordinates
M83 ; extruder relative mode
M204 S2000 T1500 ; MK2 firmware only supports the old M204 format
M104 S215 ; set extruder temp
M140 S60 ; set bed temp
M190 S60 ; wait for bed temp
M109 S215 ; wait for extruder temp
G28 W ; home all without mesh bed level
G80 ; mesh bed leveling
G1 Z0.2 F720
G1 Y-2 F1000 ; go outside print area
G92 E0
G1 X60 E9 F1000 ; intro line
G1 X100 E12.5 F1000 ; intro line
G92 E0
G21 ; set units to millimeters
G90 ; use absolute coordinates
M83 ; use relative distances for extrusion
M900 K0.05 ; Filament gcode LA 1.5
M900 K30 ; Filament gcode LA 1.0
M107
;LAYER_CHANGE
;Z:0.2
;HEIGHT:0.2
;BEFORE_LAYER_CHANGE
G92 E0.0
;0.2


G1 E-.8 F2100
G1 Z.4 F720
;AFTER_LAYER_CHANGE
;0.2
G1 X85.458 Y52.899 F10800
G1 Z.2 F720
G1 E.8 F2100
M204 S800
;TYPE:Skirt/Brim
;WIDTH:0.42
G1 F1200
G1 X86.503 Y52.023 E.04278
G1 X87.443 Y51.829 E.03008
G1 X158.942 Y51.829 E2.2418
G1 X160.249 Y52.22 E.04278
G1 X161.283 Y53.793 E.05901
G1 X166.135 Y81.309 E.87604
G1 X166.171 Y92.306 E.34481
G1 X165.741 Y93.669 E.04482
G1 X121.278 Y157.169 E2.43056
G1 X120.207 Y158.015 E.04278
G1 X119.33 Y158.183 E.02799
G1 X87.443 Y158.183 E.99981
G1 X86.136 Y157.791 E.04278
G1 X85.26 Y156.746 E.04278
G1 X85.066 Y155.806 E.03008
G1 X85.066 Y54.206 E3.1856
G1 X85.44 Y52.956 E.0409
M204 S1000
; printing object Vacuum mk2.obj id:0 copy 0
;WIPE_START
G1 F8640
G1 X86.503 Y52.023 E-.32671
G1 X87.443 Y51.829 E-.22155
G1 X88.36 Y51.829 E-.21174
;WIPE_END
G1 E-.04 F2100
G1 Z.6 F720
G1 X89.666 Y54.993 F10800
G1 Z.2 F720
G1 E.8 F2100
M204 S800
;TYPE:Perimeter
G1 F1200
G1 X158.281 Y54.993 E2.1514
G1 X163.007 Y81.79 E.85317
G1 X163.007 Y92.058 E.32193
G1 X118.921 Y155.019 E2.40993
G1 X89.666 Y155.019 E.91727
G1 X89.666 Y55.053 E3.13436
M204 S1000
G1 X89.289 Y54.616 F10800
M204 S800
;TYPE:External perimeter
G1 F1200
G1 X158.598 Y54.616 E2.17314
G1 X163.384 Y81.757 E.86413
G1 X163.384 Y92.177 E.32669
G1 X119.117 Y155.396 E2.41981
G1 X89.289 Y155.396 E.93525
G1 X89.289 Y54.676 E3.158
M204 S1000
G1 X89.653 Y54.782 F10800
;WIPE_START
G1 F8640
G1 X92.58 Y54.673 E-.76
;WIPE_END
G1 E-.04 F2100
G1 Z.6 F720
G1 X158.351 Y56.037 F10800
G1 Z.2 F720
G1 E.8 F2100
M204 S800
;TYPE:Solid infill
;WIDTH:0.420671
G1 F1200
G1 X157.59 Y55.276 E.03381
G1 X157.055 Y55.276 E.01678
M73 P0 R167
G1 X158.256 Y56.476 E.05333
G1 X158.37 Y57.125 E.02069
G1 X156.521 Y55.276 E.08214
G1 X155.987 Y55.276 E.01678
G1 X158.485 Y57.774 E.11095
G1 X158.599 Y58.422 E.02069
G1 X155.453 Y55.276 E.13976
G1 X154.918 Y55.276 E.01678
G1 X158.713 Y59.071 E.16857
G1 X158.828 Y59.719 E.02069
G1 X154.384 Y55.276 E.19738
G1 X153.85 Y55.276 E.01678
G1 X158.942 Y60.368 E.22619
G1 X159.056 Y61.017 E.02069
G1 X153.316 Y55.276 E.255
G1 X152.782 Y55.276 E.01678
G1 X159.171 Y61.665 E.28381
G1 X159.285 Y62.314 E.02069
G1 X152.247 Y55.276 E.31262
G1 X151.713 Y55.276 E.01678
G1 X159.4 Y62.962 E.34143
G1 X159.514 Y63.611 E.02069
G1 X151.179 Y55.276 E.37025
G1 X150.645 Y55.276 E.01678
G1 X159.628 Y64.259 E.39906
G1 X159.743 Y64.908 E.02069
G1 X150.11 Y55.276 E.42787
G1 X149.576 Y55.276 E.01678
G1 X159.857 Y65.557 E.45668
G1 X159.971 Y66.205 E.02069
G1 X149.042 Y55.276 E.48549
G1 X148.508 Y55.276 E.01678
G1 X160.086 Y66.854 E.5143
G1 X160.2 Y67.502 E.02069
G1 X147.974 Y55.276 E.54311
G1 X147.439 Y55.276 E.01678
G1 X160.314 Y68.151 E.57192
G1 X160.429 Y68.8 E.02069
G1 X146.905 Y55.276 E.60073
G1 X146.371 Y55.276 E.01678
G1 X160.543 Y69.448 E.62954
G1 X160.658 Y70.097 E.02069
G1 X145.837 Y55.276 E.65835
G1 X145.302 Y55.276 E.01678
G1 X160.772 Y70.745 E.68716
G1 X160.886 Y71.394 E.02069
G1 X144.768 Y55.276 E.71597
G1 X144.234 Y55.276 E.01678
G1 X161.001 Y72.042 E.74478
G1 X161.115 Y72.691 E.02069
G1 X143.7 Y55.276 E.77359
G1 X143.166 Y55.276 E.01678
G1 X161.229 Y73.34 E.8024
G1 X161.344 Y73.988 E.02069
G1 X142.631 Y55.276 E.83121
G1 X142.097 Y55.276 E.01678
G1 X161.458 Y74.637 E.86002
G1 X161.572 Y75.285 E.02069
G1 X141.563 Y55.276 E.88883
G1 X141.029 Y55.276 E.01678
G1 X161.687 Y75.934 E.91764
G1 X161.801 Y76.583 E.02069
G1 X140.494 Y55.276 E.94646
G1 X139.96 Y55.276 E.01678
G1 X161.915 Y77.231 E.97527
G1 X162.03 Y77.88 E.02069
G1 X139.426 Y55.276 E1.00408
G1 X138.892 Y55.276 E.01678
G1 X162.144 Y78.528 E1.03289
G1 X162.259 Y79.177 E.02069
G1 X138.358 Y55.276 E1.0617
G1 X137.823 Y55.276 E.01678
G1 X162.373 Y79.825 E1.09051
G1 X162.487 Y80.474 E.02069
G1 X137.289 Y55.276 E1.11932
G1 X136.755 Y55.276 E.01678
G1 X162.602 Y81.123 E1.14813
G1 X162.716 Y81.771 E.02069
G1 X136.221 Y55.276 E1.17694
G1 X135.686 Y55.276 E.01678
G1 X162.724 Y82.313 E1.20101
G1 X162.724 Y82.847 E.01678
G1 X135.152 Y55.276 E1.22474
G1 X134.618 Y55.276 E.01678
G1 X162.724 Y83.382 E1.24847
G1 X162.724 Y83.916 E.01678
M73 P1 R167
G1 X134.084 Y55.276 E1.2722
G1 X133.55 Y55.276 E.01678
G1 X162.724 Y84.45 E1.29594
G1 X162.724 Y84.984 E.01678
G1 X133.015 Y55.276 E1.31967
G1 X132.481 Y55.276 E.01678
G1 X162.724 Y85.518 E1.3434
G1 X162.724 Y86.053 E.01678
G1 X131.947 Y55.276 E1.36713
G1 X131.413 Y55.276 E.01678
G1 X162.724 Y86.587 E1.39086
G1 X162.724 Y87.121 E.01678
G1 X130.879 Y55.276 E1.41459
G1 X130.344 Y55.276 E.01678
M73 P1 R166
G1 X162.724 Y87.655 E1.43832
G1 X162.724 Y88.19 E.01678
G1 X129.81 Y55.276 E1.46205
G1 X129.276 Y55.276 E.01678
G1 X162.724 Y88.724 E1.48578
G1 X162.724 Y89.258 E.01678
G1 X128.742 Y55.276 E1.50951
G1 X128.207 Y55.276 E.01678
G1 X162.724 Y89.792 E1.53324
G1 X162.724 Y90.326 E.01678
G1 X127.673 Y55.276 E1.55697
G1 X127.139 Y55.276 E.01678
G1 X162.724 Y90.861 E1.5807
G1 X162.724 Y91.395 E.01678
G1 X126.605 Y55.276 E1.60443
G1 X126.071 Y55.276 E.01678
G1 X162.724 Y91.929 E1.62816
G1 X162.724 Y91.969 E.00124
G1 X162.52 Y92.26 E.01116
G1 X125.536 Y55.276 E1.64284
G1 X125.002 Y55.276 E.01678
G1 X162.3 Y92.574 E1.6568
G1 X162.08 Y92.888 E.01205
G1 X124.468 Y55.276 E1.67076
G1 X123.934 Y55.276 E.01678
G1 X161.86 Y93.202 E1.68471
G1 X161.64 Y93.516 E.01205
G1 X123.399 Y55.276 E1.69867
G1 X122.865 Y55.276 E.01678
G1 X161.42 Y93.831 E1.71263
G1 X161.2 Y94.145 E.01205
G1 X122.331 Y55.276 E1.72659
G1 X121.797 Y55.276 E.01678
G1 X160.98 Y94.459 E1.74054
G1 X160.76 Y94.773 E.01205
G1 X121.263 Y55.276 E1.7545
G1 X120.728 Y55.276 E.01678
G1 X160.54 Y95.087 E1.76846
G1 X160.32 Y95.402 E.01205
G1 X120.194 Y55.276 E1.78241
G1 X119.66 Y55.276 E.01678
G1 X160.1 Y95.716 E1.79637
G1 X159.88 Y96.03 E.01205
G1 X119.126 Y55.276 E1.81033
G1 X118.591 Y55.276 E.01678
M73 P1 R165
G1 X159.66 Y96.344 E1.82429
G1 X159.44 Y96.659 E.01205
G1 X118.057 Y55.276 E1.83824
G1 X117.523 Y55.276 E.01678
G1 X159.22 Y96.973 E1.8522
G1 X159 Y97.287 E.01205
G1 X116.989 Y55.276 E1.86616
G1 X116.455 Y55.276 E.01678
G1 X158.78 Y97.601 E1.88012
G1 X158.56 Y97.915 E.01205
G1 X115.92 Y55.276 E1.89407
G1 X115.386 Y55.276 E.01678
G1 X158.34 Y98.23 E1.90803
G1 X158.12 Y98.544 E.01205
G1 X114.852 Y55.276 E1.92199
G1 X114.318 Y55.276 E.01678
G1 X157.9 Y98.858 E1.93595
G1 X157.68 Y99.172 E.01205
M73 P2 R165
G1 X113.783 Y55.276 E1.9499
G1 X113.249 Y55.276 E.01678
G1 X157.46 Y99.486 E1.96386
G1 X157.24 Y99.801 E.01205
G1 X112.715 Y55.276 E1.97782
G1 X112.181 Y55.276 E.01678
G1 X157.02 Y100.115 E1.99178
G1 X156.8 Y100.429 E.01205
G1 X111.647 Y55.276 E2.00573
G1 X111.112 Y55.276 E.01678
G1 X156.58 Y100.743 E2.01969
G1 X156.36 Y101.057 E.01205
G1 X110.578 Y55.276 E2.03365
G1 X110.044 Y55.276 E.01678
G1 X156.14 Y101.372 E2.0476
G1 X155.92 Y101.686 E.01205
G1 X109.51 Y55.276 E2.06156
G1 X108.975 Y55.276 E.01678
G1 X155.7 Y102 E2.07552
G1 X155.48 Y102.314 E.01205
G1 X108.441 Y55.276 E2.08948
G1 X107.907 Y55.276 E.01678
M73 P2 R164
G1 X155.26 Y102.629 E2.10343
G1 X155.04 Y102.943 E.01205
G1 X107.373 Y55.276 E2.11739
G1 X106.839 Y55.276 E.01678
G1 X154.82 Y103.257 E2.13135
G1 X154.6 Y103.571 E.01205
G1 X106.304 Y55.276 E2.14531
G1 X105.77 Y55.276 E.01678
G1 X154.38 Y103.885 E2.15926
G1 X154.16 Y104.2 E.01205
G1 X105.236 Y55.276 E2.17322
G1 X104.702 Y55.276 E.01678
G1 X153.94 Y104.514 E2.18718
G1 X153.72 Y104.828 E.01205
G1 X104.167 Y55.276 E2.20114
G1 X103.633 Y55.276 E.01678
G1 X153.5 Y105.142 E2.21509
G1 X153.28 Y105.456 E.01205
G1 X103.099 Y55.276 E2.22905
G1 X102.565 Y55.276 E.01678
G1 X153.06 Y105.771 E2.24301
G1 X152.84 Y106.085 E.01205
G1 X102.031 Y55.276 E2.25697
G1 X101.496 Y55.276 E.01678
G1 X152.62 Y106.399 E2.27092
G1 X152.4 Y106.713 E.01205
G1 X100.962 Y55.276 E2.28488
G1 X100.428 Y55.276 E.01678
G1 X152.18 Y107.027 E2.29884
G1 X151.959 Y107.342 E.01205
G1 X99.894 Y55.276 E2.31279
G1 X99.359 Y55.276 E.01678
G1 X151.739 Y107.656 E2.32675
G1 X151.519 Y107.97 E.01205
M73 P2 R163
G1 X98.825 Y55.276 E2.34071
G1 X98.291 Y55.276 E.01678
G1 X151.299 Y108.284 E2.35467
G1 X151.079 Y108.598 E.01205
M73 P3 R163
G1 X97.757 Y55.276 E2.36862
G1 X97.223 Y55.276 E.01678
G1 X150.859 Y108.913 E2.38258
G1 X150.639 Y109.227 E.01205
G1 X96.688 Y55.276 E2.39654
G1 X96.154 Y55.276 E.01678
G1 X150.419 Y109.541 E2.4105
G1 X150.199 Y109.855 E.01205
G1 X95.62 Y55.276 E2.42445
G1 X95.086 Y55.276 E.01678
G1 X149.979 Y110.17 E2.43841
G1 X149.759 Y110.484 E.01205
G1 X94.552 Y55.276 E2.45237
G1 X94.017 Y55.276 E.01678
G1 X149.539 Y110.798 E2.46633
G1 X149.319 Y111.112 E.01205
G1 X93.483 Y55.276 E2.48028
G1 X92.949 Y55.276 E.01678
G1 X149.099 Y111.426 E2.49424
G1 X148.879 Y111.741 E.01205
G1 X92.415 Y55.276 E2.5082
G1 X91.88 Y55.276 E.01678
G1 X148.659 Y112.055 E2.52215
G1 X148.439 Y112.369 E.01205
G1 X91.346 Y55.276 E2.53611
G1 X90.812 Y55.276 E.01678
M73 P3 R162
G1 X148.219 Y112.683 E2.55007
G1 X147.999 Y112.997 E.01205
G1 X90.278 Y55.276 E2.56403
G1 X89.948 Y55.276 E.01034
G1 X89.948 Y55.481 E.00644
G1 X147.779 Y113.312 E2.56888
G1 X147.559 Y113.626 E.01205
G1 X89.948 Y56.015 E2.55911
G1 X89.948 Y56.549 E.01678
G1 X147.339 Y113.94 E2.54933
G1 X147.119 Y114.254 E.01205
G1 X89.948 Y57.083 E2.53956
G1 X89.948 Y57.618 E.01678
G1 X146.899 Y114.568 E2.52979
G1 X146.679 Y114.883 E.01205
G1 X89.948 Y58.152 E2.52001
G1 X89.948 Y58.686 E.01678
G1 X146.459 Y115.197 E2.51024
G1 X146.239 Y115.511 E.01205
G1 X89.948 Y59.22 E2.50047
G1 X89.948 Y59.755 E.01678
G1 X146.019 Y115.825 E2.4907
G1 X145.799 Y116.14 E.01205
G1 X89.948 Y60.289 E2.48092
G1 X89.948 Y60.823 E.01678
M73 P4 R162
G1 X145.579 Y116.454 E2.47115
G1 X145.359 Y116.768 E.01205
G1 X89.948 Y61.357 E2.46138
G1 X89.948 Y61.891 E.01678
G1 X145.139 Y117.082 E2.4516
G1 X144.919 Y117.396 E.01205
M73 P4 R161
G1 X89.948 Y62.426 E2.44183
G1 X89.948 Y62.96 E.01678
G1 X144.699 Y117.711 E2.43206
G1 X144.479 Y118.025 E.01205
G1 X89.948 Y63.494 E2.42228
G1 X89.948 Y64.028 E.01678
G1 X144.259 Y118.339 E2.41251
G1 X144.039 Y118.653 E.01205
G1 X89.948 Y64.563 E2.40274
G1 X89.948 Y65.097 E.01678
G1 X143.819 Y118.967 E2.39297
G1 X143.599 Y119.282 E.01205
G1 X89.948 Y65.631 E2.38319
G1 X89.948 Y66.165 E.01678
G1 X143.379 Y119.596 E2.37342
G1 X143.159 Y119.91 E.01205
G1 X89.948 Y66.699 E2.36365
G1 X89.948 Y67.234 E.01678
G1 X142.939 Y120.224 E2.35387
G1 X142.719 Y120.538 E.01205
G1 X89.948 Y67.768 E2.3441
G1 X89.948 Y68.302 E.01678
G1 X142.499 Y120.853 E2.33433
G1 X142.279 Y121.167 E.01205
G1 X89.948 Y68.836 E2.32455
G1 X89.948 Y69.371 E.01678
G1 X142.059 Y121.481 E2.31478
G1 X141.839 Y121.795 E.01205
G1 X89.948 Y69.905 E2.30501
G1 X89.948 Y70.439 E.01678
G1 X141.619 Y122.109 E2.29523
G1 X141.399 Y122.424 E.01205
M73 P4 R160
G1 X89.948 Y70.973 E2.28546
G1 X89.948 Y71.507 E.01678
G1 X141.179 Y122.738 E2.27569
G1 X140.959 Y123.052 E.01205
G1 X89.948 Y72.042 E2.26592
G1 X89.948 Y72.576 E.01678
G1 X140.739 Y123.366 E2.25614
G1 X140.519 Y123.681 E.01205
G1 X89.948 Y73.11 E2.24637
G1 X89.948 Y73.644 E.01678
G1 X140.299 Y123.995 E2.2366
G1 X140.079 Y124.309 E.01205
G1 X89.948 Y74.179 E2.22682
G1 X89.948 Y74.713 E.01678
G1 X139.859 Y124.623 E2.21705
G1 X139.639 Y124.937 E.01205
M73 P5 R160
G1 X89.948 Y75.247 E2.20728
G1 X89.948 Y75.781 E.01678
G1 X139.419 Y125.252 E2.1975
G1 X139.199 Y125.566 E.01205
G1 X89.948 Y76.315 E2.18773
G1 X89.948 Y76.85 E.01678
G1 X138.979 Y125.88 E2.17796
G1 X138.759 Y126.194 E.01205
G1 X89.948 Y77.384 E2.16818
G1 X89.948 Y77.918 E.01678
G1 X138.539 Y126.508 E2.15841
G1 X138.319 Y126.823 E.01205
G1 X89.948 Y78.452 E2.14864
G1 X89.948 Y78.987 E.01678
G1 X138.099 Y127.137 E2.13887
G1 X137.879 Y127.451 E.01205
M73 P5 R159
G1 X89.948 Y79.521 E2.12909
G1 X89.948 Y80.055 E.01678
G1 X137.659 Y127.765 E2.11932
G1 X137.439 Y128.079 E.01205
G1 X89.948 Y80.589 E2.10955
G1 X89.948 Y81.123 E.01678
G1 X137.219 Y128.394 E2.09977
G1 X136.999 Y128.708 E.01205
G1 X89.948 Y81.658 E2.09
G1 X89.948 Y82.192 E.01678
G1 X136.779 Y129.022 E2.08023
G1 X136.559 Y129.336 E.01205
G1 X89.948 Y82.726 E2.07045
G1 X89.948 Y83.26 E.01678
G1 X136.339 Y129.65 E2.06068
G1 X136.119 Y129.965 E.01205
G1 X89.948 Y83.795 E2.05091
G1 X89.948 Y84.329 E.01678
G1 X135.899 Y130.279 E2.04114
G1 X135.679 Y130.593 E.01205
G1 X89.948 Y84.863 E2.03136
G1 X89.948 Y85.397 E.01678
G1 X135.459 Y130.907 E2.02159
G1 X135.239 Y131.222 E.01205
G1 X89.948 Y85.931 E2.01182
G1 X89.948 Y86.466 E.01678
G1 X135.019 Y131.536 E2.00204
G1 X134.799 Y131.85 E.01205
G1 X89.948 Y87 E1.99227
G1 X89.948 Y87.534 E.01678
G1 X134.579 Y132.164 E1.9825
G1 X134.359 Y132.478 E.01205
G1 X89.948 Y88.068 E1.97272
G1 X89.948 Y88.602 E.01678
G1 X134.139 Y132.793 E1.96295
G1 X133.919 Y133.107 E.01205
G1 X89.948 Y89.137 E1.95318
G1 X89.948 Y89.671 E.01678
M73 P5 R158
G1 X133.699 Y133.421 E1.9434
G1 X133.479 Y133.735 E.01205
G1 X89.948 Y90.205 E1.93363
G1 X89.948 Y90.739 E.01678
G1 X133.259 Y134.049 E1.92386
G1 X133.039 Y134.364 E.01205
M73 P6 R158
G1 X89.948 Y91.274 E1.91409
G1 X89.948 Y91.808 E.01678
G1 X132.818 Y134.678 E1.90431
G1 X132.598 Y134.992 E.01205
G1 X89.948 Y92.342 E1.89454
G1 X89.948 Y92.876 E.01678
G1 X132.378 Y135.306 E1.88477
G1 X132.158 Y135.62 E.01205
G1 X89.948 Y93.41 E1.87499
G1 X89.948 Y93.945 E.01678
G1 X131.938 Y135.935 E1.86522
G1 X131.718 Y136.249 E.01205
G1 X89.948 Y94.479 E1.85545
G1 X89.948 Y95.013 E.01678
G1 X131.498 Y136.563 E1.84567
G1 X131.278 Y136.877 E.01205
G1 X89.948 Y95.547 E1.8359
G1 X89.948 Y96.082 E.01678
G1 X131.058 Y137.192 E1.82613
G1 X130.838 Y137.506 E.01205
G1 X89.948 Y96.616 E1.81636
G1 X89.948 Y97.15 E.01678
G1 X130.618 Y137.82 E1.80658
G1 X130.398 Y138.134 E.01205
G1 X89.948 Y97.684 E1.79681
G1 X89.948 Y98.218 E.01678
G1 X130.178 Y138.448 E1.78704
G1 X129.958 Y138.763 E.01205
G1 X89.948 Y98.753 E1.77726
G1 X89.948 Y99.287 E.01678
G1 X129.738 Y139.077 E1.76749
G1 X129.518 Y139.391 E.01205
G1 X89.948 Y99.821 E1.75772
G1 X89.948 Y100.355 E.01678
M73 P6 R157
G1 X129.298 Y139.705 E1.74794
G1 X129.078 Y140.019 E.01205
G1 X89.948 Y100.89 E1.73817
G1 X89.948 Y101.424 E.01678
G1 X128.858 Y140.334 E1.7284
G1 X128.638 Y140.648 E.01205
G1 X89.948 Y101.958 E1.71862
G1 X89.948 Y102.492 E.01678
G1 X128.418 Y140.962 E1.70885
G1 X128.198 Y141.276 E.01205
G1 X89.948 Y103.026 E1.69908
G1 X89.948 Y103.561 E.01678
G1 X127.978 Y141.59 E1.68931
G1 X127.758 Y141.905 E.01205
G1 X89.948 Y104.095 E1.67953
G1 X89.948 Y104.629 E.01678
G1 X127.538 Y142.219 E1.66976
G1 X127.318 Y142.533 E.01205
G1 X89.948 Y105.163 E1.65999
G1 X89.948 Y105.698 E.01678
G1 X127.098 Y142.847 E1.65021
G1 X126.878 Y143.161 E.01205
G1 X89.948 Y106.232 E1.64044
G1 X89.948 Y106.766 E.01678
G1 X126.658 Y143.476 E1.63067
G1 X126.438 Y143.79 E.01205
G1 X89.948 Y107.3 E1.62089
G1 X89.948 Y107.834 E.01678
