; generated by PrusaSlicer 2.4.2+win64 on 2023-07-16 at 04:40:07 UTC

; 

; external perimeters extrusion width = 0.60mm
; perimeters extrusion width = 0.43mm
; infill extrusion width = 0.45mm
; solid infill extrusion width = 0.70mm
; top infill extrusion width = 0.45mm
; first layer extrusion width = 0.42mm

M73 P0 R155
M201 X9000 Y9000 Z500 E10000 ; sets maximum accelerations, mm/sec^2
M203 X500 Y500 Z12 E120 ; sets maximum feedrates, mm / sec
M204 P2000 R1500 T2000 ; sets acceleration (P, T) and retract acceleration (R), mm/sec^2
M205 X10.00 Y10.00 Z0.20 E2.50 ; sets the jerk limits, mm/sec
M205 S0 T0 ; sets the minimum extruding and travel feed rate, mm/sec
M107
;TYPE:Custom
M862.3 P "MK2S" ; printer model check
M862.1 P0.4 ; nozzle diameter check
M115 U3.2.3 ; tell printer latest fw version
G90 ; use absolute coordinates
M83 ; extruder relative mode
M204 S2000 T1500 ; MK2 firmware only supports the old M204 format
M104 S215 ; set extruder temp
M140 S60 ; set bed temp
M190 S60 ; wait for bed temp
M109 S215 ; wait for extruder temp
G28 W ; home all without mesh bed level
G80 ; mesh bed leveling
G1 Z0.2 F720
G1 Y-2 F1000 ; go outside print area
G92 E0
G1 X60 E9 F1000 ; intro line
G1 X100 E12.5 F1000 ; intro line
G92 E0
G21 ; set units to millimeters
G90 ; use absolute coordinates
M83 ; use relative distances for extrusion
M900 K0.05 ; Filament gcode LA 1.5
M900 K30 ; Filament gcode LA 1.0
M107
;LAYER_CHANGE
;Z:0.2
;HEIGHT:0.2
;BEFORE_LAYER_CHANGE
G92 E0.0
;0.2


G1 E-.8 F2100
G1 Z.4 F720
;AFTER_LAYER_CHANGE
;0.2
G1 X90.914 Y52.893 F10800
G1 Z.2 F720
G1 E.8 F2100
M204 S800
;TYPE:Skirt/Brim
;WIDTH:0.42
G1 F1200
G1 X91.959 Y52.017 E.04278
G1 X92.899 Y51.823 E.03008
G1 X155.626 Y51.869 E1.96676
G1 X156.841 Y52.11 E.03884
G1 X157.698 Y52.465 E.02908
G1 X158.728 Y53.153 E.03884
G1 X159.384 Y53.809 E.02908
G1 X160.072 Y54.839 E.03884
G1 X160.427 Y55.696 E.02908
G1 X160.669 Y56.911 E.03884
G1 X160.715 Y85.95 E.91049
G1 X147.976 Y156.225 E2.23934
G1 X147.357 Y157.441 E.04278
G1 X145.637 Y158.177 E.05865
G1 X92.899 Y158.177 E1.65357
G1 X91.592 Y157.785 E.04278
G1 X90.716 Y156.74 E.04278
G1 X90.522 Y155.8 E.03008
G1 X90.522 Y54.2 E3.1856
G1 X90.896 Y52.95 E.0409
M204 S1000
; printing object Vacuum Mk1.stl id:0 copy 0
;WIPE_START
G1 F8640
G1 X91.959 Y52.017 E-.32671
G1 X92.899 Y51.823 E-.22155
G1 X93.816 Y51.824 E-.21174
;WIPE_END
G1 E-.04 F2100
G1 Z.6 F720
G1 X95.122 Y54.987 F10800
G1 Z.2 F720
G1 E.8 F2100
M204 S800
;TYPE:Perimeter
G1 F1200
G1 X155.085 Y54.987 E1.8801
G1 X156.07 Y55.183 E.0315
G1 X156.84 Y55.697 E.02902
G1 X157.354 Y56.467 E.02902
G1 X157.55 Y57.453 E.0315
G1 X157.55 Y85.879 E.89129
G1 X144.981 Y155.013 E2.20318
G1 X95.122 Y155.013 E1.56329
G1 X95.122 Y55.047 E3.13436
M204 S1000
G1 X94.745 Y54.61 F10800
M204 S800
;TYPE:External perimeter
M73 P0 R154
G1 F1200
G1 X155.122 Y54.61 E1.89309
G1 X156.218 Y54.828 E.03502
G1 X157.112 Y55.426 E.03373
G1 X157.71 Y56.32 E.03373
G1 X157.928 Y57.415 E.03502
G1 X157.928 Y85.913 E.89352
G1 X145.295 Y155.39 E2.21412
G1 X94.745 Y155.39 E1.58498
G1 X94.745 Y54.67 E3.158
M204 S1000
G1 X95.118 Y54.754 F10800
;WIPE_START
G1 F8640
G1 X98.036 Y54.667 E-.76
;WIPE_END
G1 E-.04 F2100
G1 Z.6 F720
G1 X155.364 Y55.158 F10800
G1 Z.2 F720
G1 E.8 F2100
M204 S800
;TYPE:Solid infill
;WIDTH:0.420457
G1 F1200
G1 X157.164 Y56.958 E.07991
G1 X157.268 Y57.48 E.01673
G1 X157.268 Y57.596 E.00362
G1 X154.942 Y55.27 E.10326
G1 X154.408 Y55.27 E.01676
G1 X157.268 Y58.13 E.12696
G1 X157.268 Y58.664 E.01676
G1 X153.874 Y55.27 E.15066
G1 X153.34 Y55.27 E.01676
G1 X157.268 Y59.197 E.17437
G1 X157.268 Y59.731 E.01676
G1 X152.806 Y55.27 E.19807
G1 X152.272 Y55.27 E.01676
G1 X157.268 Y60.265 E.22177
G1 X157.268 Y60.799 E.01676
G1 X151.738 Y55.27 E.24548
G1 X151.204 Y55.27 E.01676
G1 X157.268 Y61.333 E.26918
G1 X157.268 Y61.867 E.01676
G1 X150.67 Y55.27 E.29288
G1 X150.137 Y55.27 E.01676
G1 X157.268 Y62.401 E.31659
G1 X157.268 Y62.935 E.01676
G1 X149.603 Y55.27 E.34029
G1 X149.069 Y55.27 E.01676
G1 X157.268 Y63.469 E.36399
G1 X157.268 Y64.003 E.01676
G1 X148.535 Y55.27 E.3877
G1 X148.001 Y55.27 E.01676
G1 X157.268 Y64.537 E.4114
G1 X157.268 Y65.071 E.01676
G1 X147.467 Y55.27 E.4351
G1 X146.933 Y55.27 E.01676
G1 X157.268 Y65.604 E.45881
G1 X157.268 Y66.138 E.01676
G1 X146.399 Y55.27 E.48251
G1 X145.865 Y55.27 E.01676
G1 X157.268 Y66.672 E.50622
G1 X157.268 Y67.206 E.01676
G1 X145.331 Y55.27 E.52992
G1 X144.797 Y55.27 E.01676
G1 X157.268 Y67.74 E.55362
G1 X157.268 Y68.274 E.01676
G1 X144.263 Y55.27 E.57733
G1 X143.73 Y55.27 E.01676
G1 X157.268 Y68.808 E.60103
G1 X157.268 Y69.342 E.01676
G1 X143.196 Y55.27 E.62473
G1 X142.662 Y55.27 E.01676
G1 X157.268 Y69.876 E.64844
G1 X157.268 Y70.41 E.01676
G1 X142.128 Y55.27 E.67214
G1 X141.594 Y55.27 E.01676
G1 X157.268 Y70.944 E.69584
G1 X157.268 Y71.478 E.01676
G1 X141.06 Y55.27 E.71955
G1 X140.526 Y55.27 E.01676
G1 X157.268 Y72.011 E.74325
G1 X157.268 Y72.545 E.01676
G1 X139.992 Y55.27 E.76695
G1 X139.458 Y55.27 E.01676
G1 X157.268 Y73.079 E.79066
G1 X157.268 Y73.613 E.01676
G1 X138.924 Y55.27 E.81436
G1 X138.39 Y55.27 E.01676
G1 X157.268 Y74.147 E.83806
G1 X157.268 Y74.681 E.01676
G1 X137.856 Y55.27 E.86177
G1 X137.323 Y55.27 E.01676
G1 X157.268 Y75.215 E.88547
G1 X157.268 Y75.749 E.01676
G1 X136.789 Y55.27 E.90918
G1 X136.255 Y55.27 E.01676
G1 X157.268 Y76.283 E.93288
G1 X157.268 Y76.817 E.01676
G1 X135.721 Y55.27 E.95658
G1 X135.187 Y55.27 E.01676
G1 X157.268 Y77.351 E.98029
G1 X157.268 Y77.885 E.01676
G1 X134.653 Y55.27 E1.00399
G1 X134.119 Y55.27 E.01676
G1 X157.268 Y78.418 E1.02769
G1 X157.268 Y78.952 E.01676
M73 P1 R154
G1 X133.585 Y55.27 E1.0514
G1 X133.051 Y55.27 E.01676
M73 P1 R153
G1 X157.268 Y79.486 E1.0751
G1 X157.268 Y80.02 E.01676
G1 X132.517 Y55.27 E1.0988
G1 X131.983 Y55.27 E.01676
G1 X157.268 Y80.554 E1.12251
G1 X157.268 Y81.088 E.01676
G1 X131.449 Y55.27 E1.14621
G1 X130.916 Y55.27 E.01676
G1 X157.268 Y81.622 E1.16991
G1 X157.268 Y82.156 E.01676
G1 X130.382 Y55.27 E1.19362
G1 X129.848 Y55.27 E.01676
G1 X157.268 Y82.69 E1.21732
G1 X157.268 Y83.224 E.01676
G1 X129.314 Y55.27 E1.24102
G1 X128.78 Y55.27 E.01676
G1 X157.268 Y83.758 E1.26473
G1 X157.268 Y84.292 E.01676
G1 X128.246 Y55.27 E1.28843
G1 X127.712 Y55.27 E.01676
G1 X157.268 Y84.826 E1.31214
G1 X157.268 Y85.359 E.01676
G1 X127.178 Y55.27 E1.33584
G1 X126.644 Y55.27 E.01676
G1 X157.262 Y85.887 E1.35927
G1 X157.179 Y86.339 E.01441
G1 X126.11 Y55.27 E1.37933
G1 X125.576 Y55.27 E.01676
G1 X157.097 Y86.791 E1.39938
G1 X157.015 Y87.243 E.01441
G1 X125.042 Y55.27 E1.41944
G1 X124.508 Y55.27 E.01676
G1 X156.933 Y87.694 E1.4395
G1 X156.851 Y88.146 E.01441
G1 X123.975 Y55.27 E1.45955
G1 X123.441 Y55.27 E.01676
G1 X156.769 Y88.598 E1.47961
G1 X156.687 Y89.05 E.01441
G1 X122.907 Y55.27 E1.49967
G1 X122.373 Y55.27 E.01676
G1 X156.604 Y89.501 E1.51973
G1 X156.522 Y89.953 E.01441
G1 X121.839 Y55.27 E1.53978
G1 X121.305 Y55.27 E.01676
G1 X156.44 Y90.405 E1.55984
G1 X156.358 Y90.857 E.01441
G1 X120.771 Y55.27 E1.5799
G1 X120.237 Y55.27 E.01676
G1 X156.276 Y91.309 E1.59995
G1 X156.194 Y91.76 E.01441
G1 X119.703 Y55.27 E1.62001
G1 X119.169 Y55.27 E.01676
G1 X156.112 Y92.212 E1.64007
G1 X156.029 Y92.664 E.01441
M73 P1 R152
G1 X118.635 Y55.27 E1.66012
G1 X118.101 Y55.27 E.01676
G1 X155.947 Y93.116 E1.68018
G1 X155.865 Y93.567 E.01441
G1 X117.568 Y55.27 E1.70024
G1 X117.034 Y55.27 E.01676
G1 X155.783 Y94.019 E1.72029
G1 X155.701 Y94.471 E.01441
G1 X116.5 Y55.27 E1.74035
G1 X115.966 Y55.27 E.01676
G1 X155.619 Y94.923 E1.76041
G1 X155.537 Y95.375 E.01441
G1 X115.432 Y55.27 E1.78046
G1 X114.898 Y55.27 E.01676
G1 X155.454 Y95.826 E1.80052
G1 X155.372 Y96.278 E.01441
G1 X114.364 Y55.27 E1.82058
G1 X113.83 Y55.27 E.01676
G1 X155.29 Y96.73 E1.84063
G1 X155.208 Y97.182 E.01441
G1 X113.296 Y55.27 E1.86069
G1 X112.762 Y55.27 E.01676
G1 X155.126 Y97.633 E1.88075
G1 X155.044 Y98.085 E.01441
M73 P2 R152
G1 X112.228 Y55.27 E1.90081
G1 X111.694 Y55.27 E.01676
G1 X154.962 Y98.537 E1.92086
G1 X154.879 Y98.989 E.01441
G1 X111.161 Y55.27 E1.94092
G1 X110.627 Y55.27 E.01676
G1 X154.797 Y99.441 E1.96098
G1 X154.715 Y99.892 E.01441
G1 X110.093 Y55.27 E1.98103
G1 X109.559 Y55.27 E.01676
G1 X154.633 Y100.344 E2.00109
G1 X154.551 Y100.796 E.01441
G1 X109.025 Y55.27 E2.02115
G1 X108.491 Y55.27 E.01676
G1 X154.469 Y101.248 E2.0412
G1 X154.387 Y101.699 E.01441
G1 X107.957 Y55.27 E2.06126
G1 X107.423 Y55.27 E.01676
M73 P2 R151
G1 X154.304 Y102.151 E2.08132
G1 X154.222 Y102.603 E.01441
G1 X106.889 Y55.27 E2.10137
G1 X106.355 Y55.27 E.01676
G1 X154.14 Y103.055 E2.12143
G1 X154.058 Y103.507 E.01441
G1 X105.821 Y55.27 E2.14149
G1 X105.287 Y55.27 E.01676
G1 X153.976 Y103.958 E2.16154
G1 X153.894 Y104.41 E.01441
G1 X104.754 Y55.27 E2.1816
G1 X104.22 Y55.27 E.01676
G1 X153.812 Y104.862 E2.20166
G1 X153.729 Y105.314 E.01441
G1 X103.686 Y55.27 E2.22171
G1 X103.152 Y55.27 E.01676
G1 X153.647 Y105.765 E2.24177
G1 X153.565 Y106.217 E.01441
G1 X102.618 Y55.27 E2.26183
G1 X102.084 Y55.27 E.01676
G1 X153.483 Y106.669 E2.28188
G1 X153.401 Y107.121 E.01441
G1 X101.55 Y55.27 E2.30194
G1 X101.016 Y55.27 E.01676
G1 X153.319 Y107.572 E2.322
G1 X153.237 Y108.024 E.01441
G1 X100.482 Y55.27 E2.34206
G1 X99.948 Y55.27 E.01676
G1 X153.154 Y108.476 E2.36211
G1 X153.072 Y108.928 E.01441
G1 X99.414 Y55.27 E2.38217
G1 X98.88 Y55.27 E.01676
M73 P2 R150
G1 X152.99 Y109.38 E2.40223
G1 X152.908 Y109.831 E.01441
G1 X98.347 Y55.27 E2.42228
G1 X97.813 Y55.27 E.01676
M73 P3 R150
G1 X152.826 Y110.283 E2.44234
G1 X152.744 Y110.735 E.01441
G1 X97.279 Y55.27 E2.4624
G1 X96.745 Y55.27 E.01676
G1 X152.662 Y111.187 E2.48245
G1 X152.579 Y111.638 E.01441
G1 X96.211 Y55.27 E2.50251
G1 X95.677 Y55.27 E.01676
G1 X152.497 Y112.09 E2.52257
G1 X152.415 Y112.542 E.01441
G1 X95.405 Y55.532 E2.53101
G1 X95.405 Y56.065 E.01676
G1 X152.333 Y112.994 E2.52736
G1 X152.251 Y113.446 E.01441
G1 X95.405 Y56.599 E2.52371
G1 X95.405 Y57.133 E.01676
G1 X152.169 Y113.897 E2.52007
G1 X152.087 Y114.349 E.01441
G1 X95.405 Y57.667 E2.51642
G1 X95.405 Y58.201 E.01676
G1 X152.004 Y114.801 E2.51277
G1 X151.922 Y115.253 E.01441
G1 X95.405 Y58.735 E2.50913
G1 X95.405 Y59.269 E.01676
G1 X151.84 Y115.704 E2.50548
G1 X151.758 Y116.156 E.01441
M73 P3 R149
G1 X95.405 Y59.803 E2.50183
G1 X95.405 Y60.337 E.01676
G1 X151.676 Y116.608 E2.49819
G1 X151.594 Y117.06 E.01441
G1 X95.405 Y60.871 E2.49454
G1 X95.405 Y61.405 E.01676
G1 X151.512 Y117.512 E2.49089
G1 X151.429 Y117.963 E.01441
G1 X95.405 Y61.939 E2.48725
G1 X95.405 Y62.472 E.01676
G1 X151.347 Y118.415 E2.4836
G1 X151.265 Y118.867 E.01441
G1 X95.405 Y63.006 E2.47995
G1 X95.405 Y63.54 E.01676
G1 X151.183 Y119.319 E2.47631
G1 X151.101 Y119.77 E.01441
G1 X95.405 Y64.074 E2.47266
G1 X95.405 Y64.608 E.01676
G1 X151.019 Y120.222 E2.46901
G1 X150.937 Y120.674 E.01441
M73 P4 R149
G1 X95.405 Y65.142 E2.46537
G1 X95.405 Y65.676 E.01676
G1 X150.854 Y121.126 E2.46172
G1 X150.772 Y121.578 E.01441
G1 X95.405 Y66.21 E2.45807
G1 X95.405 Y66.744 E.01676
G1 X150.69 Y122.029 E2.45443
G1 X150.608 Y122.481 E.01441
G1 X95.405 Y67.278 E2.45078
G1 X95.405 Y67.812 E.01676
M73 P4 R148
G1 X150.526 Y122.933 E2.44713
G1 X150.444 Y123.385 E.01441
G1 X95.405 Y68.346 E2.44349
G1 X95.405 Y68.879 E.01676
G1 X150.362 Y123.836 E2.43984
G1 X150.279 Y124.288 E.01441
G1 X95.405 Y69.413 E2.43619
G1 X95.405 Y69.947 E.01676
G1 X150.197 Y124.74 E2.43255
G1 X150.115 Y125.192 E.01441
G1 X95.405 Y70.481 E2.4289
G1 X95.405 Y71.015 E.01676
G1 X150.033 Y125.644 E2.42525
G1 X149.951 Y126.095 E.01441
G1 X95.405 Y71.549 E2.42161
G1 X95.405 Y72.083 E.01676
G1 X149.869 Y126.547 E2.41796
G1 X149.787 Y126.999 E.01441
G1 X95.405 Y72.617 E2.41431
G1 X95.405 Y73.151 E.01676
G1 X149.705 Y127.451 E2.41067
G1 X149.622 Y127.902 E.01441
G1 X95.405 Y73.685 E2.40702
G1 X95.405 Y74.219 E.01676
G1 X149.54 Y128.354 E2.40337
G1 X149.458 Y128.806 E.01441
G1 X95.405 Y74.753 E2.39973
G1 X95.405 Y75.286 E.01676
G1 X149.376 Y129.258 E2.39608
G1 X149.294 Y129.71 E.01441
G1 X95.405 Y75.82 E2.39243
G1 X95.405 Y76.354 E.01676
M73 P4 R147
G1 X149.212 Y130.161 E2.38879
G1 X149.13 Y130.613 E.01441
G1 X95.405 Y76.888 E2.38514
G1 X95.405 Y77.422 E.01676
G1 X149.047 Y131.065 E2.38149
G1 X148.965 Y131.517 E.01441
M73 P5 R147
G1 X95.405 Y77.956 E2.37785
G1 X95.405 Y78.49 E.01676
G1 X148.883 Y131.968 E2.3742
G1 X148.801 Y132.42 E.01441
G1 X95.405 Y79.024 E2.37055
G1 X95.405 Y79.558 E.01676
G1 X148.719 Y132.872 E2.36691
G1 X148.637 Y133.324 E.01441
G1 X95.405 Y80.092 E2.36326
G1 X95.405 Y80.626 E.01676
G1 X148.555 Y133.776 E2.35961
G1 X148.472 Y134.227 E.01441
G1 X95.405 Y81.16 E2.35597
G1 X95.405 Y81.693 E.01676
G1 X148.39 Y134.679 E2.35232
G1 X148.308 Y135.131 E.01441
G1 X95.405 Y82.227 E2.34867
G1 X95.405 Y82.761 E.01676
G1 X148.226 Y135.583 E2.34503
G1 X148.144 Y136.034 E.01441
G1 X95.405 Y83.295 E2.34138
G1 X95.405 Y83.829 E.01676
G1 X148.062 Y136.486 E2.33773
G1 X147.98 Y136.938 E.01441
G1 X95.405 Y84.363 E2.33409
G1 X95.405 Y84.897 E.01676
M73 P5 R146
G1 X147.897 Y137.39 E2.33044
G1 X147.815 Y137.842 E.01441
G1 X95.405 Y85.431 E2.32679
G1 X95.405 Y85.965 E.01676
G1 X147.733 Y138.293 E2.32315
G1 X147.651 Y138.745 E.01441
G1 X95.405 Y86.499 E2.3195
G1 X95.405 Y87.033 E.01676
G1 X147.569 Y139.197 E2.31585
G1 X147.487 Y139.649 E.01441
G1 X95.405 Y87.567 E2.31221
G1 X95.405 Y88.101 E.01676
G1 X147.405 Y140.1 E2.30856
G1 X147.322 Y140.552 E.01441
G1 X95.405 Y88.634 E2.30491
G1 X95.405 Y89.168 E.01676
G1 X147.24 Y141.004 E2.30127
G1 X147.158 Y141.456 E.01441
G1 X95.405 Y89.702 E2.29762
G1 X95.405 Y90.236 E.01676
G1 X147.076 Y141.908 E2.29397
G1 X146.994 Y142.359 E.01441
G1 X95.405 Y90.77 E2.29033
G1 X95.405 Y91.304 E.01676
M73 P6 R146
G1 X146.912 Y142.811 E2.28668
G1 X146.83 Y143.263 E.01441
G1 X95.405 Y91.838 E2.28303
G1 X95.405 Y92.372 E.01676
G1 X146.747 Y143.715 E2.27939
G1 X146.665 Y144.166 E.01441
G1 X95.405 Y92.906 E2.27574
G1 X95.405 Y93.44 E.01676
M73 P6 R145
G1 X146.583 Y144.618 E2.27209
G1 X146.501 Y145.07 E.01441
G1 X95.405 Y93.974 E2.26845
G1 X95.405 Y94.508 E.01676
G1 X146.419 Y145.522 E2.2648
G1 X146.337 Y145.974 E.01441
G1 X95.405 Y95.041 E2.26115
G1 X95.405 Y95.575 E.01676
G1 X146.255 Y146.425 E2.25751
G1 X146.172 Y146.877 E.01441
G1 X95.405 Y96.109 E2.25386
G1 X95.405 Y96.643 E.01676
G1 X146.09 Y147.329 E2.25021
G1 X146.008 Y147.781 E.01441
G1 X95.405 Y97.177 E2.24657
G1 X95.405 Y97.711 E.01676
G1 X145.926 Y148.232 E2.24292
G1 X145.844 Y148.684 E.01441
G1 X95.405 Y98.245 E2.23927
G1 X95.405 Y98.779 E.01676
G1 X145.762 Y149.136 E2.23563
G1 X145.68 Y149.588 E.01441
G1 X95.405 Y99.313 E2.23198
G1 X95.405 Y99.847 E.01676
G1 X145.597 Y150.04 E2.22833
G1 X145.515 Y150.491 E.01441
G1 X95.405 Y100.381 E2.22469
G1 X95.405 Y100.915 E.01676
G1 X145.433 Y150.943 E2.22104
G1 X145.351 Y151.395 E.01441
G1 X95.405 Y101.448 E2.21739
G1 X95.405 Y101.982 E.01676
M73 P6 R144
G1 X145.269 Y151.847 E2.21375
G1 X145.187 Y152.298 E.01441
G1 X95.405 Y102.516 E2.2101
G1 X95.405 Y103.05 E.01676
G1 X145.105 Y152.75 E2.20645
G1 X145.022 Y153.202 E.01441
G1 X95.405 Y103.584 E2.20281
G1 X95.405 Y104.118 E.01676
G1 X144.94 Y153.654 E2.19916
G1 X144.858 Y154.105 E.01441
G1 X95.405 Y104.652 E2.19551
G1 X95.405 Y105.186 E.01676
M73 P7 R144
G1 X144.776 Y154.557 E2.19187
G1 X144.745 Y154.73 E.00552
G1 X144.415 Y154.73 E.01035
G1 X95.405 Y105.72 E2.17584
G1 X95.405 Y106.254 E.01676
G1 X143.881 Y154.73 E2.15213
G1 X143.347 Y154.73 E.01676
G1 X95.405 Y106.788 E2.12843
G1 X95.405 Y107.322 E.01676
G1 X142.813 Y154.73 E2.10473
G1 X142.279 Y154.73 E.01676
G1 X95.405 Y107.855 E2.08102
G1 X95.405 Y108.389 E.01676
G1 X141.745 Y154.73 E2.05732
G1 X141.211 Y154.73 E.01676
G1 X95.405 Y108.923 E2.03361
G1 X95.405 Y109.457 E.01676
G1 X140.678 Y154.73 E2.00991
G1 X140.144 Y154.73 E.01676
G1 X95.405 Y109.991 E1.98621
G1 X95.405 Y110.525 E.01676
G1 X139.61 Y154.73 E1.9625
G1 X139.076 Y154.73 E.01676
G1 X95.405 Y111.059 E1.9388
G1 X95.405 Y111.593 E.01676
M73 P7 R143
G1 X138.542 Y154.73 E1.9151
G1 X138.008 Y154.73 E.01676
G1 X95.405 Y112.127 E1.89139
G1 X95.405 Y112.661 E.01676
G1 X137.474 Y154.73 E1.86769
G1 X136.94 Y154.73 E.01676
G1 X95.405 Y113.195 E1.84399
