; generated by PrusaSlicer 2.4.2+win64 on 2023-07-19 at 04:55:44 UTC

; 

; external perimeters extrusion width = 0.60mm
; perimeters extrusion width = 0.43mm
; infill extrusion width = 0.45mm
; solid infill extrusion width = 0.70mm
; top infill extrusion width = 0.45mm
; support material extrusion width = 0.37mm
; first layer extrusion width = 0.42mm

M73 P0 R234
M201 X9000 Y9000 Z500 E10000 ; sets maximum accelerations, mm/sec^2
M203 X500 Y500 Z12 E120 ; sets maximum feedrates, mm / sec
M204 P2000 R1500 T2000 ; sets acceleration (P, T) and retract acceleration (R), mm/sec^2
M205 X10.00 Y10.00 Z0.20 E2.50 ; sets the jerk limits, mm/sec
M205 S0 T0 ; sets the minimum extruding and travel feed rate, mm/sec
M107
;TYPE:Custom
M862.3 P "MK2S" ; printer model check
M862.1 P0.4 ; nozzle diameter check
M115 U3.2.3 ; tell printer latest fw version
G90 ; use absolute coordinates
M83 ; extruder relative mode
M204 S2000 T1500 ; MK2 firmware only supports the old M204 format
M104 S215 ; set extruder temp
M140 S60 ; set bed temp
M190 S60 ; wait for bed temp
M109 S215 ; wait for extruder temp
G28 W ; home all without mesh bed level
G80 ; mesh bed leveling
G1 Z0.2 F720
G1 Y-2 F1000 ; go outside print area
G92 E0
G1 X60 E9 F1000 ; intro line
G1 X100 E12.5 F1000 ; intro line
G92 E0
G21 ; set units to millimeters
G90 ; use absolute coordinates
M83 ; use relative distances for extrusion
M900 K0.05 ; Filament gcode LA 1.5
M900 K30 ; Filament gcode LA 1.0
M107
;LAYER_CHANGE
;Z:0.2
;HEIGHT:0.2
;BEFORE_LAYER_CHANGE
G92 E0.0
;0.2


G1 E-.8 F2100
G1 Z.4 F720
;AFTER_LAYER_CHANGE
;0.2
; printing object Vacuum mk4.stl id:0 copy 0
G1 X83.692 Y72.412 F10800
G1 Z.2 F720
G1 E.8 F2100
M204 S800
;TYPE:Support material interface
;WIDTH:0.37
G1 F1200
G1 X83.692 Y72.872 E.01251
G1 X83.924 Y72.872 E.00632
G1 X83.924 Y70.577 E.06241
G1 X84.419 Y70.577 E.01346
G1 X84.419 Y70.78 E.00553
G1 X84.914 Y70.78 E.01346
G1 X84.914 Y70.577 E.00553
G1 X85.409 Y70.577 E.01346
G1 X85.409 Y70.78 E.00553
G1 X85.904 Y70.78 E.01346
G1 X85.904 Y70.577 E.00553
G1 X86.399 Y70.577 E.01346
G1 X86.399 Y70.78 E.00553
G1 X86.894 Y70.78 E.01346
G1 X86.894 Y70.577 E.00553
G1 X87.388 Y70.577 E.01346
G1 X87.388 Y70.78 E.00553
G1 X87.883 Y70.78 E.01346
G1 X87.883 Y70.577 E.00553
G1 X88.282 Y70.577 E.01084
G1 X88.282 Y71.058 E.01309
G1 X88.023 Y70.799 E.00996
M204 S1000
;WIPE_START
G1 F8640
G1 X88.282 Y71.058 E-.08453
G1 X88.282 Y70.577 E-.11111
G1 X87.883 Y70.577 E-.09201
G1 X87.883 Y70.78 E-.04697
G1 X87.388 Y70.78 E-.11427
G1 X87.388 Y70.577 E-.04697
G1 X86.894 Y70.577 E-.11427
G1 X86.894 Y70.78 E-.04697
G1 X86.448 Y70.78 E-.1029
;WIPE_END
G1 E-.04 F2100
G1 Z.6 F720
G1 X91.219 Y73.219 F10800
G1 Z.2 F720
G1 E.8 F2100
M204 S800
;TYPE:Support material
;WIDTH:0.42
G1 F1200
G1 X88.639 Y73.219 E.08089
G1 X88.639 Y70.219 E.09406
G1 X83.334 Y70.219 E.16633
G1 X83.334 Y73.219 E.09406
G1 X80.755 Y73.219 E.08089
G1 X80.755 Y53.87 E.60668
G1 X91.219 Y53.87 E.32811
G1 X91.219 Y73.163 E.6049
M204 S1000
G1 X90.644 Y73.049 F10800
M204 S800
G1 F1200
G1 X90.644 Y54.209 E.59072
G1 X90.225 Y54.209 E.01314
G1 X90.225 Y72.88 E.5854
G1 X89.806 Y72.88 E.01314
G1 X89.806 Y54.209 E.5854
G1 X89.387 Y54.209 E.01314
G1 X89.387 Y72.88 E.5854
G1 X88.979 Y72.88 E.0128
G1 X88.968 Y54.209 E.5854
G1 X88.549 Y54.209 E.01314
G1 X88.549 Y69.88 E.49133
G1 X88.13 Y69.88 E.01314
G1 X88.13 Y54.209 E.49133
G1 X87.711 Y54.209 E.01314
G1 X87.711 Y69.88 E.49133
G1 X87.292 Y69.88 E.01314
G1 X87.292 Y54.209 E.49133
G1 X86.873 Y54.209 E.01314
G1 X86.873 Y69.88 E.49133
G1 X86.454 Y69.88 E.01314
G1 X86.454 Y54.209 E.49133
G1 X86.035 Y54.209 E.01314
G1 X86.035 Y69.88 E.49133
G1 X85.616 Y69.88 E.01314
G1 X85.616 Y54.209 E.49133
G1 X85.197 Y54.209 E.01314
G1 X85.197 Y69.88 E.49133
G1 X84.778 Y69.88 E.01314
G1 X84.778 Y54.209 E.49133
G1 X84.359 Y54.209 E.01314
G1 X84.359 Y69.88 E.49133
G1 X83.94 Y69.88 E.01314
G1 X83.94 Y54.209 E.49133
G1 X83.521 Y54.209 E.01314
G1 X83.521 Y69.88 E.49133
G1 X83.102 Y69.88 E.01314
G1 X83.102 Y54.209 E.49133
G1 X82.683 Y54.209 E.01314
G1 X82.683 Y72.88 E.5854
G1 X82.264 Y72.88 E.01314
G1 X82.264 Y54.209 E.5854
G1 X81.845 Y54.209 E.01314
G1 X81.845 Y72.88 E.5854
G1 X81.426 Y72.88 E.01314
G1 X81.426 Y54.04 E.59072
M204 S1000
;WIPE_START
G1 F8640
G1 X81.426 Y57.331 E-.76
;WIPE_END
G1 E-.04 F2100
G1 Z.6 F720
G1 X154.834 Y59.102 F10800
G1 Z.2 F720
G1 E.8 F2100
M204 S800
;TYPE:Support material interface
;WIDTH:0.37
G1 F1200
G1 X154.834 Y144.013 E2.3093
G1 X154.693 Y144.013 E.00381
G1 X154.693 Y146.08 E.05621
G1 X155.188 Y145.959 E.01386
G1 X155.188 Y59.102 E2.36222
G1 X155.683 Y59.102 E.01346
G1 X155.683 Y145.816 E2.35833
G1 X156.178 Y145.67 E.01403
G1 X156.178 Y59.102 E2.35437
G1 X156.673 Y59.102 E.01346
G1 X156.673 Y145.479 E2.34918
G1 X157.003 Y145.351 E.00963
M73 P0 R233
G1 X157.168 Y145.261 E.0051
G1 X157.168 Y59.102 E2.34325
G1 X157.663 Y59.102 E.01346
G1 X157.663 Y145.094 E2.3387
G1 X158.021 Y145.07 E.00977
G1 X158.158 Y145.087 E.00374
G1 X158.158 Y59.102 E2.33851
G1 X158.652 Y59.102 E.01346
G1 X158.652 Y145.22 E2.34213
G1 X158.813 Y145.287 E.00474
G1 X159.147 Y145.493 E.01068
G1 X159.147 Y59.102 E2.34956
G1 X159.423 Y59.102 E.00751
G1 X159.423 Y144.013 E2.3093
G1 X159.495 Y144.013 E.00194
M204 S1000
;WIPE_START
G1 F8640
G1 X159.423 Y144.013 E-.01649
G1 X159.423 Y140.793 E-.74351
;WIPE_END
G1 E-.04 F2100
G1 Z.6 F720
G1 X158.038 Y145.429 F10800
G1 Z.2 F720
G1 E.8 F2100
M204 S800
;TYPE:Support material
;WIDTH:0.42
G1 F1200
G1 X158.34 Y145.482 E.00959
G1 X158.64 Y145.6 E.01013
G1 X159.196 Y145.954 E.02066
G1 X159.456 Y146.141 E.01003
G1 X159.512 Y146.226 E.00319
G1 X159.512 Y146.656 E.01347
G1 X159.211 Y146.656 E.00941
G1 X159.21 Y146.173 E.01512
G1 X159.008 Y145.882 E.01112
G1 X158.685 Y145.76 E.01082
G1 X158.447 Y145.7 E.00767
G1 X158.027 Y145.652 E.01327
G1 X157.649 Y145.67 E.01188
G1 X157.301 Y145.736 E.01111
G1 X156.313 Y146.002 E.03207
G1 X157.156 Y145.675 E.02835
G1 X157.428 Y145.529 E.0097
G1 X157.719 Y145.447 E.00947
G1 X157.982 Y145.431 E.00825
M204 S1000
;WIPE_START
G1 F8640
G1 X157.719 Y145.447 E-.06074
G1 X157.428 Y145.529 E-.06977
G1 X157.156 Y145.675 E-.07141
G1 X156.313 Y146.002 E-.20878
G1 X157.301 Y145.736 E-.2362
G1 X157.649 Y145.67 E-.08183
G1 X157.784 Y145.663 E-.03128
;WIPE_END
G1 E-.04 F2100
G1 Z.6 F720
G1 X154.546 Y144.013 F10800
G1 Z.2 F720
G1 E.8 F2100
M204 S800
;TYPE:Support material interface
;WIDTH:0.37
G1 F1200
G1 X154.198 Y144.013 E.00945
G1 X154.198 Y146.193 E.05928
G1 X153.704 Y146.295 E.01374
G1 X153.704 Y144.013 E.06206
G1 X153.209 Y144.013 E.01346
G1 X153.209 Y146.386 E.06455
G1 X152.714 Y146.472 E.01366
G1 X152.714 Y144.013 E.06687
G1 X152.539 Y144.013 E.00476
G1 X152.539 Y144.356 E.00934
M204 S1000
;WIPE_START
G1 F8640
G1 X152.539 Y144.013 E-.07926
G1 X152.714 Y144.013 E-.04044
G1 X152.714 Y146.472 E-.56769
G1 X153.024 Y146.418 E-.07262
;WIPE_END
G1 E-.04 F2100
G1 Z.6 F720
G1 X152.539 Y146.128 F10800
G1 Z.2 F720
G1 E.8 F2100
M204 S800
G1 F1200
G1 X152.539 Y146.308 E.00488
G1 X152.219 Y146.308 E.0087
G1 X152.219 Y146.553 E.00667
G1 X151.724 Y146.627 E.01361
G1 X151.724 Y146.308 E.00867
G1 X151.229 Y146.308 E.01346
G1 X151.229 Y146.692 E.01045
G1 X150.734 Y146.756 E.01357
G1 X150.734 Y146.308 E.01219
G1 X150.244 Y146.308 E.01334
G1 X150.244 Y146.82 E.01392
G1 X150.588 Y146.775 E.00944
M204 S1000
;WIPE_START
G1 F8640
G1 X150.244 Y146.82 E-.08015
G1 X150.244 Y146.308 E-.11814
G1 X150.734 Y146.308 E-.11325
G1 X150.734 Y146.756 E-.10348
G1 X151.229 Y146.692 E-.11522
G1 X151.229 Y146.308 E-.08876
G1 X151.724 Y146.308 E-.11427
G1 X151.724 Y146.424 E-.02673
;WIPE_END
G1 E-.04 F2100
G1 Z.6 F720
G1 X159.066 Y151.255 F10800
G1 Z.2 F720
G1 E.8 F2100
M204 S800
;TYPE:Support material
;WIDTH:0.42
G1 F1200
G1 X162.066 Y151.255 E.09406
G1 X162.066 Y153.835 E.08089
G1 X156.731 Y153.835 E.16726
G1 X156.194 Y151.607 E.07185
G1 X157.336 Y151.607 E.03582
G1 X157.772 Y151.581 E.0137
G1 X158.317 Y151.477 E.0174
G1 X158.618 Y151.383 E.0099
G1 X159.026 Y151.217 E.01379
G1 X159.066 Y151.158 E.00224
G1 X159.066 Y151.199 E.00129
M204 S1000
G1 X161.451 Y153.665 F10800
M204 S800
G1 F1200
G1 X161.451 Y151.595 E.06493
G1 X161.032 Y151.595 E.01314
G1 X161.032 Y153.496 E.05961
G1 X160.613 Y153.496 E.01314
G1 X160.613 Y151.595 E.05961
G1 X160.194 Y151.595 E.01314
G1 X160.194 Y153.496 E.05961
G1 X159.775 Y153.496 E.01314
G1 X159.775 Y151.595 E.05961
G1 X159.356 Y151.595 E.01314
G1 X159.356 Y153.496 E.05961
G1 X158.937 Y153.496 E.01314
G1 X158.937 Y151.62 E.05883
G1 X158.518 Y151.77 E.01395
G1 X158.518 Y153.496 E.05412
G1 X158.099 Y153.496 E.01314
G1 X158.099 Y151.873 E.05089
G1 X157.68 Y151.93 E.01326
G1 X157.68 Y153.496 E.04909
G1 X157.261 Y153.496 E.01314
G1 X157.261 Y151.947 E.04857
G1 X156.842 Y151.947 E.01314
G1 X156.842 Y153.572 E.05095
M204 S1000
;WIPE_START
G1 F8640
G1 X156.842 Y151.947 E-.37521
G1 X157.261 Y151.947 E-.09674
G1 X157.261 Y153.194 E-.28804
;WIPE_END
G1 E-.04 F2100
G1 Z.6 F720
G1 X159.525 Y150.87 F10800
G1 Z.2 F720
G1 E.8 F2100
M204 S800
;TYPE:Support material interface
;WIDTH:0.37
G1 F1200
G1 X159.483 Y150.898 E.00136
G1 X159.642 Y150.898 E.00433
G1 X159.642 Y150.781 E.00318
G1 X159.757 Y150.694 E.00391
G1 X159.863 Y150.481 E.00648
G1 X159.869 Y146.149 E.11781
G1 X159.781 Y145.952 E.00587
G1 X159.642 Y145.834 E.00495
G1 X159.642 Y144.013 E.04953
G1 X160.137 Y144.013 E.01346
G1 X160.137 Y150.898 E.18724
G1 X160.632 Y150.898 E.01346
G1 X160.632 Y144.013 E.18724
G1 X161.127 Y144.013 E.01346
G1 X161.127 Y150.898 E.18724
G1 X161.622 Y150.898 E.01346
G1 X161.622 Y144.013 E.18724
M204 S1000
;WIPE_START
G1 F8640
G1 X161.622 Y147.305 E-.76
;WIPE_END
G1 E-.04 F2100
G1 Z.6 F720
G1 X164.656 Y146.656 F10800
G1 Z.2 F720
G1 E.8 F2100
M204 S800
;TYPE:Support material
;WIDTH:0.42
G1 F1200
G1 X162.076 Y146.656 E.08089
G1 X162.076 Y143.656 E.09406
G1 X159.781 Y143.656 E.07195
G1 X159.781 Y58.745 E2.66232
G1 X154.476 Y58.745 E.16633
G1 X154.476 Y143.656 E2.66232
G1 X152.181 Y143.656 E.07195
G1 X152.181 Y145.95 E.07195
G1 X149.886 Y145.95 E.07195
G1 X149.886 Y146.952 E.03139
G1 X147.006 Y147.154 E.09053
G1 X143.918 Y147.268 E.09688
G1 X141.675 Y147.293 E.07035
G1 X133.537 Y147.292 E.25515
G1 X133.537 Y141.076 E.19492
G1 X135.832 Y141.076 E.07195
G1 X135.832 Y138.781 E.07195
G1 X138.127 Y138.781 E.07195
G1 X138.127 Y56.165 E2.59037
G1 X164.656 Y56.165 E.83179
G1 X164.656 Y146.599 E2.8355
M204 S1000
G1 X163.965 Y146.486 F10800
M204 S800
G1 F1200
G1 X163.965 Y56.504 E2.82131
G1 X163.546 Y56.504 E.01314
M73 P0 R232
G1 X163.546 Y146.316 E2.81599
G1 X163.127 Y146.316 E.01314
G1 X163.127 Y56.504 E2.81599
G1 X162.708 Y56.504 E.01314
G1 X162.708 Y146.316 E2.81599
G1 X162.415 Y146.316 E.00918
G1 X162.415 Y143.316 E.09406
G1 X162.289 Y143.316 E.00396
G1 X162.289 Y56.504 E2.72193
G1 X161.87 Y56.504 E.01314
G1 X161.87 Y143.316 E2.72193
G1 X161.451 Y143.316 E.01314
G1 X161.451 Y56.504 E2.72193
G1 X161.032 Y56.504 E.01314
G1 X161.032 Y143.316 E2.72193
G1 X160.613 Y143.316 E.01314
M73 P1 R232
G1 X160.613 Y56.504 E2.72193
G1 X160.194 Y56.504 E.01314
G1 X160.194 Y143.316 E2.72193
G1 X160.12 Y143.316 E.00231
G1 X160.12 Y58.405 E2.66232
G1 X159.775 Y58.405 E.01082
G1 X159.775 Y56.504 E.05961
G1 X159.356 Y56.504 E.01314
G1 X159.356 Y58.405 E.05961
G1 X158.937 Y58.405 E.01314
G1 X158.937 Y56.504 E.05961
G1 X158.518 Y56.504 E.01314
G1 X158.518 Y58.405 E.05961
G1 X158.099 Y58.405 E.01314
G1 X158.099 Y56.504 E.05961
G1 X157.68 Y56.504 E.01314
G1 X157.68 Y58.405 E.05961
G1 X157.261 Y58.405 E.01314
G1 X157.261 Y56.504 E.05961
G1 X156.842 Y56.504 E.01314
G1 X156.842 Y58.405 E.05961
G1 X156.423 Y58.405 E.01314
G1 X156.423 Y56.504 E.05961
G1 X156.004 Y56.504 E.01314
G1 X156.004 Y58.405 E.05961
G1 X155.585 Y58.405 E.01314
G1 X155.585 Y56.504 E.05961
G1 X155.166 Y56.504 E.01314
G1 X155.166 Y58.405 E.05961
G1 X154.747 Y58.405 E.01314
G1 X154.747 Y56.504 E.05961
G1 X154.328 Y56.504 E.01314
G1 X154.328 Y58.405 E.05961
G1 X154.137 Y58.405 E.00601
G1 X154.137 Y143.316 E2.66232
G1 X153.909 Y143.316 E.00712
G1 X153.909 Y56.504 E2.72193
G1 X153.49 Y56.504 E.01314
G1 X153.49 Y143.316 E2.72193
G1 X153.071 Y143.316 E.01314
M73 P1 R231
G1 X153.071 Y56.504 E2.72193
G1 X152.652 Y56.504 E.01314
G1 X152.652 Y143.316 E2.72193
G1 X152.234 Y143.316 E.01314
G1 X152.234 Y56.504 E2.72193
G1 X151.815 Y56.504 E.01314
G1 X151.815 Y145.611 E2.79388
G1 X151.396 Y145.611 E.01314
G1 X151.396 Y56.504 E2.79388
G1 X150.977 Y56.504 E.01314
G1 X150.977 Y145.611 E2.79388
G1 X150.558 Y145.611 E.01314
G1 X150.558 Y56.504 E2.79388
G1 X150.139 Y56.504 E.01314
G1 X150.139 Y145.611 E2.79388
G1 X149.72 Y145.611 E.01314
G1 X149.72 Y56.504 E2.79388
G1 X149.301 Y56.504 E.01314
G1 X149.301 Y146.661 E2.82679
G1 X148.882 Y146.692 E.01317
G1 X148.882 Y56.504 E2.82778
G1 X148.463 Y56.504 E.01314
G1 X148.463 Y146.722 E2.82873
G1 X148.044 Y146.752 E.01317
G1 X148.044 Y56.504 E2.82965
G1 X147.625 Y56.504 E.01314
G1 X147.625 Y146.777 E2.83044
G1 X147.206 Y146.802 E.01316
M73 P1 R230
G1 X147.206 Y56.504 E2.83123
G1 X146.787 Y56.504 E.01314
G1 X146.787 Y146.824 E2.83193
G1 X146.368 Y146.845 E.01315
G1 X146.368 Y56.504 E2.83256
G1 X145.949 Y56.504 E.01314
G1 X145.949 Y146.864 E2.83316
G1 X145.53 Y146.879 E.01315
G1 X145.53 Y56.504 E2.83365
G1 X145.111 Y56.504 E.01314
G1 X145.111 Y146.895 E2.83414
G1 X144.692 Y146.908 E.01314
G1 X144.692 Y56.504 E2.83456
G1 X144.273 Y56.504 E.01314
G1 X144.273 Y146.92 E2.83491
G1 X143.854 Y146.93 E.01314
G1 X143.854 Y56.504 E2.83523
G1 X143.435 Y56.504 E.01314
G1 X143.435 Y146.934 E2.83536
G1 X143.016 Y146.939 E.01314
G1 X143.016 Y56.504 E2.8355
G1 X142.597 Y56.504 E.01314
M73 P2 R230
G1 X142.597 Y146.943 E2.83564
G1 X142.178 Y146.947 E.01314
G1 X142.178 Y56.504 E2.83578
G1 X141.759 Y56.504 E.01314
M73 P2 R229
G1 X141.759 Y146.952 E2.83593
G1 X141.673 Y146.953 E.0027
G1 X141.34 Y146.953 E.01044
G1 X141.34 Y56.504 E2.83596
G1 X140.921 Y56.504 E.01314
G1 X140.921 Y146.953 E2.83596
G1 X140.502 Y146.953 E.01314
G1 X140.502 Y56.504 E2.83596
G1 X140.083 Y56.504 E.01314
G1 X140.083 Y146.953 E2.83596
G1 X139.664 Y146.953 E.01314
G1 X139.664 Y56.504 E2.83596
G1 X139.245 Y56.504 E.01314
G1 X139.245 Y146.953 E2.83596
G1 X138.826 Y146.953 E.01314
G1 X138.826 Y56.504 E2.83596
G1 X138.466 Y56.504 E.01129
G1 X138.466 Y139.12 E2.59037
G1 X138.407 Y139.12 E.00185
G1 X138.407 Y146.953 E.24559
G1 X137.988 Y146.953 E.01314
G1 X137.988 Y139.12 E.24559
G1 X137.569 Y139.12 E.01314
G1 X137.569 Y146.953 E.24559
G1 X137.15 Y146.953 E.01314
G1 X137.15 Y139.12 E.24559
G1 X136.731 Y139.12 E.01314
G1 X136.731 Y146.953 E.24559
G1 X136.312 Y146.953 E.01314
G1 X136.312 Y139.12 E.24559
G1 X136.171 Y139.12 E.00442
G1 X136.171 Y141.415 E.07195
G1 X135.893 Y141.415 E.00872
G1 X135.893 Y146.953 E.17364
G1 X135.474 Y146.953 E.01314
G1 X135.474 Y141.415 E.17364
G1 X135.055 Y141.415 E.01314
G1 X135.055 Y146.953 E.17364
G1 X134.636 Y146.953 E.01314
G1 X134.636 Y141.415 E.17364
G1 X134.217 Y141.415 E.01314
G1 X134.217 Y147.123 E.17896
M204 S1000
;WIPE_START
G1 F8640
G1 X134.217 Y143.831 E-.76
;WIPE_END
G1 E-.04 F2100
G1 Z.6 F720
G1 X159.506 Y150.397 F10800
G1 Z.2 F720
G1 E.8 F2100
M204 S800
G1 F1200
G1 X159.474 Y150.459 E.00221
G1 X159.22 Y150.641 E.00978
G1 X159.214 Y147.599 E.09538
G1 X159.51 Y147.413 E.01096
G1 X159.506 Y150.34 E.09178
M204 S1000
;WIPE_START
G1 F8640
G1 X159.51 Y147.413 E-.67588
G1 X159.214 Y147.599 E-.08071
G1 X159.214 Y147.613 E-.00341
;WIPE_END
G1 E-.04 F2100
G1 Z.6 F720
G1 X156.729 Y149.119 F10800
G1 Z.2 F720
G1 E.8 F2100
M204 S800
;TYPE:Perimeter
G1 F1200
G1 X152.922 Y149.119 E.11936
G1 X154.088 Y148.961 E.03689
G1 X155.024 Y148.807 E.02976
G1 X156.727 Y148.461 E.05449
G1 X156.728 Y149.059 E.01876
M204 S1000
;WIPE_START
G1 F8640
G1 X153.437 Y149.111 E-.76
;WIPE_END
G1 E-.04 F2100
G1 Z.6 F720
G1 X90.906 Y149.119 F10800
G1 Z.2 F720
G1 E.8 F2100
M204 S800
G1 F1200
G1 X86.537 Y149.119 E.13698
G1 X86.537 Y144.748 E.13704
G1 X86.853 Y145.418 E.02321
G1 X87.272 Y146.115 E.02549
G1 X87.757 Y146.766 E.02546
G1 X88.302 Y147.366 E.02543
G1 X88.891 Y147.9 E.02493
G1 X89.542 Y148.384 E.02543
G1 X90.238 Y148.802 E.02546
G1 X90.852 Y149.093 E.02131
M204 S1000
