; generated by PrusaSlicer 2.4.2+win64 on 2023-07-18 at 05:34:40 UTC

; 

; external perimeters extrusion width = 0.60mm
; perimeters extrusion width = 0.43mm
; infill extrusion width = 0.45mm
; solid infill extrusion width = 0.70mm
; top infill extrusion width = 0.45mm
; support material extrusion width = 0.37mm
; first layer extrusion width = 0.42mm

; external perimeters extrusion width = 0.60mm
; perimeters extrusion width = 0.43mm
; infill extrusion width = 0.45mm
; solid infill extrusion width = 0.70mm
; top infill extrusion width = 0.45mm
; support material extrusion width = 0.37mm
; first layer extrusion width = 0.42mm

M73 P0 R183
M201 X9000 Y9000 Z500 E10000 ; sets maximum accelerations, mm/sec^2
M203 X500 Y500 Z12 E120 ; sets maximum feedrates, mm / sec
M204 P2000 R1500 T2000 ; sets acceleration (P, T) and retract acceleration (R), mm/sec^2
M205 X10.00 Y10.00 Z0.20 E2.50 ; sets the jerk limits, mm/sec
M205 S0 T0 ; sets the minimum extruding and travel feed rate, mm/sec
M107
;TYPE:Custom
M862.3 P "MK2S" ; printer model check
M862.1 P0.4 ; nozzle diameter check
M115 U3.2.3 ; tell printer latest fw version
G90 ; use absolute coordinates
M83 ; extruder relative mode
M204 S2000 T1500 ; MK2 firmware only supports the old M204 format
M104 S215 ; set extruder temp
M140 S60 ; set bed temp
M190 S60 ; wait for bed temp
M109 S215 ; wait for extruder temp
G28 W ; home all without mesh bed level
G80 ; mesh bed leveling
G1 Z0.2 F720
G1 Y-2 F1000 ; go outside print area
G92 E0
G1 X60 E9 F1000 ; intro line
G1 X100 E12.5 F1000 ; intro line
G92 E0
G21 ; set units to millimeters
G90 ; use absolute coordinates
M83 ; use relative distances for extrusion
M900 K0.05 ; Filament gcode LA 1.5
M900 K30 ; Filament gcode LA 1.0
M107
;LAYER_CHANGE
;Z:0.2
;HEIGHT:0.2
;BEFORE_LAYER_CHANGE
G92 E0.0
;0.2


G1 E-.8 F2100
G1 Z.4 F720
;AFTER_LAYER_CHANGE
;0.2
G1 X35.33 Y36.417 F10800
G1 Z.2 F720
G1 E.8 F2100
M204 S800
;TYPE:Skirt/Brim
;WIDTH:0.42
G1 F1200
G1 X37.083 Y34.739 E.07609
G1 X40.484 Y31.785 E.14125
G1 X44.561 Y28.687 E.16054
G1 X48.62 Y26.027 E.15215
G1 X52.848 Y23.645 E.15216
G1 X57.226 Y21.553 E.15215
G1 X61.735 Y19.76 E.15215
G1 X66.432 Y18.251 E.15466
G1 X71.142 Y17.083 E.15215
G1 X75.92 Y16.234 E.15215
G1 X80.744 Y15.708 E.15215
G1 X83.166 Y15.567 E.07609
G1 X87.8 Y15.526 E.14531
G1 X92.783 Y15.809 E.15649
G1 X97.598 Y16.416 E.15215
G1 X102.439 Y17.364 E.15466
G1 X107.127 Y18.616 E.15215
G1 X109.426 Y19.355 E.07573
G1 X191.2 Y48.241 E2.71922
G1 X192.302 Y49.045 E.04278
G1 X192.647 Y49.683 E.02272
G1 X238.545 Y178.197 E4.27873
G1 X238.683 Y178.996 E.02544
G1 X238.683 Y194.05 E.47202
G1 X238.292 Y195.357 E.04278
G1 X237.246 Y196.234 E.04278
G1 X236.306 Y196.427 E.03008
G1 X129.456 Y196.427 E3.3502
G1 X128.254 Y196.101 E.03904
M73 P0 R182
G1 X48.686 Y149.477 E2.89157
G1 X46.635 Y148.184 E.07602
G1 X42.664 Y145.394 E.15216
G1 X38.83 Y142.291 E.15466
G1 X35.274 Y138.99 E.15215
G1 X31.999 Y135.517 E.14965
G1 X30.425 Y133.67 E.07609
G1 X27.466 Y129.824 E.15215
G1 X24.772 Y125.788 E.15215
G1 X22.355 Y121.58 E.15215
G1 X20.193 Y117.146 E.15466
G1 X18.367 Y112.65 E.15215
G1 X16.869 Y108.119 E.14965
G1 X16.223 Y105.779 E.07609
G1 X15.169 Y101.042 E.15216
G1 X14.436 Y96.246 E.15215
G1 X14.022 Y91.33 E.15465
G1 X13.943 Y86.478 E.15215
G1 X14.19 Y81.632 E.15215
G1 X14.762 Y76.813 E.15215
G1 X15.657 Y72.043 E.15215
G1 X16.869 Y67.345 E.15215
G1 X18.395 Y62.738 E.15215
G1 X19.272 Y60.476 E.07609
G1 X21.219 Y56.118 E.14965
G1 X23.488 Y51.828 E.15215
G1 X26.04 Y47.701 E.15215
G1 X28.864 Y43.754 E.15216
G1 X31.999 Y39.946 E.15465
G1 X35.289 Y36.461 E.15027
M204 S1000
; printing object drain cover handle.stl id:1 copy 0
;WIPE_START
G1 F8640
G1 X37.083 Y34.739 E-.57417
G1 X37.69 Y34.211 E-.18583
;WIPE_END
G1 E-.04 F2100
G1 Z.6 F720
G1 X136.214 Y181.933 F10800
G1 Z.2 F720
G1 E.8 F2100
M204 S800
;TYPE:Support material interface
;WIDTH:0.37
G1 F1200
G1 X135.867 Y181.933 E.00945
G1 X135.867 Y185.193 E.08866
G1 X135.814 Y185.425 E.00647
G1 X135.814 Y186.108 E.01856
G1 X135.867 Y186.34 E.00647
G1 X135.867 Y188.818 E.0674
G1 X135.372 Y188.818 E.01346
G1 X135.372 Y181.933 E.18724
G1 X134.877 Y181.933 E.01346
G1 X134.877 Y188.818 E.18724
G1 X134.688 Y188.818 E.00513
G1 X134.688 Y188.459 E.00977
M204 S1000
;WIPE_START
G1 F8640
G1 X134.688 Y188.818 E-.08299
G1 X134.877 Y188.818 E-.04351
G1 X134.877 Y186.075 E-.6335
;WIPE_END
G1 E-.04 F2100
G1 Z.6 F720
G1 X136.103 Y187.018 F10800
G1 Z.2 F720
G1 E.8 F2100
M204 S800
G1 F1200
G1 X136.362 Y187.357 E.0116
G1 X136.362 Y188.818 E.03975
G1 X136.856 Y188.818 E.01346
G1 X136.856 Y187.888 E.02529
G1 X137.351 Y188.146 E.01517
G1 X137.351 Y188.818 E.01829
G1 X137.846 Y188.818 E.01346
G1 X137.846 Y188.325 E.0134
G1 X138.341 Y188.402 E.01362
G1 X138.341 Y188.818 E.01132
G1 X138.836 Y188.818 E.01346
G1 X138.836 Y188.409 E.01113
G1 X139.331 Y188.409 E.01346
G1 X139.331 Y188.818 E.01113
G1 X139.826 Y188.818 E.01346
G1 X139.826 Y188.409 E.01113
G1 X140.321 Y188.409 E.01346
G1 X140.321 Y188.818 E.01113
G1 X140.816 Y188.818 E.01346
G1 X140.816 Y188.409 E.01113
G1 X141.31 Y188.409 E.01346
G1 X141.31 Y188.818 E.01113
G1 X141.805 Y188.818 E.01346
G1 X141.805 Y188.409 E.01113
G1 X142.3 Y188.409 E.01346
G1 X142.3 Y188.818 E.01113
G1 X142.795 Y188.818 E.01346
G1 X142.795 Y188.409 E.01113
G1 X143.29 Y188.409 E.01346
G1 X143.29 Y188.818 E.01113
G1 X143.785 Y188.818 E.01346
G1 X143.785 Y188.409 E.01113
G1 X144.28 Y188.409 E.01346
G1 X144.28 Y188.818 E.01113
G1 X144.775 Y188.818 E.01346
G1 X144.775 Y188.409 E.01113
G1 X145.27 Y188.409 E.01346
G1 X145.27 Y188.818 E.01113
G1 X145.764 Y188.818 E.01346
G1 X145.764 Y188.409 E.01113
G1 X146.259 Y188.409 E.01346
G1 X146.259 Y188.818 E.01113
G1 X146.754 Y188.818 E.01346
G1 X146.754 Y188.409 E.01113
G1 X147.249 Y188.409 E.01346
G1 X147.249 Y188.818 E.01113
G1 X147.744 Y188.818 E.01346
G1 X147.744 Y188.409 E.01113
G1 X148.239 Y188.409 E.01346
G1 X148.239 Y188.818 E.01113
G1 X148.734 Y188.818 E.01346
G1 X148.734 Y188.409 E.01113
G1 X149.229 Y188.409 E.01346
G1 X149.229 Y188.818 E.01113
G1 X149.724 Y188.818 E.01346
G1 X149.724 Y188.409 E.01113
G1 X150.218 Y188.409 E.01346
G1 X150.218 Y188.818 E.01113
G1 X150.713 Y188.818 E.01346
G1 X150.713 Y188.409 E.01113
G1 X151.208 Y188.409 E.01346
G1 X151.208 Y188.818 E.01113
G1 X151.703 Y188.818 E.01346
G1 X151.703 Y188.409 E.01113
G1 X152.198 Y188.409 E.01346
G1 X152.198 Y188.818 E.01113
G1 X152.693 Y188.818 E.01346
G1 X152.693 Y188.409 E.01113
G1 X153.188 Y188.409 E.01346
G1 X153.188 Y188.818 E.01113
G1 X153.683 Y188.818 E.01346
G1 X153.683 Y188.409 E.01113
G1 X154.178 Y188.409 E.01346
G1 X154.178 Y188.818 E.01113
G1 X154.672 Y188.818 E.01346
G1 X154.672 Y188.409 E.01113
G1 X155.167 Y188.409 E.01346
G1 X155.167 Y188.818 E.01113
G1 X155.662 Y188.818 E.01346
G1 X155.662 Y188.409 E.01113
G1 X156.157 Y188.409 E.01346
G1 X156.157 Y188.818 E.01113
G1 X156.652 Y188.818 E.01346
G1 X156.652 Y188.409 E.01113
G1 X157.147 Y188.409 E.01346
G1 X157.147 Y188.818 E.01113
G1 X157.642 Y188.818 E.01346
G1 X157.642 Y188.409 E.01113
G1 X158.137 Y188.409 E.01346
G1 X158.137 Y188.818 E.01113
G1 X158.632 Y188.818 E.01346
G1 X158.632 Y188.409 E.01113
G1 X159.126 Y188.409 E.01346
G1 X159.126 Y188.818 E.01113
G1 X159.621 Y188.818 E.01346
G1 X159.621 Y188.409 E.01113
G1 X160.116 Y188.409 E.01346
G1 X160.116 Y188.818 E.01113
G1 X160.611 Y188.818 E.01346
G1 X160.611 Y188.409 E.01113
G1 X161.106 Y188.409 E.01346
G1 X161.106 Y188.818 E.01113
G1 X161.601 Y188.818 E.01346
G1 X161.601 Y188.409 E.01113
G1 X162.096 Y188.409 E.01346
G1 X162.096 Y188.818 E.01113
G1 X162.591 Y188.818 E.01346
G1 X162.591 Y188.409 E.01113
G1 X163.086 Y188.409 E.01346
G1 X163.086 Y188.818 E.01113
G1 X163.58 Y188.818 E.01346
G1 X163.58 Y188.409 E.01113
G1 X164.075 Y188.409 E.01346
G1 X164.075 Y188.818 E.01113
G1 X164.57 Y188.818 E.01346
G1 X164.57 Y188.409 E.01113
G1 X165.065 Y188.409 E.01346
G1 X165.065 Y188.818 E.01113
G1 X165.56 Y188.818 E.01346
G1 X165.56 Y188.409 E.01113
G1 X166.055 Y188.409 E.01346
G1 X166.055 Y188.818 E.01113
G1 X166.55 Y188.818 E.01346
G1 X166.55 Y188.409 E.01113
G1 X167.045 Y188.409 E.01346
G1 X167.045 Y188.818 E.01113
G1 X167.54 Y188.818 E.01346
G1 X167.54 Y188.409 E.01113
G1 X168.034 Y188.409 E.01346
G1 X168.034 Y188.818 E.01113
G1 X168.529 Y188.818 E.01346
G1 X168.529 Y188.409 E.01113
G1 X169.024 Y188.409 E.01346
G1 X169.024 Y188.818 E.01113
G1 X169.519 Y188.818 E.01346
G1 X169.519 Y188.409 E.01113
G1 X170.014 Y188.409 E.01346
G1 X170.014 Y188.818 E.01113
G1 X170.509 Y188.818 E.01346
G1 X170.509 Y188.409 E.01113
G1 X171.004 Y188.409 E.01346
G1 X171.004 Y188.818 E.01113
G1 X171.499 Y188.818 E.01346
G1 X171.499 Y188.409 E.01113
G1 X171.994 Y188.409 E.01346
G1 X171.994 Y188.818 E.01113
G1 X172.488 Y188.818 E.01346
G1 X172.488 Y188.409 E.01113
G1 X172.983 Y188.409 E.01346
G1 X172.983 Y188.818 E.01113
G1 X173.478 Y188.818 E.01346
G1 X173.478 Y188.409 E.01113
G1 X173.973 Y188.409 E.01346
G1 X173.973 Y188.818 E.01113
G1 X174.468 Y188.818 E.01346
G1 X174.468 Y188.409 E.01113
G1 X174.963 Y188.409 E.01346
G1 X174.963 Y188.818 E.01113
G1 X175.458 Y188.818 E.01346
G1 X175.458 Y188.409 E.01113
G1 X175.953 Y188.409 E.01346
G1 X175.953 Y188.818 E.01113
G1 X176.448 Y188.818 E.01346
G1 X176.448 Y188.409 E.01113
G1 X176.943 Y188.409 E.01346
G1 X176.943 Y188.818 E.01113
G1 X177.437 Y188.818 E.01346
G1 X177.437 Y188.409 E.01113
G1 X177.932 Y188.409 E.01346
G1 X177.932 Y188.818 E.01113
G1 X178.427 Y188.818 E.01346
G1 X178.427 Y188.409 E.01113
G1 X178.922 Y188.409 E.01346
G1 X178.922 Y188.818 E.01113
G1 X179.417 Y188.818 E.01346
G1 X179.417 Y188.409 E.01113
G1 X179.912 Y188.409 E.01346
G1 X179.912 Y188.818 E.01113
G1 X180.407 Y188.818 E.01346
G1 X180.407 Y188.409 E.01113
G1 X180.902 Y188.409 E.01346
G1 X180.902 Y188.818 E.01113
G1 X181.397 Y188.818 E.01346
G1 X181.397 Y188.409 E.01113
G1 X181.891 Y188.409 E.01346
G1 X181.891 Y188.818 E.01113
G1 X182.386 Y188.818 E.01346
G1 X182.386 Y188.409 E.01113
G1 X182.881 Y188.409 E.01346
G1 X182.881 Y188.818 E.01113
G1 X183.376 Y188.818 E.01346
G1 X183.376 Y188.409 E.01113
G1 X183.871 Y188.409 E.01346
G1 X183.871 Y188.818 E.01113
G1 X184.366 Y188.818 E.01346
G1 X184.366 Y188.409 E.01113
G1 X184.861 Y188.409 E.01346
G1 X184.861 Y188.818 E.01113
G1 X185.356 Y188.818 E.01346
G1 X185.356 Y188.409 E.01113
G1 X185.851 Y188.409 E.01346
G1 X185.851 Y188.818 E.01113
G1 X186.345 Y188.818 E.01346
G1 X186.345 Y188.409 E.01113
G1 X186.84 Y188.409 E.01346
G1 X186.84 Y188.818 E.01113
G1 X187.335 Y188.818 E.01346
G1 X187.335 Y188.409 E.01113
G1 X187.83 Y188.409 E.01346
G1 X187.83 Y188.818 E.01113
G1 X188.325 Y188.818 E.01346
G1 X188.325 Y188.409 E.01113
G1 X188.82 Y188.409 E.01346
G1 X188.82 Y188.818 E.01113
G1 X189.315 Y188.818 E.01346
G1 X189.315 Y188.409 E.01113
G1 X189.81 Y188.409 E.01346
G1 X189.81 Y188.818 E.01113
G1 X190.305 Y188.818 E.01346
G1 X190.305 Y188.409 E.01113
G1 X190.799 Y188.409 E.01346
G1 X190.799 Y188.818 E.01113
G1 X191.294 Y188.818 E.01346
G1 X191.294 Y188.409 E.01113
G1 X191.789 Y188.409 E.01346
G1 X191.789 Y188.818 E.01113
G1 X192.284 Y188.818 E.01346
G1 X192.284 Y188.409 E.01113
G1 X192.779 Y188.409 E.01346
G1 X192.779 Y188.818 E.01113
G1 X193.274 Y188.818 E.01346
G1 X193.274 Y188.409 E.01113
G1 X193.769 Y188.409 E.01346
G1 X193.769 Y188.818 E.01113
G1 X194.264 Y188.818 E.01346
G1 X194.264 Y188.409 E.01113
G1 X194.759 Y188.409 E.01346
G1 X194.759 Y188.818 E.01113
G1 X195.253 Y188.818 E.01346
G1 X195.253 Y188.409 E.01113
G1 X195.748 Y188.409 E.01346
G1 X195.748 Y188.818 E.01113
G1 X196.243 Y188.818 E.01346
G1 X196.243 Y188.409 E.01113
G1 X196.738 Y188.409 E.01346
G1 X196.738 Y188.818 E.01113
G1 X197.233 Y188.818 E.01346
G1 X197.233 Y188.409 E.01113
G1 X197.728 Y188.409 E.01346
G1 X197.728 Y188.818 E.01113
G1 X198.223 Y188.818 E.01346
G1 X198.223 Y188.409 E.01113
G1 X198.718 Y188.409 E.01346
G1 X198.718 Y188.818 E.01113
G1 X199.213 Y188.818 E.01346
G1 X199.213 Y188.409 E.01113
G1 X199.707 Y188.409 E.01346
G1 X199.707 Y188.818 E.01113
G1 X200.202 Y188.818 E.01346
G1 X200.202 Y188.409 E.01113
G1 X200.697 Y188.409 E.01346
G1 X200.697 Y188.818 E.01113
G1 X201.192 Y188.818 E.01346
G1 X201.192 Y188.409 E.01113
G1 X201.687 Y188.409 E.01346
G1 X201.687 Y188.818 E.01113
G1 X202.182 Y188.818 E.01346
G1 X202.182 Y188.409 E.01113
G1 X202.677 Y188.409 E.01346
G1 X202.677 Y188.818 E.01113
G1 X203.172 Y188.818 E.01346
G1 X203.172 Y188.409 E.01113
G1 X203.667 Y188.409 E.01346
G1 X203.667 Y188.818 E.01113
G1 X204.161 Y188.818 E.01346
G1 X204.161 Y188.409 E.01113
G1 X204.656 Y188.409 E.01346
G1 X204.656 Y188.818 E.01113
G1 X205.151 Y188.818 E.01346
G1 X205.151 Y188.409 E.01113
G1 X205.646 Y188.409 E.01346
G1 X205.646 Y188.818 E.01113
G1 X206.141 Y188.818 E.01346
G1 X206.141 Y188.409 E.01113
G1 X206.636 Y188.409 E.01346
G1 X206.636 Y188.818 E.01113
G1 X207.131 Y188.818 E.01346
G1 X207.131 Y188.409 E.01113
G1 X207.626 Y188.409 E.01346
G1 X207.626 Y188.818 E.01113
G1 X208.121 Y188.818 E.01346
G1 X208.121 Y188.409 E.01113
G1 X208.615 Y188.409 E.01346
G1 X208.615 Y188.818 E.01113
G1 X209.11 Y188.818 E.01346
G1 X209.11 Y188.409 E.01113
G1 X209.605 Y188.409 E.01346
G1 X209.605 Y188.818 E.01113
G1 X210.1 Y188.818 E.01346
G1 X210.1 Y188.409 E.01113
G1 X210.595 Y188.409 E.01346
G1 X210.595 Y188.818 E.01113
G1 X211.09 Y188.818 E.01346
G1 X211.09 Y188.409 E.01113
G1 X211.585 Y188.409 E.01346
G1 X211.585 Y188.818 E.01113
G1 X212.08 Y188.818 E.01346
G1 X212.08 Y188.409 E.01113
G1 X212.575 Y188.409 E.01346
G1 X212.575 Y188.818 E.01113
G1 X213.069 Y188.818 E.01346
G1 X213.069 Y188.409 E.01113
G1 X213.564 Y188.409 E.01346
G1 X213.564 Y188.818 E.01113
G1 X214.059 Y188.818 E.01346
G1 X214.059 Y188.409 E.01113
G1 X214.554 Y188.409 E.01346
G1 X214.554 Y188.818 E.01113
G1 X215.049 Y188.818 E.01346
G1 X215.049 Y188.409 E.01113
G1 X215.544 Y188.409 E.01346
G1 X215.544 Y188.818 E.01113
G1 X216.039 Y188.818 E.01346
G1 X216.039 Y188.409 E.01113
G1 X216.534 Y188.409 E.01346
G1 X216.534 Y188.818 E.01113
G1 X217.029 Y188.818 E.01346
G1 X217.029 Y188.409 E.01113
G1 X217.523 Y188.409 E.01346
G1 X217.523 Y188.818 E.01113
G1 X218.018 Y188.818 E.01346
G1 X218.018 Y188.409 E.01113
G1 X218.513 Y188.409 E.01346
G1 X218.513 Y188.818 E.01113
G1 X219.008 Y188.818 E.01346
G1 X219.008 Y188.409 E.01113
G1 X219.503 Y188.409 E.01346
G1 X219.503 Y188.818 E.01113
G1 X219.998 Y188.818 E.01346
G1 X219.998 Y188.409 E.01113
G1 X220.493 Y188.409 E.01346
G1 X220.493 Y188.818 E.01113
G1 X220.988 Y188.818 E.01346
G1 X220.988 Y188.409 E.01113
G1 X221.483 Y188.409 E.01346
G1 X221.483 Y188.818 E.01113
G1 X221.977 Y188.818 E.01346
G1 X221.977 Y188.409 E.01113
G1 X222.472 Y188.409 E.01346
G1 X222.472 Y188.818 E.01113
G1 X222.967 Y188.818 E.01346
G1 X222.967 Y188.409 E.01113
G1 X223.462 Y188.409 E.01346
G1 X223.462 Y188.818 E.01113
G1 X223.957 Y188.818 E.01346
G1 X223.957 Y188.409 E.01113
G1 X224.452 Y188.409 E.01346
G1 X224.452 Y188.818 E.01113
G1 X224.947 Y188.818 E.01346
G1 X224.947 Y188.409 E.01113
G1 X225.442 Y188.409 E.01346
G1 X225.442 Y188.818 E.01113
G1 X225.937 Y188.818 E.01346
G1 X225.937 Y188.409 E.01113
G1 X226.431 Y188.409 E.01346
G1 X226.431 Y188.818 E.01113
G1 X226.926 Y188.818 E.01346
G1 X226.926 Y188.409 E.01113
G1 X227.421 Y188.402 E.01346
G1 X227.421 Y188.818 E.01132
G1 X227.916 Y188.818 E.01346
G1 X227.916 Y188.325 E.0134
G1 X228.198 Y188.256 E.00791
G1 X228.411 Y188.146 E.00651
G1 X228.411 Y188.818 E.01829
G1 X228.906 Y188.818 E.01346
G1 X228.906 Y187.888 E.02529
G1 X229.163 Y187.668 E.0092
G1 X229.401 Y187.357 E.01066
G1 X229.401 Y188.818 E.03975
G1 X229.896 Y188.818 E.01346
G1 X229.896 Y186.34 E.0674
G1 X229.949 Y186.108 E.00647
G1 X229.949 Y185.425 E.01856
G1 X229.896 Y185.193 E.00647
G1 X229.896 Y181.933 E.08866
G1 X230.391 Y181.933 E.01346
G1 X230.391 Y188.818 E.18724
G1 X230.885 Y188.818 E.01346
G1 X230.885 Y181.933 E.18724
G1 X231.074 Y181.933 E.00513
G1 X231.074 Y182.293 E.00978
M204 S1000
;WIPE_START
G1 F8640
G1 X231.074 Y181.933 E-.08299
G1 X230.885 Y181.933 E-.04352
G1 X230.885 Y184.677 E-.63349
;WIPE_END
G1 E-.04 F2100
G1 Z.6 F720
G1 X229.748 Y181.933 F10800
G1 Z.2 F720
G1 E.8 F2100
