; generated by PrusaSlicer 2.4.2+win64 on 2023-07-18 at 05:35:24 UTC

; 

; external perimeters extrusion width = 0.60mm
; perimeters extrusion width = 0.43mm
; infill extrusion width = 0.45mm
; solid infill extrusion width = 0.70mm
; top infill extrusion width = 0.45mm
; support material extrusion width = 0.37mm
; first layer extrusion width = 0.42mm

M73 P0 R126
M201 X9000 Y9000 Z500 E10000 ; sets maximum accelerations, mm/sec^2
M203 X500 Y500 Z12 E120 ; sets maximum feedrates, mm / sec
M204 P2000 R1500 T2000 ; sets acceleration (P, T) and retract acceleration (R), mm/sec^2
M205 X10.00 Y10.00 Z0.20 E2.50 ; sets the jerk limits, mm/sec
M205 S0 T0 ; sets the minimum extruding and travel feed rate, mm/sec
M107
;TYPE:Custom
M862.3 P "MK2S" ; printer model check
M862.1 P0.4 ; nozzle diameter check
M115 U3.2.3 ; tell printer latest fw version
G90 ; use absolute coordinates
M83 ; extruder relative mode
M204 S2000 T1500 ; MK2 firmware only supports the old M204 format
M104 S215 ; set extruder temp
M140 S60 ; set bed temp
M190 S60 ; wait for bed temp
M109 S215 ; wait for extruder temp
G28 W ; home all without mesh bed level
G80 ; mesh bed leveling
G1 Z0.2 F720
G1 Y-2 F1000 ; go outside print area
G92 E0
G1 X60 E9 F1000 ; intro line
G1 X100 E12.5 F1000 ; intro line
G92 E0
G21 ; set units to millimeters
G90 ; use absolute coordinates
M83 ; use relative distances for extrusion
M900 K0.05 ; Filament gcode LA 1.5
M900 K30 ; Filament gcode LA 1.0
M107
;LAYER_CHANGE
;Z:0.2
;HEIGHT:0.2
;BEFORE_LAYER_CHANGE
G92 E0.0
;0.2


G1 E-.8 F2100
G1 Z.4 F720
;AFTER_LAYER_CHANGE
;0.2
G1 X69.261 Y59.061 F10800
G1 Z.2 F720
G1 E.8 F2100
M204 S800
;TYPE:Skirt/Brim
;WIDTH:0.42
G1 F1200
G1 X72.416 Y55.48 E.14965
G1 X74.166 Y53.686 E.07859
G1 X75.919 Y52.007 E.07609
G1 X79.526 Y48.882 E.14965
G1 X81.501 Y47.338 E.07859
G1 X85.404 Y44.591 E.14965
G1 X87.524 Y43.254 E.07859
G1 X91.684 Y40.914 E.14965
G1 X93.928 Y39.796 E.07859
G1 X98.302 Y37.887 E.14965
G1 X100.647 Y37.001 E.07859
G1 X105.191 Y35.541 E.14965
G1 X107.613 Y34.896 E.07859
G1 X112.281 Y33.901 E.14965
G1 X114.756 Y33.503 E.07859
G1 X119.5 Y32.983 E.14965
G1 X122.002 Y32.835 E.07859
G1 X126.636 Y32.794 E.14531
G1 X131.699 Y33.085 E.159
G1 X136.434 Y33.685 E.14965
G1 X138.902 Y34.125 E.07859
G1 X143.552 Y35.198 E.14965
G1 X145.963 Y35.884 E.07859
G1 X150.482 Y37.42 E.14965
G1 X152.812 Y38.345 E.07859
G1 X155.035 Y39.317 E.07609
G1 X159.308 Y41.444 E.14965
G1 X161.493 Y42.673 E.07859
G1 X165.529 Y45.22 E.14965
G1 X167.579 Y46.662 E.07859
G1 X171.339 Y49.602 E.14965
G1 X173.234 Y51.244 E.07859
G1 X176.679 Y54.547 E.14965
G1 X178.398 Y56.371 E.07859
G1 X181.493 Y60.004 E.14965
G1 X183.021 Y61.991 E.07859
G1 X185.734 Y65.918 E.14965
G1 X187.054 Y68.049 E.07859
G1 X189.359 Y72.228 E.14965
G1 X190.457 Y74.481 E.07859
G1 X192.33 Y78.871 E.14965
G1 X193.196 Y81.224 E.07859
G1 X194.618 Y85.78 E.14965
G1 X195.243 Y88.207 E.07859
G1 X196.191 Y92.847 E.14849
G1 X196.859 Y97.772 E.15581
G1 X197.18 Y102.534 E.14965
G1 X197.222 Y105.04 E.07859
G1 X197.061 Y109.81 E.14965
G1 X196.851 Y112.308 E.07859
G1 X196.217 Y117.001 E.14849
G1 X195.767 Y119.423 E.07725
G1 X195.224 Y121.87 E.07859
G1 X193.956 Y126.472 E.14965
G1 X193.17 Y128.852 E.07859
G1 X191.446 Y133.302 E.14965
G1 X190.424 Y135.591 E.07859
G1 X188.26 Y139.846 E.14965
G1 X187.013 Y142.02 E.07859
G1 X184.433 Y146.035 E.14965
G1 X182.973 Y148.073 E.07859
G1 X180.002 Y151.808 E.14965
G1 X178.344 Y153.688 E.07859
G1 X175.012 Y157.106 E.14965
G1 X173.174 Y158.81 E.07859
G1 X169.515 Y161.874 E.14965
G1 X167.515 Y163.385 E.07859
G1 X163.566 Y166.066 E.14965
G1 X159.308 Y168.556 E.15466
G1 X155.035 Y170.683 E.14965
G1 X152.738 Y171.686 E.07859
G1 X148.273 Y173.373 E.14965
G1 X145.887 Y174.139 E.07859
G1 X141.275 Y175.368 E.14965
G1 X138.823 Y175.891 E.07859
G1 X134.111 Y176.649 E.14965
G1 X131.62 Y176.922 E.07859
G1 X126.855 Y177.203 E.14965
G1 X124.348 Y177.224 E.07859
G1 X121.923 Y177.161 E.07609
G1 X117.163 Y176.801 E.14965
G1 X114.677 Y176.486 E.07859
G1 X109.978 Y175.648 E.14965
G1 X107.535 Y175.085 E.07859
G1 X102.945 Y173.779 E.14965
G1 X100.571 Y172.972 E.07859
G1 X96.135 Y171.21 E.14965
G1 X93.855 Y170.169 E.07859
G1 X89.619 Y167.97 E.14965
G1 X87.456 Y166.705 E.07859
G1 X83.577 Y164.169 E.14531
G1 X79.526 Y161.118 E.159
G1 X75.919 Y157.993 E.14965
G1 X74.11 Y156.258 E.07859
G1 X70.835 Y152.785 E.14965
G1 X69.21 Y150.877 E.07859
G1 X66.302 Y147.093 E.14965
G1 X64.876 Y145.031 E.07859
G1 X62.364 Y140.973 E.14965
G1 X61.153 Y138.778 E.07859
G1 X59.062 Y134.488 E.14965
G1 X58.078 Y132.182 E.07859
G1 X56.429 Y127.703 E.14965
G1 X55.683 Y125.31 E.07859
G1 X55.04 Y122.97 E.07609
G1 X54.005 Y118.311 E.14965
G1 X53.586 Y115.84 E.07859
G1 X53.026 Y111.1 E.14965
G1 X52.858 Y108.599 E.07859
G1 X52.778 Y103.827 E.14965
G1 X52.862 Y101.321 E.07859
G1 X53.259 Y96.602 E.14849
G1 X54.005 Y91.689 E.15581
G1 X55.04 Y87.03 E.14965
G1 X55.705 Y84.613 E.07859
G1 X57.203 Y80.081 E.14965
G1 X58.109 Y77.744 E.07859
G1 X60.055 Y73.386 E.14965
G1 X61.191 Y71.152 E.07859
G1 X63.566 Y67.011 E.14965
G1 X64.921 Y64.903 E.07859
G1 X67.7 Y61.023 E.14965
G1 X69.223 Y59.108 E.07671
M204 S1000
; printing object flat drain cover3.stl id:0 copy 0
;WIPE_START
G1 F8640
G1 X71.398 Y56.637 E-.76
;WIPE_END
G1 E-.04 F2100
G1 Z.6 F720
G1 X120.652 Y101.056 F10800
G1 Z.2 F720
G1 E.8 F2100
M204 S800
;TYPE:Perimeter
G1 F1200
G1 X121.168 Y100.551 E.02263
G1 X121.744 Y100.115 E.02265
G1 X122.389 Y99.742 E.02337
G1 X123.034 Y99.469 E.02194
G1 X123.728 Y99.27 E.02263
G1 X124.441 Y99.158 E.02264
G1 X124.815 Y99.145 E.01173
G1 X125.189 Y99.135 E.01173
G1 X125.907 Y99.203 E.02262
G1 X126.59 Y99.353 E.02192
G1 X127.272 Y99.591 E.02265
G1 X127.939 Y99.924 E.02339
G1 X128.541 Y100.324 E.02265
G1 X129.072 Y100.78 E.02194
G1 X129.574 Y101.33 E.02337
G1 X129.991 Y101.921 E.02267
G1 X130.331 Y102.559 E.02265
G1 X130.59 Y103.232 E.02263
G1 X130.761 Y103.911 E.02194
G1 X130.853 Y104.65 E.02337
G1 X130.851 Y105.373 E.02265
G1 X130.765 Y106.067 E.02192
G1 X130.591 Y106.767 E.02263
G1 X130.331 Y107.442 E.02267
G1 X129.978 Y108.099 E.02339
G1 X129.559 Y108.688 E.02265
G1 X129.088 Y109.205 E.02194
G1 X128.522 Y109.69 E.02337
G1 X127.919 Y110.088 E.02265
G1 X127.293 Y110.399 E.02192
G1 X126.613 Y110.641 E.02263
G1 X125.907 Y110.797 E.02267
G1 X125.164 Y110.866 E.02339
G1 X124.442 Y110.842 E.02265
G1 X123.751 Y110.735 E.02194
G1 X123.034 Y110.531 E.02335
G1 X122.39 Y110.258 E.02194
G1 X121.764 Y109.898 E.02265
G1 X121.169 Y109.449 E.02337
G1 X120.666 Y108.962 E.02194
G1 X120.212 Y108.4 E.02265
G1 X119.82 Y107.766 E.02339
G1 X119.519 Y107.109 E.02265
G1 X119.307 Y106.443 E.02192
G1 X119.173 Y105.733 E.02263
G1 X119.127 Y105.012 E.02267
G1 X119.173 Y104.267 E.02339
G1 X119.307 Y103.557 E.02265
G1 X119.519 Y102.891 E.02194
G1 X119.831 Y102.214 E.02337
G1 X120.213 Y101.6 E.02267
G1 X120.614 Y101.103 E.02004
M204 S1000
G1 X120.945 Y101.293 F10800
M204 S800
;TYPE:External perimeter
G1 F1200
G1 X121.414 Y100.838 E.02049
G1 X121.953 Y100.43 E.02119
G1 X122.558 Y100.08 E.0219
G1 X123.16 Y99.826 E.02049
G1 X123.809 Y99.639 E.02119
G1 X124.477 Y99.534 E.02119
G1 X124.826 Y99.522 E.01096
G1 X125.176 Y99.513 E.01096
G1 X125.848 Y99.576 E.02118
G1 X126.487 Y99.716 E.02049
G1 X127.125 Y99.94 E.02119
G1 X127.75 Y100.251 E.0219
G1 X128.313 Y100.626 E.02119
G1 X128.809 Y101.051 E.02049
G1 X129.28 Y101.567 E.0219
G1 X129.669 Y102.12 E.0212
G1 X129.988 Y102.716 E.02119
G1 X130.23 Y103.346 E.02119
G1 X130.39 Y103.98 E.02049
G1 X130.476 Y104.673 E.0219
G1 X130.474 Y105.349 E.02119
G1 X130.394 Y105.998 E.02049
G1 X130.23 Y106.653 E.02119
G1 X129.988 Y107.284 E.0212
G1 X129.657 Y107.9 E.0219
G1 X129.265 Y108.451 E.02119
G1 X128.825 Y108.934 E.02049
G1 X128.295 Y109.388 E.0219
G1 X127.73 Y109.76 E.02119
G1 X127.146 Y110.052 E.02049
G1 X126.509 Y110.278 E.02119
G1 X125.848 Y110.424 E.0212
G1 X125.153 Y110.488 E.0219
G1 X124.477 Y110.466 E.02119
G1 X123.831 Y110.366 E.02049
G1 X123.16 Y110.174 E.02189
G1 X122.558 Y109.92 E.02049
G1 X121.972 Y109.583 E.02119
G1 X121.415 Y109.162 E.02189
G1 X120.945 Y108.707 E.02049
G1 X120.52 Y108.181 E.02119
G1 X120.153 Y107.587 E.0219
G1 X119.871 Y106.973 E.02119
G1 X119.673 Y106.35 E.02049
G1 X119.548 Y105.686 E.02119
G1 X119.505 Y105.011 E.0212
G1 X119.548 Y104.314 E.0219
G1 X119.673 Y103.65 E.02119
G1 X119.872 Y103.027 E.02049
G1 X120.163 Y102.393 E.0219
G1 X120.521 Y101.818 E.0212
G1 X120.908 Y101.34 E.01931
M204 S1000
G1 X120.824 Y100.912 F10800
;WIPE_START
G1 F8640
G1 X121.414 Y100.838 E-.16464
G1 X121.953 Y100.43 E-.15608
G1 X122.558 Y100.08 E-.16125
G1 X123.16 Y99.826 E-.15092
G1 X123.689 Y99.674 E-.12712
;WIPE_END
G1 E-.04 F2100
G1 Z.6 F720
G1 X134.623 Y107.388 F10800
G1 Z.2 F720
G1 E.8 F2100
M204 S800
;TYPE:Perimeter
G1 F1200
G1 X144.23 Y107.388 E.30123
G1 X143.789 Y109.519 E.06825
G1 X143.462 Y110.71 E.03873
G1 X143.059 Y111.878 E.03873
G1 X142.583 Y113.018 E.03873
G1 X142.035 Y114.125 E.03873
G1 X141.418 Y115.195 E.03873
G1 X140.733 Y116.223 E.03873
G1 X139.984 Y117.205 E.03873
G1 X139.174 Y118.137 E.03873
G1 X138.306 Y119.016 E.03873
G1 X136.68 Y120.464 E.06825
G1 X131.877 Y112.144 E.30123
G1 X132.732 Y111.145 E.04123
G1 X133.164 Y110.558 E.02286
G1 X133.552 Y109.94 E.02286
G1 X133.893 Y109.296 E.02286
G1 X134.185 Y108.628 E.02286
G1 X134.603 Y107.445 E.03935
M204 S1000
G1 X134.89 Y107.765 F10800
M204 S800
;TYPE:External perimeter
G1 F1200
G1 X143.767 Y107.765 E.27834
G1 X143.422 Y109.431 E.05335
G1 X143.101 Y110.599 E.03797
G1 X142.707 Y111.744 E.03797
G1 X142.24 Y112.861 E.03797
G1 X141.703 Y113.947 E.03797
G1 X141.097 Y114.996 E.03797
G1 X140.426 Y116.004 E.03797
G1 X139.691 Y116.967 E.03797
M73 P0 R125
G1 X138.897 Y117.881 E.03797
G1 X138.046 Y118.743 E.03797
G1 X136.775 Y119.874 E.05335
G1 X132.337 Y112.186 E.27834
G1 X133.028 Y111.38 E.0333
G1 X133.476 Y110.77 E.02373
G1 X133.879 Y110.129 E.02373
G1 X134.233 Y109.46 E.02373
G1 X134.536 Y108.767 E.02373
G1 X134.87 Y107.822 E.03142
M204 S1000
G1 X134.939 Y107.368 F10800
;WIPE_START
G1 F8640
G1 X138.161 Y107.801 E-.76
;WIPE_END
G1 E-.04 F2100
G1 Z.6 F720
G1 X127.741 Y114.532 F10800
G1 Z.2 F720
G1 E.8 F2100
M204 S800
;TYPE:Perimeter
G1 F1200
G1 X132.544 Y122.852 E.30123
G1 X130.478 Y123.536 E.06825
G1 X129.283 Y123.848 E.03873
G1 X128.07 Y124.083 E.03873
G1 X126.845 Y124.241 E.03873
G1 X125.613 Y124.32 E.03873
G1 X124.377 Y124.32 E.03873
G1 X123.145 Y124.241 E.03873
G1 X121.92 Y124.083 E.03873
G1 X120.707 Y123.848 E.03873
G1 X119.512 Y123.536 E.03873
G1 X117.446 Y122.852 E.06825
G1 X122.249 Y114.532 E.30123
G1 X123.542 Y114.773 E.04123
G1 X124.267 Y114.853 E.02286
G1 X124.995 Y114.88 E.02286
G1 X125.724 Y114.853 E.02286
G1 X126.448 Y114.773 E.02286
G1 X127.682 Y114.543 E.03935
M204 S1000
G1 X127.548 Y114.951 F10800
M204 S800
;TYPE:External perimeter
G1 F1200
G1 X131.986 Y122.639 E.27834
G1 X130.371 Y123.174 E.05335
G1 X129.199 Y123.48 E.03797
G1 X128.01 Y123.711 E.03797
G1 X126.809 Y123.865 E.03797
G1 X125.601 Y123.943 E.03797
G1 X124.39 Y123.943 E.03797
G1 X123.181 Y123.865 E.03797
G1 X121.98 Y123.711 E.03797
G1 X120.791 Y123.48 E.03797
G1 X119.619 Y123.174 E.03797
G1 X118.004 Y122.639 E.05335
G1 X122.442 Y114.951 E.27834
G1 X123.486 Y115.146 E.0333
G1 X124.239 Y115.23 E.02373
G1 X124.995 Y115.258 E.02373
G1 X125.751 Y115.23 E.02373
G1 X126.504 Y115.146 E.02373
G1 X127.489 Y114.962 E.03142
M204 S1000
G1 X127.916 Y114.795 F10800
;WIPE_START
G1 F8640
G1 X129.153 Y117.802 E-.76
;WIPE_END
G1 E-.04 F2100
G1 Z.6 F720
G1 X134.552 Y126.329 F10800
G1 Z.2 F720
G1 E.8 F2100
M204 S800
;TYPE:Perimeter
G1 F1200
G1 X139.295 Y134.545 E.29744
G1 X137.069 Y135.487 E.07579
G1 X135.619 Y136.022 E.04846
G1 X134.146 Y136.489 E.04846
G1 X132.652 Y136.885 E.04846
G1 X131.141 Y137.21 E.04847
G1 X129.588 Y137.467 E.04935
G1 X128.082 Y137.646 E.04756
G1 X126.54 Y137.755 E.04846
G1 X124.995 Y137.791 E.04847
G1 X123.421 Y137.753 E.04935
G1 X121.908 Y137.646 E.04756
G1 X120.374 Y137.464 E.04846
G1 X118.849 Y137.21 E.04846
G1 X117.338 Y136.885 E.04846
G1 X115.844 Y136.489 E.04846
G1 X114.371 Y136.022 E.04846
G1 X112.921 Y135.487 E.04846
G1 X110.695 Y134.545 E.07579
G1 X115.438 Y126.329 E.29744
G1 X117.306 Y127.04 E.06265
G1 X118.55 Y127.435 E.04094
G1 X119.815 Y127.761 E.04094
G1 X121.096 Y128.015 E.04094
G1 X122.389 Y128.197 E.04094
G1 X123.69 Y128.306 E.04094
G1 X124.995 Y128.343 E.04094
G1 X126.316 Y128.305 E.04143
G1 X127.602 Y128.197 E.04046
G1 X128.895 Y128.015 E.04094
G1 X130.175 Y127.761 E.04094
G1 X131.44 Y127.435 E.04094
G1 X132.685 Y127.04 E.04094
G1 X134.496 Y126.35 E.06077
M204 S1000
G1 X134.386 Y126.796 F10800
M204 S800
;TYPE:External perimeter
G1 F1200
G1 X138.755 Y134.364 E.274
G1 X136.931 Y135.137 E.06214
G1 X135.497 Y135.666 E.0479
G1 X134.041 Y136.126 E.0479
G1 X132.564 Y136.518 E.0479
G1 X131.07 Y136.84 E.0479
G1 X129.535 Y137.094 E.04879
G1 X128.046 Y137.27 E.04701
G1 X126.522 Y137.378 E.0479
G1 X124.995 Y137.414 E.0479
G1 X123.439 Y137.376 E.04879
G1 X121.944 Y137.27 E.04701
G1 X120.427 Y137.091 E.0479
G1 X118.92 Y136.84 E.0479
G1 X117.426 Y136.518 E.0479
G1 X115.949 Y136.126 E.0479
G1 X114.493 Y135.666 E.0479
G1 X113.06 Y135.137 E.0479
G1 X111.235 Y134.364 E.06214
G1 X115.604 Y126.796 E.274
G1 X117.181 Y127.396 E.05291
G1 X118.446 Y127.798 E.0416
G1 X119.731 Y128.128 E.04161
G1 X121.032 Y128.387 E.0416
G1 X122.346 Y128.572 E.0416
G1 X123.669 Y128.683 E.0416
G1 X124.995 Y128.72 E.0416
G1 X126.337 Y128.681 E.0421
G1 X127.644 Y128.572 E.04111
G1 X128.958 Y128.387 E.0416
G1 X130.259 Y128.128 E.0416
G1 X131.544 Y127.798 E.0416
G1 X132.809 Y127.396 E.0416
G1 X134.33 Y126.817 E.05103
M204 S1000
G1 X134.744 Y126.617 F10800
;WIPE_START
G1 F8640
G1 X135.995 Y129.656 E-.76
;WIPE_END
G1 E-.04 F2100
G1 Z.6 F720
G1 X141.302 Y138.021 F10800
G1 Z.2 F720
G1 E.8 F2100
M204 S800
;TYPE:Perimeter
G1 F1200
G1 X146.035 Y146.219 E.29682
G1 X143.536 Y147.374 E.08632
G1 X141.773 Y148.103 E.05981
G1 X139.982 Y148.758 E.05981
G1 X138.165 Y149.339 E.05981
G1 X136.325 Y149.844 E.05981
G1 X134.466 Y150.273 E.05981
G1 X132.592 Y150.625 E.05981
G1 X130.704 Y150.9 E.05981
G1 X128.806 Y151.096 E.05981
G1 X126.902 Y151.214 E.05981
G1 X124.995 Y151.253 E.05981
G1 X123.088 Y151.214 E.05981
G1 X121.184 Y151.096 E.05981
G1 X119.286 Y150.9 E.05981
G1 X117.399 Y150.625 E.05981
G1 X115.524 Y150.273 E.05981
G1 X113.665 Y149.844 E.05981
G1 X111.825 Y149.339 E.05981
G1 X110.008 Y148.758 E.05981
G1 X108.217 Y148.103 E.05981
G1 X106.454 Y147.374 E.05981
G1 X103.955 Y146.219 E.08632
G1 X108.688 Y138.021 E.29682
G1 X110.828 Y138.969 E.07338
G1 X112.332 Y139.558 E.05066
G1 X113.861 Y140.08 E.05066
G1 X114.636 Y140.308 E.02533
G1 X115.412 Y140.535 E.02533
G1 X116.98 Y140.921 E.05066
G1 X118.565 Y141.239 E.05066
G1 X120.183 Y141.488 E.05134
G1 X121.767 Y141.663 E.04999
G1 X123.38 Y141.769 E.05066
G1 X124.995 Y141.805 E.05066
G1 X126.61 Y141.769 E.05066
G1 X128.223 Y141.663 E.05066
G1 X129.829 Y141.486 E.05066
G1 X131.425 Y141.239 E.05066
G1 X133.01 Y140.921 E.05066
G1 X134.579 Y140.535 E.05066
G1 X136.129 Y140.08 E.05066
G1 X137.658 Y139.558 E.05066
G1 X139.162 Y138.969 E.05066
G1 X141.247 Y138.045 E.0715
M204 S1000
G1 X141.145 Y138.503 F10800
M204 S800
;TYPE:External perimeter
G1 F1200
G1 X145.502 Y146.05 E.27324
G1 X143.385 Y147.029 E.07313
G1 X141.637 Y147.751 E.05932
G1 X139.86 Y148.401 E.05932
G1 X138.057 Y148.977 E.05933
G1 X136.233 Y149.478 E.05933
G1 X134.389 Y149.904 E.05932
G1 X132.53 Y150.253 E.05933
G1 X130.657 Y150.525 E.05932
G1 X128.775 Y150.72 E.05933
G1 X126.887 Y150.837 E.05932
G1 X124.995 Y150.876 E.05933
G1 X123.103 Y150.837 E.05933
G1 X121.215 Y150.72 E.05932
G1 X119.333 Y150.525 E.05933
G1 X117.46 Y150.253 E.05932
G1 X115.601 Y149.904 E.05933
G1 X113.757 Y149.478 E.05932
G1 X111.933 Y148.977 E.05933
G1 X110.131 Y148.401 E.05933
G1 X108.354 Y147.751 E.05932
G1 X106.605 Y147.029 E.05932
G1 X104.488 Y146.05 E.07313
G1 X108.845 Y138.503 E.27324
G1 X110.683 Y139.317 E.06301
G1 X112.203 Y139.912 E.05118
G1 X113.747 Y140.44 E.05118
G1 X114.53 Y140.67 E.02559
G1 X115.313 Y140.899 E.02559
G1 X116.898 Y141.29 E.05118
G1 X118.499 Y141.61 E.05118
