; generated by PrusaSlicer 2.4.2+win64 on 2023-07-18 at 06:09:56 UTC

; 

; external perimeters extrusion width = 0.60mm
; perimeters extrusion width = 0.43mm
; infill extrusion width = 0.45mm
; solid infill extrusion width = 0.70mm
; top infill extrusion width = 0.45mm
; support material extrusion width = 0.37mm
; first layer extrusion width = 0.42mm

; external perimeters extrusion width = 0.60mm
; perimeters extrusion width = 0.43mm
; infill extrusion width = 0.45mm
; solid infill extrusion width = 0.70mm
; top infill extrusion width = 0.45mm
; support material extrusion width = 0.37mm
; first layer extrusion width = 0.42mm

M73 P0 R54
M201 X9000 Y9000 Z500 E10000 ; sets maximum accelerations, mm/sec^2
M203 X500 Y500 Z12 E120 ; sets maximum feedrates, mm / sec
M204 P2000 R1500 T2000 ; sets acceleration (P, T) and retract acceleration (R), mm/sec^2
M205 X10.00 Y10.00 Z0.20 E2.50 ; sets the jerk limits, mm/sec
M205 S0 T0 ; sets the minimum extruding and travel feed rate, mm/sec
M107
;TYPE:Custom
M862.3 P "MK2S" ; printer model check
M862.1 P0.4 ; nozzle diameter check
M115 U3.2.3 ; tell printer latest fw version
G90 ; use absolute coordinates
M83 ; extruder relative mode
M204 S2000 T1500 ; MK2 firmware only supports the old M204 format
M104 S215 ; set extruder temp
M140 S60 ; set bed temp
M190 S60 ; wait for bed temp
M109 S215 ; wait for extruder temp
G28 W ; home all without mesh bed level
G80 ; mesh bed leveling
G1 Z0.2 F720
G1 Y-2 F1000 ; go outside print area
G92 E0
G1 X60 E9 F1000 ; intro line
G1 X100 E12.5 F1000 ; intro line
G92 E0
G21 ; set units to millimeters
G90 ; use absolute coordinates
M83 ; use relative distances for extrusion
M900 K0.05 ; Filament gcode LA 1.5
M900 K30 ; Filament gcode LA 1.0
M107
;LAYER_CHANGE
;Z:0.2
;HEIGHT:0.2
;BEFORE_LAYER_CHANGE
G92 E0.0
;0.2


M73 P0 R53
G1 E-.8 F2100
G1 Z.4 F720
;AFTER_LAYER_CHANGE
;0.2
G1 X104.744 Y89.203 F10800
G1 Z.2 F720
G1 E.8 F2100
M204 S800
;TYPE:Skirt/Brim
;WIDTH:0.42
G1 F1200
G1 X105.843 Y87.927 E.05279
G1 X107.1 Y86.811 E.05271
G1 X108.5 Y85.872 E.05287
G1 X110.011 Y85.129 E.05279
G1 X111.673 Y84.579 E.05488
G1 X113.342 Y84.271 E.0532
G1 X115.023 Y84.192 E.05279
G1 X117.037 Y84.396 E.06347
G1 X118.732 Y84.831 E.05485
G1 X120.607 Y85.63 E.0639
G1 X122.095 Y86.55 E.05487
G1 X143.244 Y103.63 E.85236
G1 X144.5 Y104.832 E.0545
G1 X145.513 Y106.1 E.05089
G1 X146.282 Y107.352 E.04607
G1 X146.705 Y108.22 E.03028
G1 X147.217 Y109.597 E.04607
G1 X147.465 Y110.53 E.03028
G1 X147.702 Y111.98 E.04607
G1 X147.764 Y112.944 E.03028
G1 X147.716 Y114.413 E.04607
G1 X147.592 Y115.37 E.03028
G1 X147.261 Y116.802 E.04607
G1 X146.954 Y117.717 E.03028
G1 X146.354 Y119.059 E.04607
G1 X145.875 Y119.897 E.03028
G1 X145.027 Y121.097 E.04607
G1 X144.396 Y121.828 E.03028
G1 X143.332 Y122.841 E.04607
G1 X142.571 Y123.436 E.03028
G1 X141.197 Y124.299 E.05089
G1 X139.175 Y125.171 E.06902
G1 X137.529 Y125.597 E.05331
G1 X135.918 Y125.79 E.05089
G1 X134.295 Y125.774 E.05089
G1 X132.688 Y125.548 E.05089
G1 X131.123 Y125.117 E.05089
G1 X129.491 Y124.417 E.0557
G1 X128.226 Y123.669 E.04607
G1 X127.477 Y123.123 E.02907
G1 X106.937 Y106.512 E.82825
G1 X105.696 Y105.374 E.05279
G1 X104.423 Y103.801 E.06347
G1 X103.573 Y102.36 E.05245
G1 X102.916 Y100.798 E.05313
G1 X102.464 Y99.107 E.05487
G1 X102.256 Y97.436 E.0528
G1 X102.275 Y95.74 E.0532
G1 X102.52 Y94.074 E.05279
G1 X102.986 Y92.456 E.05279
G1 X103.82 Y90.626 E.06305
G1 X104.712 Y89.253 E.05132
M204 S1000
; printing object handle insert.stl id:1 copy 0
;WIPE_START
G1 F8640
G1 X105.843 Y87.927 E-.4025
G1 X107.001 Y86.9 E-.3575
;WIPE_END
G1 E-.04 F2100
G1 Z.6 F720
G1 X127.758 Y107.618 F10800
G1 Z.2 F720
G1 E.8 F2100
M204 S800
;TYPE:Perimeter
G1 F1200
G1 X128.131 Y107.157 E.0186
G1 X128.552 Y106.699 E.01948
G1 X128.991 Y106.281 E.01902
G1 X129.457 Y105.892 E.01903
G1 X129.947 Y105.533 E.01903
G1 X130.459 Y105.207 E.01903
G1 X130.991 Y104.915 E.01903
G1 X131.541 Y104.658 E.01903
G1 X132.106 Y104.437 E.01903
G1 X132.685 Y104.254 E.01903
G1 X133.274 Y104.108 E.01903
G1 X133.871 Y104 E.01903
G1 X134.474 Y103.931 E.01903
G1 X135.08 Y103.902 E.01903
G1 X135.687 Y103.912 E.01903
G1 X136.292 Y103.961 E.01903
G1 X136.893 Y104.049 E.01903
G1 X137.487 Y104.176 E.01903
G1 X138.071 Y104.341 E.01903
G1 X138.63 Y104.539 E.0186
G1 X139.201 Y104.783 E.01948
G1 X139.742 Y105.057 E.01902
G1 X140.265 Y105.366 E.01903
G1 X140.766 Y105.709 E.01903
G1 X141.244 Y106.083 E.01903
G1 X141.697 Y106.487 E.01903
G1 X142.122 Y106.919 E.01903
G1 X142.519 Y107.379 E.01903
G1 X142.886 Y107.863 E.01903
G1 X143.22 Y108.37 E.01903
G1 X143.52 Y108.897 E.01903
G1 X143.78 Y109.43 E.0186
G1 X144.016 Y110.005 E.01948
G1 X144.209 Y110.58 E.01902
G1 X144.365 Y111.166 E.01903
G1 X144.482 Y111.762 E.01903
G1 X144.561 Y112.364 E.01903
G1 X144.599 Y112.956 E.0186
G1 X144.6 Y113.577 E.01948
G1 X144.561 Y114.182 E.01902
G1 X144.482 Y114.784 E.01903
G1 X144.365 Y115.38 E.01903
G1 X144.209 Y115.967 E.01903
G1 X144.016 Y116.542 E.01903
G1 X143.786 Y117.104 E.01903
G1 X143.52 Y117.649 E.01903
G1 X143.22 Y118.177 E.01903
G1 X142.886 Y118.684 E.01903
G1 X142.519 Y119.168 E.01903
G1 X142.122 Y119.627 E.01903
G1 X141.697 Y120.06 E.01903
G1 X141.244 Y120.464 E.01903
G1 X140.777 Y120.829 E.0186
G1 X140.264 Y121.18 E.01948
G1 X139.742 Y121.489 E.01902
G1 X139.201 Y121.764 E.01903
G1 X138.643 Y122.003 E.01903
G1 X138.071 Y122.206 E.01903
G1 X137.487 Y122.371 E.01903
G1 X136.893 Y122.497 E.01903
G1 X136.292 Y122.586 E.01903
G1 X135.687 Y122.635 E.01903
G1 X135.08 Y122.644 E.01903
G1 X134.474 Y122.615 E.01903
G1 X133.871 Y122.546 E.01903
G1 X133.274 Y122.439 E.01903
G1 X132.685 Y122.293 E.01903
G1 X132.119 Y122.113 E.0186
G1 X131.54 Y121.888 E.01948
G1 X130.991 Y121.631 E.01902
G1 X130.459 Y121.339 E.01903
G1 X129.947 Y121.013 E.01903
G1 X129.457 Y120.655 E.01903
G1 X128.991 Y120.265 E.01903
G1 X128.551 Y119.847 E.01903
G1 X128.14 Y119.4 E.01903
G1 X127.758 Y118.928 E.01903
G1 X127.408 Y118.433 E.01903
G1 X127.09 Y117.916 E.01903
G1 X126.807 Y117.379 E.01903
G1 X126.559 Y116.825 E.01903
G1 X126.347 Y116.256 E.01903
G1 X126.173 Y115.675 E.01903
G1 X126.036 Y115.083 E.01903
G1 X125.938 Y114.484 E.01903
G1 X125.879 Y113.88 E.01903
G1 X125.86 Y113.273 E.01903
G1 X125.879 Y112.667 E.01903
G1 X125.938 Y112.062 E.01903
G1 X126.036 Y111.463 E.01903
G1 X126.173 Y110.872 E.01903
G1 X126.347 Y110.29 E.01903
G1 X126.559 Y109.722 E.01903
G1 X126.807 Y109.168 E.01903
G1 X127.09 Y108.631 E.01903
G1 X127.408 Y108.114 E.01903
G1 X127.724 Y107.667 E.01715
M204 S1000
G1 X127.457 Y107.39 F10800
M204 S800
;TYPE:External perimeter
G1 F1200
G1 X127.846 Y106.91 E.01936
G1 X128.283 Y106.435 E.02024
G1 X128.74 Y106 E.01979
G1 X129.224 Y105.595 E.0198
G1 X129.734 Y105.222 E.0198
G1 X130.267 Y104.883 E.0198
G1 X130.82 Y104.579 E.0198
G1 X131.392 Y104.312 E.0198
G1 X131.98 Y104.082 E.0198
G1 X132.582 Y103.891 E.0198
G1 X133.195 Y103.739 E.0198
G1 X133.816 Y103.627 E.0198
G1 X134.444 Y103.555 E.0198
G1 X135.074 Y103.525 E.0198
G1 X135.706 Y103.535 E.0198
G1 X136.335 Y103.586 E.0198
G1 X136.96 Y103.678 E.0198
G1 X137.577 Y103.81 E.0198
G1 X138.185 Y103.981 E.0198
G1 X138.767 Y104.187 E.01936
G1 X139.361 Y104.441 E.02024
G1 X139.924 Y104.726 E.01979
G1 X140.467 Y105.048 E.0198
G1 X140.989 Y105.404 E.0198
G1 X141.486 Y105.793 E.0198
G1 X141.957 Y106.214 E.0198
G1 X142.4 Y106.664 E.0198
G1 X142.813 Y107.142 E.0198
G1 X143.194 Y107.645 E.0198
G1 X143.541 Y108.172 E.0198
G1 X143.854 Y108.721 E.0198
G1 X144.124 Y109.276 E.01936
G1 X144.37 Y109.873 E.02024
G1 X144.571 Y110.471 E.01979
G1 X144.733 Y111.082 E.0198
G1 X144.855 Y111.701 E.0198
G1 X144.936 Y112.327 E.0198
G1 X144.976 Y112.943 E.01936
G1 X144.977 Y113.589 E.02024
G1 X144.936 Y114.219 E.01979
G1 X144.855 Y114.845 E.0198
G1 X144.733 Y115.465 E.0198
G1 X144.571 Y116.075 E.0198
G1 X144.37 Y116.674 E.0198
G1 X144.131 Y117.258 E.0198
G1 X143.854 Y117.826 E.0198
G1 X143.541 Y118.374 E.0198
G1 X143.194 Y118.901 E.0198
G1 X142.813 Y119.405 E.0198
G1 X142.4 Y119.883 E.0198
G1 X141.957 Y120.333 E.0198
G1 X141.486 Y120.753 E.0198
G1 X141 Y121.134 E.01936
G1 X140.467 Y121.499 E.02024
G1 X139.924 Y121.82 E.01979
G1 X139.361 Y122.106 E.0198
G1 X138.78 Y122.354 E.0198
G1 X138.185 Y122.565 E.0198
G1 X137.577 Y122.737 E.0198
G1 X136.96 Y122.869 E.0198
G1 X136.335 Y122.96 E.0198
G1 X135.706 Y123.011 E.0198
G1 X135.074 Y123.022 E.0198
G1 X134.444 Y122.991 E.0198
G1 X133.816 Y122.92 E.0198
G1 X133.195 Y122.808 E.0198
G1 X132.582 Y122.656 E.0198
G1 X131.994 Y122.469 E.01936
G1 X131.392 Y122.235 E.02024
G1 X130.82 Y121.967 E.01979
G1 X130.267 Y121.664 E.0198
G1 X129.734 Y121.325 E.0198
G1 X129.224 Y120.952 E.0198
G1 X128.74 Y120.547 E.0198
G1 X128.283 Y120.111 E.0198
G1 X127.855 Y119.647 E.0198
G1 X127.457 Y119.156 E.0198
G1 X127.093 Y118.641 E.0198
G1 X126.763 Y118.102 E.0198
G1 X126.468 Y117.544 E.0198
G1 X126.21 Y116.968 E.0198
G1 X125.989 Y116.376 E.0198
G1 X125.808 Y115.771 E.0198
G1 X125.666 Y115.156 E.0198
G1 X125.564 Y114.533 E.0198
G1 X125.503 Y113.904 E.0198
G1 X125.482 Y113.273 E.0198
G1 X125.503 Y112.642 E.0198
G1 X125.564 Y112.014 E.0198
G1 X125.666 Y111.39 E.0198
G1 X125.808 Y110.775 E.0198
G1 X125.989 Y110.17 E.0198
G1 X126.21 Y109.579 E.0198
G1 X126.468 Y109.002 E.0198
G1 X126.763 Y108.444 E.0198
G1 X127.093 Y107.906 E.0198
G1 X127.423 Y107.439 E.01792
M204 S1000
G1 X127.854 Y107.44 F10800
;WIPE_START
G1 F8640
G1 X127.846 Y106.91 E-.15637
G1 X128.283 Y106.435 E-.14908
G1 X128.74 Y106 E-.14576
G1 X129.224 Y105.595 E-.14581
G1 X129.734 Y105.222 E-.1458
G1 X129.797 Y105.182 E-.01718
;WIPE_END
G1 E-.04 F2100
G1 Z.6 F720
G1 X142.902 Y108.093 F10800
G1 Z.2 F720
G1 E.8 F2100
M204 S800
;TYPE:Solid infill
;WIDTH:0.421559
G1 F1200
G1 X141.491 Y106.682 E.06281
G1 X141.062 Y106.3 E.0181
G1 X140.599 Y105.937 E.01853
G1 X140.113 Y105.605 E.01853
G1 X139.55 Y105.277 E.02051
G1 X143.227 Y108.954 E.16374
G1 X143.522 Y109.546 E.02081
G1 X143.688 Y109.951 E.01377
G1 X138.55 Y104.812 E.2288
G1 X137.745 Y104.543 E.02672
G1 X143.965 Y110.763 E.27697
G1 X144.136 Y111.469 E.02288
G1 X137.035 Y104.369 E.31617
G1 X136.393 Y104.261 E.02051
G1 X144.242 Y112.111 E.34951
G1 X144.299 Y112.703 E.01873
G1 X135.801 Y104.205 E.3784
G1 X135.248 Y104.187 E.01741
G1 X144.317 Y113.256 E.40378
G1 X144.303 Y113.778 E.01645
G1 X134.727 Y104.202 E.42638
G1 X134.233 Y104.243 E.01561
G1 X144.263 Y114.274 E.44661
G1 X144.201 Y114.747 E.01503
G1 X133.761 Y104.307 E.46484
G1 X133.309 Y104.39 E.01448
G1 X144.113 Y115.195 E.48107
G1 X144.008 Y115.624 E.01394
G1 X132.88 Y104.497 E.49547
G1 X132.467 Y104.619 E.01355
G1 X143.887 Y116.039 E.50846
G1 X143.752 Y116.44 E.01331
G1 X132.068 Y104.756 E.52024
G1 X131.683 Y104.906 E.01302
G1 X143.597 Y116.82 E.53046
G1 X143.43 Y117.189 E.01274
G1 X131.316 Y105.075 E.53936
G1 X130.96 Y105.255 E.01255
G1 X143.253 Y117.547 E.54733
G1 X143.059 Y117.888 E.01236
M73 P1 R53
G1 X130.615 Y105.444 E.55407
G1 X130.287 Y105.652 E.01222
G1 X142.853 Y118.219 E.55953
G1 X142.639 Y118.54 E.01216
G1 X129.968 Y105.868 E.56421
G1 X129.658 Y106.095 E.01206
G1 X142.409 Y118.845 E.56771
G1 X142.169 Y119.141 E.01199
G1 X129.365 Y106.337 E.57009
G1 X129.08 Y106.587 E.01195
G1 X141.921 Y119.428 E.57174
G1 X141.656 Y119.698 E.01192
G1 X128.806 Y106.848 E.57215
G1 X128.546 Y107.124 E.01193
G1 X141.383 Y119.961 E.57157
G1 X141.1 Y120.213 E.01194
G1 X128.293 Y107.407 E.57022
G1 X128.053 Y107.703 E.01199
G1 X140.802 Y120.451 E.56761
G1 X140.495 Y120.68 E.01205
G1 X127.827 Y108.011 E.56406
G1 X127.608 Y108.328 E.01212
G1 X140.177 Y120.897 E.55964
G1 X139.845 Y121.1 E.01227
G1 X127.404 Y108.66 E.5539
G1 X127.213 Y109.004 E.0124
G1 X139.503 Y121.294 E.5472
G1 X139.148 Y121.474 E.01254
G1 X127.031 Y109.358 E.53947
G1 X126.866 Y109.728 E.01276
G1 X138.776 Y121.638 E.53031
G1 X138.394 Y121.791 E.01297
G1 X126.715 Y110.112 E.52
G1 X126.577 Y110.509 E.01324
G1 X137.998 Y121.931 E.50855
G1 X137.581 Y122.05 E.01364
G1 X126.453 Y110.921 E.4955
G1 X126.351 Y111.355 E.01403
G1 X137.15 Y122.153 E.48079
G1 X136.7 Y122.24 E.0144
G1 X126.267 Y111.806 E.46456
G1 X126.202 Y112.276 E.01495
G1 X136.232 Y122.307 E.4466
G1 X135.737 Y122.347 E.01564
G1 X126.159 Y112.769 E.42644
G1 X126.143 Y113.289 E.01637
G1 X135.214 Y122.359 E.40386
G1 X134.66 Y122.341 E.01745
G1 X126.161 Y113.842 E.37839
G1 X126.218 Y114.434 E.01872
G1 X134.067 Y122.284 E.34951
G1 X133.427 Y122.179 E.02044
G1 X126.325 Y115.077 E.3162
G1 X126.503 Y115.79 E.02313
G1 X132.719 Y122.007 E.27681
G1 X132.213 Y121.846 E.01672
G1 X131.902 Y121.725 E.01052
G1 X126.777 Y116.6 E.2282
G1 X127.061 Y117.255 E.02248
G1 X127.246 Y117.604 E.01244
G1 X130.9 Y121.259 E.1627
G1 X130.603 Y121.095 E.01067
G1 X130.106 Y120.779 E.01853
G1 X129.631 Y120.432 E.01853
G1 X129.179 Y120.054 E.01853
G1 X127.565 Y118.459 E.07147
M204 S1000
; stop printing object handle insert.stl id:1 copy 0
; printing object handle insert cover.stl id:0 copy 0
;WIPE_START
G1 F8640
G1 X129.179 Y120.054 E-.52413
G1 X129.631 Y120.432 E-.13593
G1 X129.98 Y120.687 E-.09994
;WIPE_END
G1 E-.04 F2100
G1 Z.6 F720
G1 X115.51 Y104.055 F10800
G1 Z.2 F720
G1 E.8 F2100
M204 S800
;TYPE:Perimeter
;WIDTH:0.42
G1 F1200
G1 X115.51 Y101.196 E.08964
G1 X114.036 Y101.196 E.04621
G1 X114.036 Y104.055 E.08964
G1 X112.478 Y103.619 E.05073
G1 X111.899 Y103.399 E.01942
G1 X111.092 Y102.99 E.02835
G1 X110.568 Y102.651 E.01956
G1 X109.865 Y102.083 E.02835
G1 X109.428 Y101.646 E.01936
G1 X109.029 Y101.175 E.01936
G1 X108.521 Y100.427 E.02837
G1 X108.221 Y99.865 E.01996
G1 X107.886 Y99.039 E.02794
G1 X107.713 Y98.44 E.01955
G1 X107.555 Y97.55 E.02835
G1 X107.511 Y96.928 E.01956
G1 X107.542 Y96.023 E.02837
G1 X107.632 Y95.393 E.01996
G1 X107.848 Y94.529 E.02794
G1 X108.062 Y93.943 E.01955
G1 X108.46 Y93.131 E.02835
G1 X108.792 Y92.603 E.01956
G1 X109.35 Y91.891 E.02836
G1 X109.785 Y91.444 E.01956
G1 X110.48 Y90.865 E.02835
G1 X110.999 Y90.519 E.01956
G1 X111.799 Y90.098 E.02835
G1 X112.378 Y89.867 E.01956
G1 X113.249 Y89.623 E.02835
G1 X113.858 Y89.519 E.01937
G1 X114.487 Y89.467 E.01977
G1 X115.378 Y89.487 E.02794
G1 X115.99 Y89.564 E.01936
G1 X116.588 Y89.692 E.01917
G1 X117.173 Y89.87 E.01917
G1 X117.741 Y90.096 E.01917
G1 X118.293 Y90.371 E.01936
G1 X119.056 Y90.858 E.02835
G1 X119.538 Y91.243 E.01936
G1 X119.982 Y91.663 E.01917
G1 X120.39 Y92.119 E.01917
G1 X120.757 Y92.608 E.01918
G1 X121.092 Y93.143 E.01977
G1 X121.483 Y93.943 E.02794
G1 X121.695 Y94.523 E.01936
G1 X121.856 Y95.113 E.01917
G1 X121.967 Y95.714 E.01918
G1 X122.027 Y96.342 E.01977
G1 X122.02 Y97.233 E.02794
G1 X121.951 Y97.846 E.01936
G1 X121.831 Y98.446 E.01917
G1 X121.66 Y99.039 E.01936
G1 X121.319 Y99.877 E.02835
G1 X121.028 Y100.421 E.01936
G1 X120.695 Y100.934 E.01917
G1 X120.32 Y101.417 E.01917
G1 X119.902 Y101.872 E.01936
G1 X119.223 Y102.469 E.02835
G1 X118.719 Y102.826 E.01936
G1 X118.192 Y103.136 E.01917
G1 X117.641 Y103.401 E.01917
G1 X117.068 Y103.619 E.01923
G1 X115.567 Y104.039 E.04885
M204 S1000
G1 X115.887 Y103.558 F10800
M204 S800
;TYPE:External perimeter
G1 F1200
G1 X115.887 Y100.819 E.08587
G1 X113.659 Y100.819 E.06986
G1 X113.659 Y103.558 E.08587
G1 X112.596 Y103.26 E.03461
G1 X112.051 Y103.053 E.01826
G1 X111.28 Y102.662 E.02711
G1 X110.79 Y102.345 E.01831
G1 X110.117 Y101.802 E.02711
G1 X109.706 Y101.391 E.01824
G1 X109.33 Y100.947 E.01824
G1 X108.844 Y100.231 E.02711
G1 X108.563 Y99.705 E.01871
G1 X108.243 Y98.916 E.0267
G1 X108.081 Y98.355 E.01831
G1 X107.929 Y97.503 E.02711
G1 X107.888 Y96.921 E.01831
G1 X107.918 Y96.056 E.02711
G1 X108.002 Y95.466 E.01871
G1 X108.209 Y94.639 E.0267
G1 X108.41 Y94.091 E.01831
G1 X108.79 Y93.314 E.02711
G1 X109.1 Y92.82 E.01831
G1 X109.635 Y92.14 E.02711
G1 X110.042 Y91.721 E.01831
G1 X110.706 Y91.168 E.02711
G1 X111.192 Y90.843 E.01831
G1 X111.957 Y90.441 E.02711
G1 X112.499 Y90.225 E.01831
G1 X113.332 Y89.991 E.02711
G1 X113.906 Y89.894 E.01825
G1 X114.498 Y89.845 E.01864
G1 X115.35 Y89.863 E.0267
G1 X115.927 Y89.936 E.01824
G1 X116.494 Y90.058 E.01817
G1 X117.048 Y90.226 E.01817
G1 X117.587 Y90.44 E.01817
G1 X118.107 Y90.7 E.01824
G1 X118.836 Y91.165 E.02711
G1 X119.291 Y91.528 E.01824
