; generated by PrusaSlicer 2.4.2+win64 on 2022-12-23 at 00:31:36 UTC

; 

; external perimeters extrusion width = 0.60mm
; perimeters extrusion width = 0.43mm
; infill extrusion width = 0.45mm
; solid infill extrusion width = 0.70mm
; top infill extrusion width = 0.45mm
; first layer extrusion width = 0.42mm

M73 P0 R62
M201 X9000 Y9000 Z500 E10000 ; sets maximum accelerations, mm/sec^2
M203 X500 Y500 Z12 E120 ; sets maximum feedrates, mm / sec
M204 P2000 R1500 T2000 ; sets acceleration (P, T) and retract acceleration (R), mm/sec^2
M205 X10.00 Y10.00 Z0.20 E2.50 ; sets the jerk limits, mm/sec
M205 S0 T0 ; sets the minimum extruding and travel feed rate, mm/sec
M107
;TYPE:Custom
M862.3 P "MK2S" ; printer model check
M862.1 P0.4 ; nozzle diameter check
M115 U3.2.3 ; tell printer latest fw version
G90 ; use absolute coordinates
M83 ; extruder relative mode
M204 S2000 T1500 ; MK2 firmware only supports the old M204 format
M104 S215 ; set extruder temp
M140 S60 ; set bed temp
M190 S60 ; wait for bed temp
M109 S215 ; wait for extruder temp
G28 W ; home all without mesh bed level
G80 ; mesh bed leveling
G1 Z0.2 F720
G1 Y-2 F1000 ; go outside print area
G92 E0
G1 X60 E9 F1000 ; intro line
G1 X100 E12.5 F1000 ; intro line
G92 E0
G21 ; set units to millimeters
G90 ; use absolute coordinates
M83 ; use relative distances for extrusion
M900 K0.05 ; Filament gcode LA 1.5
M900 K30 ; Filament gcode LA 1.0
M107
;LAYER_CHANGE
;Z:0.2
;HEIGHT:0.2
;BEFORE_LAYER_CHANGE
G92 E0.0
;0.2


G1 E-.8 F2100
G1 Z.4 F720
;AFTER_LAYER_CHANGE
;0.2
G1 X4.35 Y39.123 F10800
G1 Z.2 F720
G1 E.8 F2100
M204 S800
;TYPE:Skirt/Brim
;WIDTH:0.42
G1 F1200
G1 X245.65 Y39.123 E7.56579
G1 X246.957 Y39.515 E.04278
M73 P0 R61
G1 X247.833 Y40.56 E.04278
G1 X248.027 Y41.5 E.03008
G1 X248.027 Y168.5 E3.982
G1 X247.635 Y169.807 E.04278
G1 X246.59 Y170.683 E.04278
G1 X245.65 Y170.877 E.03008
G1 X4.35 Y170.877 E7.56579
G1 X3.043 Y170.485 E.04278
M73 P1 R61
G1 X2.167 Y169.44 E.04278
G1 X1.973 Y168.5 E.03008
G1 X1.973 Y41.5 E3.982
G1 X2.365 Y40.193 E.04278
G1 X3.41 Y39.317 E.04278
G1 X4.291 Y39.135 E.0282
M204 S1000
; printing object Glove Fix v3.obj id:0 copy 0
;WIPE_START
G1 F8640
G1 X7.583 Y39.135 E-.76
;WIPE_END
G1 E-.04 F2100
G1 Z.6 F720
G1 X67.063 Y91.513 F10800
G1 Z.2 F720
G1 E.8 F2100
M204 S800
;TYPE:Perimeter
G1 F1200
G1 X182.937 Y91.513 E3.63315
G1 X182.937 Y118.487 E.84576
G1 X67.063 Y118.487 E3.63315
G1 X67.063 Y91.573 E.84387
M204 S1000
G1 X67.44 Y91.89 F10800
M204 S800
;TYPE:External perimeter
G1 F1200
G1 X182.56 Y91.89 E3.60951
G1 X182.56 Y118.11 E.82211
G1 X67.44 Y118.11 E3.60951
G1 X67.44 Y91.95 E.82023
M204 S1000
M73 P1 R60
G1 X67.266 Y91.53 F10800
;WIPE_START
G1 F8640
G1 X70.731 Y91.948 E-.76
;WIPE_END
G1 E-.04 F2100
G1 Z.6 F720
G1 X5.137 Y42.287 F10800
G1 Z.2 F720
M73 P2 R60
G1 E.8 F2100
M204 S800
;TYPE:Perimeter
G1 F1200
G1 X244.863 Y42.287 E7.51644
G1 X244.863 Y167.713 E3.93264
G1 X5.137 Y167.713 E7.51644
G1 X5.137 Y42.347 E3.93076
M204 S1000
G1 X4.76 Y41.91 F10800
M204 S800
;TYPE:External perimeter
G1 F1200
G1 X245.24 Y41.91 E7.54008
G1 X245.24 Y168.09 E3.95629
M73 P3 R60
G1 X4.76 Y168.09 E7.54008
M73 P3 R59
G1 X4.76 Y41.97 E3.9544
M204 S1000
G1 X5.155 Y41.974 F10800
;WIPE_START
G1 F8640
G1 X8.051 Y41.969 E-.76
;WIPE_END
G1 E-.04 F2100
G1 Z.6 F720
G1 X6.258 Y42.569 F10800
G1 Z.2 F720
G1 E.8 F2100
M204 S800
;TYPE:Internal infill
G1 F1200
G1 X8.758 Y42.569 E.07839
G1 X6.825 Y44.502 E.08573
G1 X5.419 Y44.125 E.04563
G1 X5.419 Y49.3 E.16225
G1 X5.531 Y49.33 E.00364
G1 X7.725 Y47.137 E.09727
G1 X7.09 Y44.767 E.07691
M73 P4 R59
G1 X9.283 Y42.574 E.09727
G1 X11.653 Y43.208 E.07691
G1 X12.292 Y42.569 E.02836
G1 X12.823 Y42.569 E.01662
G1 X11.918 Y43.473 E.04012
G1 X12.553 Y45.843 E.07691
G1 X10.359 Y48.037 E.09727
G1 X7.99 Y47.402 E.07691
G1 X5.796 Y49.595 E.09727
G1 X6.431 Y51.965 E.07691
G1 X5.419 Y52.977 E.04488
G1 X5.419 Y53.507 E.01662
G1 X6.696 Y52.23 E.05663
G1 X9.065 Y52.865 E.07691
G1 X11.259 Y50.671 E.09727
G1 X10.624 Y48.302 E.07691
G1 X12.818 Y46.108 E.09727
G1 X15.187 Y46.743 E.07691
G1 X17.381 Y44.549 E.09727
G1 X16.85 Y42.569 E.06429
G1 X22.025 Y42.569 E.16225
G1 X22.209 Y43.256 E.02229
G1 X20.015 Y45.449 E.09727
G1 X17.646 Y44.814 E.07691
G1 X15.452 Y47.008 E.09727
G1 X16.087 Y49.377 E.07691
G1 X13.894 Y51.571 E.09727
G1 X11.524 Y50.936 E.07691
G1 X9.33 Y53.13 E.09727
G1 X9.965 Y55.499 E.07691
G1 X7.772 Y57.693 E.09727
G1 X5.419 Y57.063 E.07638
G1 X5.419 Y62.237 E.16225
G1 X6.478 Y62.521 E.03438
G1 X8.672 Y60.328 E.09727
G1 X8.037 Y57.958 E.07691
G1 X10.23 Y55.764 E.09727
G1 X12.6 Y56.399 E.07691
G1 X14.794 Y54.206 E.09727
G1 X14.159 Y51.836 E.07691
G1 X16.352 Y49.642 E.09727
G1 X18.722 Y50.277 E.07691
G1 X20.915 Y48.084 E.09727
G1 X20.281 Y45.714 E.07691
G1 X22.474 Y43.521 E.09727
G1 X24.844 Y44.155 E.07691
G1 X26.43 Y42.569 E.07036
G1 X26.961 Y42.569 E.01662
G1 X25.109 Y44.421 E.08211
G1 X25.744 Y46.79 E.07691
G1 X23.55 Y48.984 E.09727
G1 X21.181 Y48.349 E.07691
G1 X18.987 Y50.542 E.09727
G1 X19.622 Y52.912 E.07691
G1 X17.428 Y55.106 E.09727
G1 X15.059 Y54.471 E.07691
G1 X12.865 Y56.664 E.09727
G1 X13.5 Y59.034 E.07691
G1 X11.306 Y61.227 E.09727
G1 X8.937 Y60.593 E.07691
G1 X6.743 Y62.786 E.09727
G1 X7.378 Y65.156 E.07691
G1 X5.419 Y67.115 E.08687
G1 X5.419 Y64.615 E.07839
M204 S1000
;WIPE_START
G1 F8640
G1 X5.419 Y67.115 E-.57726
G1 X5.978 Y66.555 E-.18274
;WIPE_END
G1 E-.04 F2100
G1 Z.6 F720
G1 X5.419 Y85.505 F10800
G1 Z.2 F720
G1 E.8 F2100
M204 S800
G1 F1200
G1 X5.419 Y86.813 E.04102
G1 X5.738 Y88.003 E.03862
G1 X5.419 Y88.322 E.01414
G1 X5.419 Y88.852 E.01662
G1 X6.003 Y88.268 E.02589
G1 X8.372 Y88.903 E.07691
G1 X10.566 Y86.709 E.09727
G1 X9.931 Y84.34 E.07691
G1 X12.125 Y82.146 E.09727
G1 X14.494 Y82.781 E.07691
G1 X16.688 Y80.587 E.09727
G1 X16.053 Y78.218 E.07691
G1 X18.246 Y76.024 E.09727
G1 X20.616 Y76.659 E.07691
G1 X22.81 Y74.465 E.09727
G1 X22.175 Y72.096 E.07691
G1 X24.368 Y69.902 E.09727
G1 X26.738 Y70.537 E.07691
G1 X28.932 Y68.344 E.09727
G1 X28.297 Y65.974 E.07691
G1 X30.49 Y63.78 E.09727
G1 X32.86 Y64.415 E.07691
G1 X35.053 Y62.222 E.09727
G1 X34.419 Y59.852 E.07691
G1 X36.612 Y57.659 E.09727
G1 X38.982 Y58.293 E.07691
G1 X41.175 Y56.1 E.09727
G1 X40.54 Y53.73 E.07691
G1 X42.734 Y51.537 E.09727
G1 X45.104 Y52.172 E.07691
G1 X47.297 Y49.978 E.09727
G1 X46.662 Y47.608 E.07691
G1 X48.856 Y45.415 E.09727
G1 X51.225 Y46.05 E.07691
G1 X53.419 Y43.856 E.09727
G1 X53.074 Y42.569 E.04178
G1 X48.167 Y42.569 E.15385
G1 X47.956 Y42.78 E.00937
G1 X48.591 Y45.15 E.07691
G1 X46.397 Y47.343 E.09727
G1 X44.028 Y46.708 E.07691
G1 X41.834 Y48.902 E.09727
G1 X42.469 Y51.272 E.07691
G1 X40.275 Y53.465 E.09727
G1 X37.906 Y52.83 E.07691
G1 X35.712 Y55.024 E.09727
G1 X36.347 Y57.393 E.07691
G1 X34.153 Y59.587 E.09727
G1 X31.784 Y58.952 E.07691
G1 X29.59 Y61.146 E.09727
G1 X30.225 Y63.515 E.07691
G1 X28.032 Y65.709 E.09727
G1 X25.662 Y65.074 E.07691
G1 X23.468 Y67.268 E.09727
G1 X24.103 Y69.637 E.07691
G1 X21.91 Y71.831 E.09727
G1 X19.54 Y71.196 E.07691
G1 X17.347 Y73.39 E.09727
G1 X17.981 Y75.759 E.07691
G1 X15.788 Y77.953 E.09727
G1 X13.418 Y77.318 E.07691
G1 X11.225 Y79.512 E.09727
G1 X11.859 Y81.881 E.07691
G1 X9.666 Y84.075 E.09727
G1 X7.296 Y83.44 E.07691
G1 X5.419 Y85.317 E.08326
G1 X5.419 Y84.787 E.01662
G1 X7.031 Y83.175 E.0715
G1 X6.396 Y80.805 E.07691
G1 X8.59 Y78.612 E.09727
G1 X10.96 Y79.247 E.07691
G1 X13.153 Y77.053 E.09727
G1 X12.518 Y74.683 E.07691
G1 X14.712 Y72.49 E.09727
G1 X17.081 Y73.125 E.07691
G1 X19.275 Y70.931 E.09727
G1 X18.64 Y68.562 E.07691
G1 X20.834 Y66.368 E.09727
G1 X23.203 Y67.003 E.07691
G1 X25.397 Y64.809 E.09727
G1 X24.762 Y62.44 E.07691
G1 X26.956 Y60.246 E.09727
G1 X29.325 Y60.881 E.07691
G1 X31.519 Y58.687 E.09727
G1 X30.884 Y56.318 E.07691
G1 X33.078 Y54.124 E.09727
G1 X35.447 Y54.759 E.07691
G1 X37.641 Y52.565 E.09727
G1 X37.006 Y50.196 E.07691
G1 X39.2 Y48.002 E.09727
G1 X41.569 Y48.637 E.07691
G1 X43.763 Y46.443 E.09727
G1 X43.128 Y44.074 E.07691
G1 X44.633 Y42.569 E.06674
G1 X44.103 Y42.569 E.01662
G1 X42.863 Y43.809 E.05499
G1 X40.493 Y43.174 E.07691
G1 X38.3 Y45.368 E.09727
G1 X38.935 Y47.737 E.07691
G1 X36.741 Y49.931 E.09727
G1 X34.371 Y49.296 E.07691
G1 X32.178 Y51.49 E.09727
G1 X32.813 Y53.859 E.07691
G1 X30.619 Y56.053 E.09727
G1 X28.25 Y55.418 E.07691
G1 X26.056 Y57.611 E.09727
G1 X26.691 Y59.981 E.07691
G1 X24.497 Y62.175 E.09727
G1 X22.128 Y61.54 E.07691
G1 X19.934 Y63.733 E.09727
G1 X20.569 Y66.103 E.07691
G1 X18.375 Y68.296 E.09727
G1 X16.006 Y67.662 E.07691
G1 X13.812 Y69.855 E.09727
G1 X14.447 Y72.225 E.07691
G1 X12.253 Y74.418 E.09727
G1 X9.884 Y73.783 E.07691
G1 X7.69 Y75.977 E.09727
G1 X8.325 Y78.347 E.07691
G1 X6.131 Y80.54 E.09727
G1 X5.419 Y80.349 E.02313
G1 X5.419 Y75.175 E.16225
G1 X7.425 Y75.712 E.06512
G1 X9.619 Y73.518 E.09727
G1 X8.984 Y71.149 E.07691
G1 X11.178 Y68.955 E.09727
G1 X13.547 Y69.59 E.07691
G1 X15.741 Y67.396 E.09727
G1 X15.106 Y65.027 E.07691
G1 X17.299 Y62.833 E.09727
G1 X19.669 Y63.468 E.07691
G1 X21.863 Y61.275 E.09727
G1 X21.228 Y58.905 E.07691
G1 X23.421 Y56.711 E.09727
G1 X25.791 Y57.346 E.07691
G1 X27.984 Y55.153 E.09727
G1 X27.35 Y52.783 E.07691
G1 X29.543 Y50.59 E.09727
G1 X31.913 Y51.224 E.07691
G1 X34.106 Y49.031 E.09727
G1 X33.471 Y46.661 E.07691
G1 X35.665 Y44.468 E.09727
G1 X38.035 Y45.103 E.07691
G1 X40.228 Y42.909 E.09727
G1 X40.137 Y42.569 E.01104
G1 X34.962 Y42.569 E.16225
G1 X35.4 Y44.203 E.05303
G1 X33.206 Y46.396 E.09727
G1 X30.837 Y45.761 E.07691
G1 X28.643 Y47.955 E.09727
G1 X29.278 Y50.324 E.07691
G1 X27.084 Y52.518 E.09727
G1 X24.715 Y51.883 E.07691
G1 X22.521 Y54.077 E.09727
G1 X23.156 Y56.446 E.07691
G1 X20.963 Y58.64 E.09727
G1 X18.593 Y58.005 E.07691
G1 X16.399 Y60.199 E.09727
G1 X17.034 Y62.568 E.07691
G1 X14.841 Y64.762 E.09727
G1 X12.471 Y64.127 E.07691
G1 X10.278 Y66.321 E.09727
G1 X10.912 Y68.69 E.07691
G1 X8.719 Y70.884 E.09727
G1 X6.349 Y70.249 E.07691
G1 X5.419 Y71.18 E.04126
G1 X5.419 Y70.649 E.01662
G1 X6.084 Y69.984 E.02951
G1 X5.449 Y67.614 E.07691
G1 X7.643 Y65.421 E.09727
G1 X10.012 Y66.056 E.07691
G1 X12.206 Y63.862 E.09727
G1 X11.571 Y61.493 E.07691
G1 X13.765 Y59.299 E.09727
G1 X16.134 Y59.934 E.07691
G1 X18.328 Y57.74 E.09727
G1 X17.693 Y55.371 E.07691
G1 X19.887 Y53.177 E.09727
G1 X22.256 Y53.812 E.07691
G1 X24.45 Y51.618 E.09727
G1 X23.815 Y49.249 E.07691
G1 X26.009 Y47.055 E.09727
G1 X28.378 Y47.69 E.07691
G1 X30.572 Y45.496 E.09727
G1 X29.937 Y43.127 E.07691
G1 X30.495 Y42.569 E.02475
G1 X29.965 Y42.569 E.01662
G1 X29.672 Y42.862 E.01299
G1 X28.579 Y42.569 E.03549
G1 X27.148 Y42.569 E.04485
M204 S1000
;WIPE_START
G1 F8640
G1 X28.579 Y42.569 E-.33031
G1 X29.672 Y42.862 E-.26137
G1 X29.965 Y42.569 E-.09567
G1 X30.279 Y42.569 E-.07265
;WIPE_END
G1 E-.04 F2100
G1 Z.6 F720
G1 X55.741 Y42.569 F10800
G1 Z.2 F720
G1 E.8 F2100
M204 S800
G1 F1200
G1 X58.241 Y42.569 E.07839
G1 X56.054 Y44.756 E.09698
G1 X53.684 Y44.121 E.07691
G1 X51.491 Y46.315 E.09727
G1 X52.125 Y48.684 E.07691
G1 X49.932 Y50.878 E.09727
G1 X47.562 Y50.243 E.07691
G1 X45.369 Y52.437 E.09727
G1 X46.004 Y54.806 E.07691
G1 X43.81 Y57 E.09727
G1 X41.44 Y56.365 E.07691
G1 X39.247 Y58.559 E.09727
G1 X39.882 Y60.928 E.07691
G1 X37.688 Y63.122 E.09727
G1 X35.319 Y62.487 E.07691
G1 X33.125 Y64.68 E.09727
G1 X33.76 Y67.05 E.07691
G1 X31.566 Y69.244 E.09727
G1 X29.197 Y68.609 E.07691
M73 P5 R59
G1 X27.003 Y70.802 E.09727
G1 X27.638 Y73.172 E.07691
G1 X25.444 Y75.365 E.09727
G1 X23.075 Y74.731 E.07691
G1 X20.881 Y76.924 E.09727
G1 X21.516 Y79.294 E.07691
G1 X19.322 Y81.487 E.09727
G1 X16.953 Y80.852 E.07691
G1 X14.759 Y83.046 E.09727
G1 X15.394 Y85.416 E.07691
G1 X13.2 Y87.609 E.09727
G1 X10.831 Y86.974 E.07691
G1 X8.637 Y89.168 E.09727
M73 P5 R58
G1 X9.272 Y91.537 E.07691
G1 X7.078 Y93.731 E.09727
G1 X5.419 Y93.286 E.05387
G1 X5.419 Y98.461 E.16225
G1 X5.785 Y98.559 E.01188
G1 X7.978 Y96.366 E.09727
G1 X7.343 Y93.996 E.07691
G1 X9.537 Y91.803 E.09727
G1 X11.907 Y92.437 E.07691
G1 X14.1 Y90.244 E.09727
G1 X13.465 Y87.874 E.07691
G1 X15.659 Y85.681 E.09727
G1 X18.028 Y86.316 E.07691
G1 X20.222 Y84.122 E.09727
G1 X19.587 Y81.752 E.07691
G1 X21.781 Y79.559 E.09727
G1 X24.15 Y80.194 E.07691
G1 X26.344 Y78 E.09727
G1 X25.709 Y75.631 E.07691
G1 X27.903 Y73.437 E.09727
G1 X30.272 Y74.072 E.07691
G1 X32.466 Y71.878 E.09727
G1 X31.831 Y69.509 E.07691
G1 X34.025 Y67.315 E.09727
G1 X36.394 Y67.95 E.07691
G1 X38.588 Y65.756 E.09727
G1 X37.953 Y63.387 E.07691
G1 X40.147 Y61.193 E.09727
G1 X42.516 Y61.828 E.07691
G1 X44.71 Y59.634 E.09727
G1 X44.075 Y57.265 E.07691
G1 X46.269 Y55.071 E.09727
G1 X48.638 Y55.706 E.07691
G1 X50.832 Y53.512 E.09727
G1 X50.197 Y51.143 E.07691
G1 X52.391 Y48.949 E.09727
G1 X54.76 Y49.584 E.07691
G1 X56.954 Y47.39 E.09727
G1 X56.319 Y45.021 E.07691
G1 X58.512 Y42.827 E.09727
G1 X60.882 Y43.462 E.07691
G1 X61.775 Y42.569 E.03961
G1 X62.305 Y42.569 E.01662
G1 X61.147 Y43.727 E.05137
G1 X61.782 Y46.097 E.07691
G1 X59.588 Y48.29 E.09727
G1 X57.219 Y47.655 E.07691
G1 X55.025 Y49.849 E.09727
G1 X55.66 Y52.219 E.07691
G1 X53.466 Y54.412 E.09727
G1 X51.097 Y53.777 E.07691
G1 X48.903 Y55.971 E.09727
G1 X49.538 Y58.341 E.07691
G1 X47.344 Y60.534 E.09727
G1 X44.975 Y59.899 E.07691
G1 X42.781 Y62.093 E.09727
G1 X43.416 Y64.462 E.07691
G1 X41.222 Y66.656 E.09727
G1 X38.853 Y66.021 E.07691
G1 X36.659 Y68.215 E.09727
G1 X37.294 Y70.584 E.07691
G1 X35.101 Y72.778 E.09727
G1 X32.731 Y72.143 E.07691
G1 X30.537 Y74.337 E.09727
G1 X31.172 Y76.706 E.07691
G1 X28.979 Y78.9 E.09727
G1 X26.609 Y78.265 E.07691
G1 X24.415 Y80.459 E.09727
G1 X25.05 Y82.828 E.07691
G1 X22.857 Y85.022 E.09727
G1 X20.487 Y84.387 E.07691
G1 X18.294 Y86.581 E.09727
G1 X18.928 Y88.95 E.07691
G1 X16.735 Y91.144 E.09727
G1 X14.365 Y90.509 E.07691
G1 X12.172 Y92.703 E.09727
G1 X12.807 Y95.072 E.07691
G1 X10.613 Y97.266 E.09727
G1 X8.243 Y96.631 E.07691
G1 X6.05 Y98.824 E.09727
G1 X6.685 Y101.194 E.07691
G1 X5.419 Y102.46 E.05613
G1 X5.419 Y102.99 E.01662
G1 X6.95 Y101.459 E.06788
G1 X9.319 Y102.094 E.07691
G1 X11.513 Y99.9 E.09727
G1 X10.878 Y97.531 E.07691
G1 X13.072 Y95.337 E.09727
G1 X15.441 Y95.972 E.07691
G1 X17.635 Y93.778 E.09727
G1 X17 Y91.409 E.07691
G1 X19.194 Y89.215 E.09727
G1 X21.563 Y89.85 E.07691
G1 X23.757 Y87.656 E.09727
G1 X23.122 Y85.287 E.07691
G1 X25.315 Y83.093 E.09727
G1 X27.685 Y83.728 E.07691
G1 X29.879 Y81.534 E.09727
G1 X29.244 Y79.165 E.07691
G1 X31.437 Y76.971 E.09727
G1 X33.807 Y77.606 E.07691
G1 X36 Y75.413 E.09727
G1 X35.366 Y73.043 E.07691
G1 X37.559 Y70.849 E.09727
G1 X39.929 Y71.484 E.07691
G1 X42.122 Y69.291 E.09727
G1 X41.488 Y66.921 E.07691
G1 X43.681 Y64.728 E.09727
G1 X46.051 Y65.362 E.07691
G1 X48.244 Y63.169 E.09727
G1 X47.609 Y60.799 E.07691
G1 X49.803 Y58.606 E.09727
G1 X52.173 Y59.24 E.07691
G1 X54.366 Y57.047 E.09727
G1 X53.731 Y54.677 E.07691
G1 X55.925 Y52.484 E.09727
G1 X58.294 Y53.119 E.07691
G1 X60.488 Y50.925 E.09727
G1 X59.853 Y48.555 E.07691
G1 X62.047 Y46.362 E.09727
G1 X64.416 Y46.997 E.07691
G1 X66.61 Y44.803 E.09727
G1 X66.011 Y42.569 E.07252
G1 X68.511 Y42.569 E.07839
M204 S1000
;WIPE_START
G1 F8640
G1 X66.011 Y42.569 E-.57726
G1 X66.216 Y43.333 E-.18274
;WIPE_END
G1 E-.04 F2100
G1 Z.6 F720
G1 X94.303 Y42.569 F10800
G1 Z.2 F720
G1 E.8 F2100
M204 S800
G1 F1200
G1 X96.173 Y42.569 E.05863
G1 X96.92 Y42.769 E.02424
G1 X97.12 Y42.569 E.00887
G1 X97.65 Y42.569 E.01662
G1 X97.185 Y43.034 E.02063
G1 X97.82 Y45.403 E.07691
G1 X95.626 Y47.597 E.09727
G1 X93.257 Y46.962 E.07691
G1 X91.063 Y49.156 E.09727
G1 X91.698 Y51.525 E.07691
G1 X89.504 Y53.719 E.09727
G1 X87.135 Y53.084 E.07691
G1 X84.941 Y55.278 E.09727
G1 X85.576 Y57.647 E.07691
G1 X83.382 Y59.841 E.09727
G1 X81.013 Y59.206 E.07691
G1 X78.819 Y61.4 E.09727
G1 X79.454 Y63.769 E.07691
G1 X77.261 Y65.963 E.09727
G1 X74.891 Y65.328 E.07691
G1 X72.697 Y67.522 E.09727
G1 X73.332 Y69.891 E.07691
G1 X71.139 Y72.085 E.09727
G1 X68.769 Y71.45 E.07691
G1 X66.576 Y73.644 E.09727
G1 X67.21 Y76.013 E.07691
G1 X65.017 Y78.207 E.09727
G1 X62.647 Y77.572 E.07691
G1 X60.454 Y79.765 E.09727
G1 X61.089 Y82.135 E.07691
G1 X58.895 Y84.329 E.09727
G1 X56.525 Y83.694 E.07691
G1 X54.332 Y85.887 E.09727
