; generated by PrusaSlicer 2.4.2+win64 on 2022-11-02 at 01:01:29 UTC

; 

; external perimeters extrusion width = 0.60mm
; perimeters extrusion width = 0.43mm
; infill extrusion width = 0.45mm
; solid infill extrusion width = 0.70mm
; top infill extrusion width = 0.45mm
; support material extrusion width = 0.37mm
; first layer extrusion width = 0.42mm

M73 P0 R28
M201 X9000 Y9000 Z500 E10000 ; sets maximum accelerations, mm/sec^2
M203 X500 Y500 Z12 E120 ; sets maximum feedrates, mm / sec
M204 P2000 R1500 T2000 ; sets acceleration (P, T) and retract acceleration (R), mm/sec^2
M205 X10.00 Y10.00 Z0.20 E2.50 ; sets the jerk limits, mm/sec
M205 S0 T0 ; sets the minimum extruding and travel feed rate, mm/sec
M107
;TYPE:Custom
M862.3 P "MK2S" ; printer model check
M862.1 P0.4 ; nozzle diameter check
M115 U3.2.3 ; tell printer latest fw version
G90 ; use absolute coordinates
M83 ; extruder relative mode
M204 S2000 T1500 ; MK2 firmware only supports the old M204 format
M104 S215 ; set extruder temp
M140 S60 ; set bed temp
M190 S60 ; wait for bed temp
M109 S215 ; wait for extruder temp
G28 W ; home all without mesh bed level
G80 ; mesh bed leveling
G1 Z0.2 F720
G1 Y-2 F1000 ; go outside print area
G92 E0
G1 X60 E9 F1000 ; intro line
G1 X100 E12.5 F1000 ; intro line
G92 E0
G21 ; set units to millimeters
G90 ; use absolute coordinates
M83 ; use relative distances for extrusion
M900 K0.05 ; Filament gcode LA 1.5
M900 K30 ; Filament gcode LA 1.0
M107
;LAYER_CHANGE
;Z:0.2
;HEIGHT:0.2
;BEFORE_LAYER_CHANGE
G92 E0.0
;0.2


G1 E-.8 F2100
G1 Z.4 F720
;AFTER_LAYER_CHANGE
;0.2
G1 X4.35 Y39.123 F10800
G1 Z.2 F720
G1 E.8 F2100
M204 S800
;TYPE:Skirt/Brim
;WIDTH:0.42
G1 F1200
G1 X245.65 Y39.123 E7.56579
G1 X246.957 Y39.515 E.04278
M73 P1 R28
G1 X247.833 Y40.56 E.04278
G1 X248.027 Y41.5 E.03008
G1 X248.027 Y168.5 E3.982
G1 X247.635 Y169.807 E.04278
G1 X246.59 Y170.683 E.04278
G1 X245.65 Y170.877 E.03008
G1 X4.35 Y170.877 E7.56579
G1 X3.043 Y170.485 E.04278
M73 P2 R28
G1 X2.167 Y169.44 E.04278
G1 X1.973 Y168.5 E.03008
G1 X1.973 Y41.5 E3.982
G1 X2.365 Y40.193 E.04278
M73 P2 R27
G1 X3.41 Y39.317 E.04278
G1 X4.291 Y39.135 E.0282
M204 S1000
; printing object Wall Mount Glove fix.obj id:0 copy 0
;WIPE_START
G1 F8640
G1 X7.583 Y39.135 E-.76
;WIPE_END
G1 E-.04 F2100
G1 Z.6 F720
G1 X60.713 Y88.338 F10800
G1 Z.2 F720
G1 E.8 F2100
M204 S800
;TYPE:Perimeter
G1 F1200
G1 X189.287 Y88.338 E4.03135
G1 X189.287 Y121.662 E1.04486
M73 P3 R27
G1 X60.713 Y121.662 E4.03135
G1 X60.713 Y88.398 E1.04297
M204 S1000
G1 X61.09 Y88.715 F10800
M204 S800
;TYPE:External perimeter
G1 F1200
G1 X188.91 Y88.715 E4.00771
G1 X188.91 Y121.285 E1.02121
G1 X61.09 Y121.285 E4.00771
M73 P4 R27
G1 X61.09 Y88.775 E1.01933
M204 S1000
G1 X60.919 Y88.353 F10800
;WIPE_START
G1 F8640
G1 X64.381 Y88.773 E-.76
;WIPE_END
G1 E-.04 F2100
G1 Z.6 F720
G1 X5.137 Y42.287 F10800
G1 Z.2 F720
G1 E.8 F2100
M204 S800
;TYPE:Perimeter
G1 F1200
G1 X244.863 Y42.287 E7.51644
G1 X244.863 Y167.713 E3.93264
M73 P5 R27
G1 X5.137 Y167.713 E7.51644
G1 X5.137 Y42.347 E3.93076
M204 S1000
M73 P6 R26
G1 X4.76 Y41.91 F10800
M204 S800
;TYPE:External perimeter
G1 F1200
G1 X245.24 Y41.91 E7.54008
G1 X245.24 Y168.09 E3.95629
M73 P7 R26
G1 X4.76 Y168.09 E7.54008
G1 X4.76 Y41.97 E3.9544
M204 S1000
M73 P8 R26
G1 X5.155 Y41.974 F10800
;WIPE_START
G1 F8640
G1 X8.051 Y41.969 E-.76
;WIPE_END
G1 E-.04 F2100
G1 Z.6 F720
G1 X7.183 Y42.569 F10800
G1 Z.2 F720
G1 E.8 F2100
M204 S800
;TYPE:Internal infill
G1 F1200
G1 X9.683 Y42.569 E.07839
G1 X6.68 Y45.572 E.13315
G1 X5.419 Y45.234 E.04095
G1 X5.419 Y47.734 E.07839
M204 S1000
;WIPE_START
G1 F8640
G1 X5.419 Y45.234 E-.57726
G1 X6.183 Y45.438 E-.18274
;WIPE_END
G1 E-.04 F2100
G1 Z.6 F720
G1 X5.419 Y52.853 F10800
G1 Z.2 F720
G1 E.8 F2100
M204 S800
G1 F1200
G1 X5.419 Y54.623 E.05552
G1 X6.013 Y56.842 E.07202
G1 X5.419 Y57.437 E.02636
G1 X5.419 Y57.967 E.01662
G1 X6.278 Y57.107 E.03812
G1 X10.042 Y58.116 E.12216
G1 X13.256 Y54.902 E.14251
G1 X12.247 Y51.138 E.12216
G1 X15.461 Y47.924 E.14251
G1 X19.224 Y48.933 E.12216
G1 X22.438 Y45.719 E.14251
G1 X21.594 Y42.569 E.10225
G1 X15.515 Y42.569 E.19061
M73 P9 R26
G1 X14.188 Y43.896 E.05886
G1 X15.196 Y47.659 E.12216
G1 X11.982 Y50.873 E.14251
G1 X8.219 Y49.865 E.12216
G1 X5.419 Y52.665 E.12416
G1 X5.419 Y52.135 E.01662
G1 X7.954 Y49.6 E.11241
G1 X6.946 Y45.837 E.12216
G1 X10.16 Y42.623 E.14251
G1 X13.923 Y43.631 E.12216
G1 X14.985 Y42.569 E.0471
G1 X12.485 Y42.569 E.07839
M204 S1000
;WIPE_START
G1 F8640
G1 X14.985 Y42.569 E-.57726
G1 X14.425 Y43.128 E-.18274
;WIPE_END
G1 E-.04 F2100
G1 Z.6 F720
G1 X26.857 Y42.569 F10800
G1 Z.2 F720
G1 E.8 F2100
M204 S800
G1 F1200
G1 X29.357 Y42.569 E.07839
G1 X29.681 Y43.778 E.03926
G1 X26.467 Y46.992 E.14251
G1 X22.704 Y45.984 E.12216
G1 X19.49 Y49.198 E.14251
G1 X20.498 Y52.961 E.12216
G1 X17.284 Y56.175 E.14251
G1 X13.521 Y55.167 E.12216
G1 X10.307 Y58.381 E.14251
G1 X11.315 Y62.144 E.12216
G1 X8.101 Y65.358 E.14251
G1 X5.419 Y64.639 E.08707
G1 X5.419 Y72.402 E.24338
G1 X6.16 Y72.6 E.02408
G1 X9.374 Y69.386 E.14251
G1 X8.366 Y65.623 E.12216
G1 X11.58 Y62.409 E.14251
G1 X15.343 Y63.417 E.12216
M73 P9 R25
G1 X18.557 Y60.203 E.14251
G1 X17.549 Y56.44 E.12216
G1 X20.763 Y53.226 E.14251
G1 X24.526 Y54.235 E.12216
G1 X27.74 Y51.021 E.14251
G1 X26.732 Y47.257 E.12216
G1 X29.946 Y44.043 E.14251
G1 X33.709 Y45.052 E.12216
G1 X36.192 Y42.569 E.11009
G1 X36.722 Y42.569 E.01662
G1 X33.974 Y45.317 E.12185
G1 X34.983 Y49.08 E.12216
G1 X31.769 Y52.294 E.14251
G1 X28.005 Y51.286 E.12216
G1 X24.791 Y54.5 E.14251
G1 X25.8 Y58.263 E.12216
G1 X22.586 Y61.477 E.14251
G1 X18.822 Y60.468 E.12216
G1 X15.608 Y63.682 E.14251
G1 X16.617 Y67.446 E.12216
G1 X13.403 Y70.66 E.14251
G1 X9.64 Y69.651 E.12216
G1 X6.426 Y72.865 E.14251
G1 X7.434 Y76.629 E.12216
G1 X5.419 Y78.644 E.08935
G1 X5.419 Y79.174 E.01662
G1 X7.699 Y76.894 E.10111
G1 X11.462 Y77.902 E.12216
G1 X14.676 Y74.688 E.14251
G1 X13.668 Y70.925 E.12216
G1 X16.882 Y67.711 E.14251
G1 X20.645 Y68.719 E.12216
G1 X23.859 Y65.505 E.14251
G1 X22.851 Y61.742 E.12216
G1 X26.065 Y58.528 E.14251
G1 X29.828 Y59.536 E.12216
G1 X33.042 Y56.322 E.14251
G1 X32.034 Y52.559 E.12216
G1 X35.248 Y49.345 E.14251
G1 X39.011 Y50.353 E.12216
G1 X42.225 Y47.139 E.14251
G1 X41.216 Y43.376 E.12216
G1 X42.024 Y42.569 E.0358
G1 X41.494 Y42.569 E.01662
G1 X40.951 Y43.111 E.02405
G1 X38.928 Y42.569 E.06569
G1 X36.91 Y42.569 E.06327
M204 S1000
;WIPE_START
G1 F8640
G1 X38.928 Y42.569 E-.46596
G1 X40.158 Y42.898 E-.29404
;WIPE_END
G1 E-.04 F2100
G1 Z.6 F720
G1 X65.397 Y42.569 F10800
G1 Z.2 F720
G1 E.8 F2100
M204 S800
G1 F1200
G1 X67.897 Y42.569 E.07839
G1 X67.98 Y42.591 E.0027
G1 X68.002 Y42.569 E.00099
G1 X68.532 Y42.569 E.01662
G1 X68.245 Y42.856 E.01274
G1 X69.253 Y46.619 E.12216
G1 X66.039 Y49.833 E.14251
G1 X62.276 Y48.825 E.12216
G1 X59.062 Y52.039 E.14251
G1 X60.071 Y55.802 E.12216
G1 X56.857 Y59.016 E.14251
G1 X53.093 Y58.008 E.12216
M73 P10 R25
G1 X49.879 Y61.222 E.14251
G1 X50.888 Y64.985 E.12216
G1 X47.674 Y68.199 E.14251
G1 X43.91 Y67.191 E.12216
G1 X40.696 Y70.405 E.14251
G1 X41.705 Y74.168 E.12216
G1 X38.491 Y77.382 E.14251
G1 X34.728 Y76.374 E.12216
G1 X31.514 Y79.588 E.14251
G1 X32.522 Y83.351 E.12216
G1 X29.308 Y86.565 E.14251
G1 X25.545 Y85.557 E.12216
G1 X22.331 Y88.771 E.14251
G1 X23.339 Y92.534 E.12216
G1 X20.125 Y95.748 E.14251
G1 X16.362 Y94.739 E.12216
G1 X13.148 Y97.953 E.14251
G1 X14.156 Y101.717 E.12216
G1 X10.942 Y104.931 E.14251
G1 X7.179 Y103.922 E.12216
G1 X5.419 Y105.682 E.07805
G1 X5.419 Y105.152 E.01662
G1 X6.914 Y103.657 E.0663
G1 X5.906 Y99.894 E.12216
G1 X9.12 Y96.68 E.14251
G1 X12.883 Y97.688 E.12216
G1 X16.097 Y94.474 E.14251
G1 X15.088 Y90.711 E.12216
G1 X18.302 Y87.497 E.14251
G1 X22.066 Y88.505 E.12216
G1 X25.28 Y85.291 E.14251
G1 X24.271 Y81.528 E.12216
G1 X27.485 Y78.314 E.14251
G1 X31.249 Y79.323 E.12216
G1 X34.463 Y76.109 E.14251
G1 X33.454 Y72.345 E.12216
G1 X36.668 Y69.131 E.14251
G1 X40.431 Y70.14 E.12216
G1 X43.645 Y66.926 E.14251
G1 X42.637 Y63.162 E.12216
G1 X45.851 Y59.948 E.14251
G1 X49.614 Y60.957 E.12216
G1 X52.828 Y57.743 E.14251
G1 X51.82 Y53.98 E.12216
G1 X55.034 Y50.766 E.14251
G1 X58.797 Y51.774 E.12216
G1 X62.011 Y48.56 E.14251
G1 X61.003 Y44.797 E.12216
G1 X63.231 Y42.569 E.09879
G1 X62.701 Y42.569 E.01662
G1 X60.738 Y44.532 E.08704
G1 X56.974 Y43.523 E.12216
G1 X53.76 Y46.737 E.14251
G1 X54.769 Y50.501 E.12216
G1 X51.555 Y53.715 E.14251
G1 X47.792 Y52.706 E.12216
G1 X44.578 Y55.92 E.14251
G1 X45.586 Y59.683 E.12216
G1 X42.372 Y62.897 E.14251
G1 X38.609 Y61.889 E.12216
G1 X35.395 Y65.103 E.14251
G1 X36.403 Y68.866 E.12216
G1 X33.189 Y72.08 E.14251
G1 X29.426 Y71.072 E.12216
G1 X26.212 Y74.286 E.14251
G1 X27.22 Y78.049 E.12216
G1 X24.006 Y81.263 E.14251
G1 X20.243 Y80.255 E.12216
G1 X17.029 Y83.469 E.14251
G1 X18.037 Y87.232 E.12216
G1 X14.823 Y90.446 E.14251
G1 X11.06 Y89.438 E.12216
G1 X7.846 Y92.652 E.14251
G1 X8.855 Y96.415 E.12216
G1 X5.641 Y99.629 E.14251
G1 X5.419 Y99.569 E.0072
G1 X5.419 Y91.807 E.24338
G1 X7.581 Y92.387 E.07019
G1 X10.795 Y89.173 E.14251
G1 X9.787 Y85.409 E.12216
G1 X13.001 Y82.195 E.14251
G1 X16.764 Y83.204 E.12216
G1 X19.978 Y79.99 E.14251
G1 X18.97 Y76.226 E.12216
G1 X22.184 Y73.012 E.14251
M73 P11 R25
G1 X25.947 Y74.021 E.12216
G1 X29.161 Y70.807 E.14251
G1 X28.152 Y67.044 E.12216
G1 X31.366 Y63.83 E.14251
G1 X35.13 Y64.838 E.12216
G1 X38.344 Y61.624 E.14251
G1 X37.335 Y57.861 E.12216
G1 X40.549 Y54.647 E.14251
G1 X44.313 Y55.655 E.12216
G1 X47.527 Y52.441 E.14251
G1 X46.518 Y48.678 E.12216
G1 X49.732 Y45.464 E.14251
G1 X53.495 Y46.472 E.12216
G1 X56.709 Y43.258 E.14251
G1 X56.525 Y42.569 E.02238
G1 X48.762 Y42.569 E.24338
G1 X49.467 Y45.199 E.08537
G1 X46.253 Y48.413 E.14251
G1 X42.49 Y47.404 E.12216
G1 X39.276 Y50.618 E.14251
G1 X40.284 Y54.382 E.12216
G1 X37.07 Y57.596 E.14251
G1 X33.307 Y56.587 E.12216
G1 X30.093 Y59.801 E.14251
G1 X31.101 Y63.565 E.12216
G1 X27.887 Y66.779 E.14251
G1 X24.124 Y65.77 E.12216
G1 X20.91 Y68.984 E.14251
G1 X21.919 Y72.747 E.12216
G1 X18.705 Y75.961 E.14251
G1 X14.941 Y74.953 E.12216
G1 X11.727 Y78.167 E.14251
G1 X12.736 Y81.93 E.12216
G1 X9.522 Y85.144 E.14251
G1 X5.758 Y84.136 E.12216
G1 X5.419 Y84.476 E.01506
G1 X5.419 Y83.945 E.01662
G1 X5.493 Y83.871 E.00331
G1 X5.419 Y83.593 E.00903
G1 X5.419 Y81.093 E.07839
M204 S1000
;WIPE_START
G1 F8640
G1 X5.419 Y83.593 E-.57726
G1 X5.493 Y83.871 E-.06651
G1 X5.419 Y83.945 E-.02434
G1 X5.419 Y84.343 E-.09189
;WIPE_END
G1 E-.04 F2100
G1 Z.6 F720
G1 X5.419 Y113.713 F10800
G1 Z.2 F720
G1 E.8 F2100
M204 S800
G1 F1200
G1 X5.419 Y111.213 E.07839
G1 X9.002 Y112.173 E.1163
G1 X12.216 Y108.959 E.14251
G1 X11.207 Y105.196 E.12216
G1 X14.421 Y101.982 E.14251
G1 X18.185 Y102.99 E.12216
G1 X21.399 Y99.776 E.14251
G1 X20.39 Y96.013 E.12216
G1 X23.604 Y92.799 E.14251
G1 X27.367 Y93.807 E.12216
G1 X30.581 Y90.593 E.14251
G1 X29.573 Y86.83 E.12216
G1 X32.787 Y83.616 E.14251
G1 X36.55 Y84.624 E.12216
G1 X39.764 Y81.41 E.14251
G1 X38.756 Y77.647 E.12216
G1 X41.97 Y74.433 E.14251
G1 X45.733 Y75.441 E.12216
G1 X48.947 Y72.227 E.14251
G1 X47.939 Y68.464 E.12216
G1 X51.153 Y65.25 E.14251
G1 X54.916 Y66.259 E.12216
G1 X58.13 Y63.045 E.14251
G1 X57.122 Y59.281 E.12216
G1 X60.336 Y56.067 E.14251
G1 X64.099 Y57.076 E.12216
G1 X67.313 Y53.862 E.14251
G1 X66.305 Y50.098 E.12216
G1 X69.519 Y46.884 E.14251
G1 X73.282 Y47.893 E.12216
G1 X76.496 Y44.679 E.14251
G1 X75.93 Y42.569 E.06849
G1 X83.693 Y42.569 E.24338
G1 X83.738 Y42.738 E.0055
G1 X80.524 Y45.952 E.14251
G1 X76.761 Y44.944 E.12216
G1 X73.547 Y48.158 E.14251
G1 X74.555 Y51.921 E.12216
G1 X71.341 Y55.135 E.14251
G1 X67.578 Y54.127 E.12216
G1 X64.364 Y57.341 E.14251
G1 X65.372 Y61.104 E.12216
G1 X62.158 Y64.318 E.14251
M73 P12 R25
G1 X58.395 Y63.31 E.12216
G1 X55.181 Y66.524 E.14251
G1 X56.189 Y70.287 E.12216
G1 X52.975 Y73.501 E.14251
G1 X49.212 Y72.493 E.12216
G1 X45.998 Y75.707 E.14251
G1 X47.007 Y79.47 E.12216
G1 X43.793 Y82.684 E.14251
G1 X40.029 Y81.675 E.12216
G1 X36.815 Y84.889 E.14251
G1 X37.824 Y88.653 E.12216
G1 X34.61 Y91.867 E.14251
G1 X30.846 Y90.858 E.12216
G1 X27.632 Y94.072 E.14251
G1 X28.641 Y97.835 E.12216
G1 X25.427 Y101.049 E.14251
G1 X21.664 Y100.041 E.12216
G1 X18.45 Y103.255 E.14251
G1 X19.458 Y107.018 E.12216
G1 X16.244 Y110.232 E.14251
G1 X12.481 Y109.224 E.12216
G1 X9.267 Y112.438 E.14251
G1 X10.275 Y116.201 E.12216
G1 X7.061 Y119.415 E.14251
G1 X5.419 Y118.975 E.05331
G1 X5.419 Y126.359 E.23152
G1 X8.335 Y123.443 E.12929
G1 X7.326 Y119.68 E.12216
G1 X10.54 Y116.466 E.14251
G1 X14.303 Y117.475 E.12216
G1 X17.517 Y114.261 E.14251
G1 X16.509 Y110.497 E.12216
G1 X19.723 Y107.283 E.14251
G1 X23.486 Y108.292 E.12216
G1 X26.7 Y105.078 E.14251
G1 X25.692 Y101.315 E.12216
G1 X28.906 Y98.101 E.14251
G1 X32.669 Y99.109 E.12216
G1 X35.883 Y95.895 E.14251
G1 X34.875 Y92.132 E.12216
G1 X38.089 Y88.918 E.14251
G1 X41.852 Y89.926 E.12216
G1 X45.066 Y86.712 E.14251
G1 X44.058 Y82.949 E.12216
G1 X47.272 Y79.735 E.14251
G1 X51.035 Y80.743 E.12216
G1 X54.249 Y77.529 E.14251
G1 X53.241 Y73.766 E.12216
G1 X56.455 Y70.552 E.14251
G1 X60.218 Y71.56 E.12216
G1 X63.432 Y68.346 E.14251
G1 X62.423 Y64.583 E.12216
G1 X65.637 Y61.369 E.14251
G1 X69.401 Y62.377 E.12216
G1 X72.615 Y59.163 E.14251
G1 X71.606 Y55.4 E.12216
G1 X74.82 Y52.186 E.14251
G1 X78.583 Y53.195 E.12216
G1 X81.797 Y49.981 E.14251
G1 X80.789 Y46.217 E.12216
G1 X84.003 Y43.003 E.14251
G1 X87.766 Y44.012 E.12216
G1 X89.209 Y42.569 E.06398
G1 X89.739 Y42.569 E.01662
G1 X88.031 Y44.277 E.07574
G1 X89.04 Y48.04 E.12216
G1 X85.826 Y51.254 E.14251
G1 X82.063 Y50.246 E.12216
G1 X78.849 Y53.46 E.14251
G1 X79.857 Y57.223 E.12216
M73 P12 R24
G1 X76.643 Y60.437 E.14251
G1 X72.88 Y59.429 E.12216
G1 X69.666 Y62.643 E.14251
G1 X70.674 Y66.406 E.12216
G1 X67.46 Y69.62 E.14251
G1 X63.697 Y68.611 E.12216
G1 X60.483 Y71.825 E.14251
G1 X61.491 Y75.589 E.12216
G1 X58.277 Y78.803 E.14251
G1 X54.514 Y77.794 E.12216
G1 X51.3 Y81.008 E.14251
G1 X52.308 Y84.771 E.12216
M73 P13 R24
G1 X49.094 Y87.985 E.14251
G1 X45.331 Y86.977 E.12216
G1 X42.117 Y90.191 E.14251
G1 X43.125 Y93.954 E.12216
G1 X39.911 Y97.168 E.14251
G1 X36.148 Y96.16 E.12216
G1 X32.934 Y99.374 E.14251
G1 X33.943 Y103.137 E.12216
G1 X30.729 Y106.351 E.14251
G1 X26.965 Y105.343 E.12216
G1 X23.751 Y108.557 E.14251
G1 X24.76 Y112.32 E.12216
G1 X21.546 Y115.534 E.14251
G1 X17.782 Y114.526 E.12216
G1 X14.568 Y117.74 E.14251
G1 X15.577 Y121.503 E.12216
G1 X12.363 Y124.717 E.14251
G1 X8.6 Y123.709 E.12216
G1 X5.419 Y126.889 E.14104
G1 X5.419 Y127.046 E.00492
G1 X6.394 Y130.686 E.11814
G1 X5.419 Y131.661 E.04324
G1 X5.419 Y132.191 E.01662
G1 X6.659 Y130.951 E.055
G1 X10.422 Y131.959 E.12216
G1 X13.636 Y128.745 E.14251
G1 X12.628 Y124.982 E.12216
G1 X15.842 Y121.768 E.14251
G1 X19.605 Y122.776 E.12216
G1 X22.819 Y119.562 E.14251
G1 X21.811 Y115.799 E.12216
G1 X25.025 Y112.585 E.14251
G1 X28.788 Y113.593 E.12216
G1 X32.002 Y110.379 E.14251
G1 X30.994 Y106.616 E.12216
G1 X34.208 Y103.402 E.14251
G1 X37.971 Y104.411 E.12216
G1 X41.185 Y101.197 E.14251
G1 X40.177 Y97.433 E.12216
G1 X43.391 Y94.219 E.14251
G1 X47.154 Y95.228 E.12216
G1 X50.368 Y92.014 E.14251
G1 X49.359 Y88.251 E.12216
G1 X52.573 Y85.037 E.14251
G1 X56.337 Y86.045 E.12216
G1 X59.551 Y82.831 E.14251
G1 X58.542 Y79.068 E.12216
G1 X61.756 Y75.854 E.14251
G1 X65.519 Y76.862 E.12216
G1 X68.733 Y73.648 E.14251
G1 X67.725 Y69.885 E.12216
G1 X70.939 Y66.671 E.14251
G1 X74.702 Y67.679 E.12216
G1 X77.916 Y64.465 E.14251
G1 X76.908 Y60.702 E.12216
G1 X80.122 Y57.488 E.14251
G1 X83.885 Y58.496 E.12216
G1 X87.099 Y55.282 E.14251
G1 X86.091 Y51.519 E.12216
G1 X89.305 Y48.305 E.14251
G1 X93.068 Y49.313 E.12216
G1 X96.282 Y46.099 E.14251
G1 X95.336 Y42.569 E.11461
G1 X97.836 Y42.569 E.07839
M204 S1000
;WIPE_START
G1 F8640
G1 X95.336 Y42.569 E-.57726
G1 X95.541 Y43.333 E-.18274
;WIPE_END
G1 E-.04 F2100
G1 Z.6 F720
G1 X123.06 Y88.056 F10800
G1 Z.2 F720
G1 E.8 F2100
M204 S800
G1 F1200
G1 X121.781 Y88.056 E.0401
G1 X119.175 Y87.358 E.08461
G1 X118.476 Y88.056 E.03097
G1 X117.946 Y88.056 E.01662
G1 X118.91 Y87.093 E.04272
G1 X117.901 Y83.329 E.12216
